;FLAVOR:Marlin
;TIME:4895
;Filament used: 5.91138m
;Layer height: 0.2
;MINX:56.205
;MINY:106.331
;MINZ:0.2
;MAXX:218.205
;MAXY:168.331
;MAXZ:12
;Generated with Cura_SteamEngine 5.4.0
M140 S60
M105
M190 S60
M104 S200
M105
M109 S200
M82 ;absolute extrusion mode
M201 X500.00 Y500.00 Z100.00 E5000.00 ;Setup machine max acceleration
M203 X500.00 Y500.00 Z10.00 E50.00 ;Setup machine max feedrate
M204 P500.00 R1000.00 T500.00 ;Setup Print/Retract/Travel acceleration
M205 X8.00 Y8.00 Z0.40 E5.00 ;Setup Jerk
M220 S100 ;Reset Feedrate
M221 S100 ;Reset Flowrate

G28 ;Home

G92 E0 ;Reset Extruder
G1 Z2.0 F3000 ;Move Z Axis up
G1 X10.1 Y20 Z0.28 F5000.0 ;Move to start position
G1 X10.1 Y200.0 Z0.28 F1500.0 E15 ;Draw the first line
G1 X10.4 Y200.0 Z0.28 F5000.0 ;Move to side a little
G1 X10.4 Y20 Z0.28 F1500.0 E30 ;Draw the second line
G92 E0 ;Reset Extruder
G1 Z2.0 F3000 ;Move Z Axis up

G92 E0
G92 E0
G1 F1500 E-6.5
;LAYER_COUNT:60
;LAYER:0
M107
G0 F9000 X62.026 Y107.642 Z0.2
;TYPE:SKIRT
G1 F1500 E0
G1 F3000 X62.904 Y107.221 E0.03239
G1 X63.817 Y106.879 E0.06481
G1 X64.754 Y106.62 E0.09715
G1 X65.721 Y106.442 E0.12985
G1 X66.86 Y106.346 E0.16787
G1 X67.517 Y106.331 E0.18972
G1 X206.509 Y106.331 E4.81262
G1 X207.389 Y106.344 E4.84189
G1 X208.361 Y106.403 E4.87428
G1 X209.324 Y106.549 E4.90667
G1 X210.271 Y106.78 E4.93909
G1 X211.159 Y107.08 E4.97027
G1 X212.051 Y107.47 E5.00265
G1 X212.934 Y107.957 E5.03619
G1 X213.685 Y108.459 E5.06623
G1 X214.5 Y109.117 E5.10107
G1 X215.198 Y109.795 E5.13344
G1 X215.834 Y110.532 E5.16581
G1 X216.404 Y111.322 E5.19822
G1 X216.866 Y112.098 E5.22825
G1 X217.32 Y113.04 E5.26303
G1 X217.649 Y113.918 E5.29422
G1 X217.918 Y114.89 E5.32776
G1 X218.095 Y115.856 E5.36043
G1 X218.19 Y116.986 E5.39814
G1 X218.205 Y117.661 E5.4206
G1 X218.204 Y156.731 E6.72007
G1 X218.193 Y157.494 E6.74545
G1 X218.136 Y158.467 E6.77787
G1 X217.991 Y159.43 E6.81026
G1 X217.762 Y160.376 E6.84263
G1 X217.451 Y161.3 E6.87506
G1 X217.059 Y162.191 E6.90744
G1 X216.591 Y163.043 E6.93977
G1 X216.069 Y163.824 E6.97101
G1 X215.436 Y164.609 E7.00455
G1 X214.811 Y165.26 E7.03457
G1 X214.022 Y165.948 E7.06939
G1 X213.262 Y166.498 E7.10059
G1 X212.395 Y167.015 E7.13416
G1 X211.517 Y167.437 E7.16656
G1 X210.606 Y167.779 E7.19893
G1 X209.667 Y168.04 E7.23134
G1 X208.701 Y168.218 E7.26401
G1 X207.55 Y168.316 E7.30243
G1 X206.875 Y168.331 E7.32489
G1 X67.769 Y168.33 E11.95157
G1 X67.036 Y168.319 E11.97596
G1 X66.064 Y168.262 E12.00834
G1 X65.101 Y168.116 E12.04074
G1 X64.155 Y167.887 E12.07311
G1 X63.231 Y167.575 E12.10555
G1 X62.341 Y167.183 E12.13789
G1 X61.518 Y166.732 E12.16911
G1 X60.679 Y166.171 E12.20268
G1 X59.975 Y165.605 E12.23272
G1 X59.222 Y164.88 E12.26749
G1 X58.585 Y164.144 E12.29986
G1 X58.055 Y163.413 E12.32989
G1 X57.519 Y162.516 E12.36465
G1 X57.097 Y161.638 E12.39705
G1 X56.755 Y160.726 E12.42944
G1 X56.495 Y159.788 E12.46182
G1 X56.317 Y158.819 E12.49459
G1 X56.219 Y157.64 E12.53393
G1 X56.205 Y156.989 E12.55559
G1 X56.206 Y117.856 E13.85716
G1 X56.217 Y117.156 E13.88045
G1 X56.275 Y116.183 E13.91287
G1 X56.421 Y115.22 E13.94526
G1 X56.651 Y114.274 E13.97764
G1 X56.964 Y113.351 E14.01006
G1 X57.356 Y112.461 E14.0424
G1 X57.826 Y111.608 E14.0748
G1 X58.369 Y110.8 E14.10717
G1 X58.936 Y110.096 E14.13724
G1 X59.661 Y109.344 E14.17198
G1 X60.397 Y108.707 E14.20436
G1 X61.129 Y108.177 E14.23442
G1 X62.026 Y107.642 E14.26915
G0 F9000 X62.2 Y108.002
G1 F3000 X63.045 Y107.595 E14.30035
G1 X63.924 Y107.264 E14.33159
G1 X64.827 Y107.013 E14.36276
G1 X65.755 Y106.841 E14.39415
G1 X66.894 Y106.745 E14.43217
G1 X67.526 Y106.731 E14.45319
G1 X206.503 Y106.731 E19.07559
G1 X207.365 Y106.743 E19.10426
G1 X208.302 Y106.799 E19.13548
G1 X209.23 Y106.938 E19.16669
G1 X210.143 Y107.159 E19.19794
G1 X210.999 Y107.447 E19.22797
G1 X211.891 Y107.837 E19.26035
G1 X212.712 Y108.29 E19.29154
G1 X213.463 Y108.792 E19.32159
G1 X214.222 Y109.404 E19.35401
G1 X214.896 Y110.057 E19.38523
G1 X215.51 Y110.766 E19.41642
G1 X216.06 Y111.527 E19.44765
G1 X216.522 Y112.303 E19.47769
G1 X216.945 Y113.18 E19.51008
G1 X217.274 Y114.058 E19.54126
G1 X217.525 Y114.963 E19.5725
G1 X217.696 Y115.89 E19.60385
G1 X217.791 Y117.02 E19.64157
G1 X217.805 Y117.661 E19.66289
G1 X217.804 Y156.726 E20.9622
G1 X217.794 Y157.471 E20.98698
G1 X217.74 Y158.408 E21.0182
G1 X217.602 Y159.337 E21.04943
G1 X217.383 Y160.249 E21.08063
G1 X217.085 Y161.139 E21.11185
G1 X216.708 Y161.999 E21.14308
G1 X216.258 Y162.821 E21.17425
G1 X215.736 Y163.602 E21.20549
G1 X215.147 Y164.332 E21.23669
G1 X214.522 Y164.983 E21.2667
G1 X213.787 Y165.624 E21.29914
G1 X213.027 Y166.174 E21.33034
G1 X212.221 Y166.655 E21.36156
G1 X211.376 Y167.063 E21.39277
G1 X210.498 Y167.394 E21.42398
G1 X209.594 Y167.647 E21.4552
G1 X208.667 Y167.819 E21.48656
G1 X207.516 Y167.917 E21.52498
G1 X206.875 Y167.931 E21.54631
G1 X67.775 Y167.93 E26.17279
G1 X67.059 Y167.92 E26.19661
G1 X66.123 Y167.866 E26.22779
G1 X65.194 Y167.727 E26.25903
G1 X64.282 Y167.508 E26.29023
G1 X63.392 Y167.209 E26.32146
G1 X62.533 Y166.832 E26.35266
G1 X61.71 Y166.381 E26.38387
G1 X60.93 Y165.859 E26.41509
G1 X60.226 Y165.293 E26.44513
G1 X59.524 Y164.618 E26.47752
G1 X58.909 Y163.909 E26.50874
G1 X58.379 Y163.178 E26.53877
G1 X57.879 Y162.342 E26.57117
G1 X57.471 Y161.497 E26.60238
G1 X57.14 Y160.619 E26.63359
G1 X56.888 Y159.715 E26.6648
G1 X56.716 Y158.786 E26.69622
G1 X56.618 Y157.607 E26.73557
G1 X56.605 Y156.989 E26.75613
G1 X56.606 Y117.862 E28.0575
G1 X56.616 Y117.179 E28.08022
G1 X56.671 Y116.242 E28.11144
G1 X56.81 Y115.314 E28.14265
G1 X57.03 Y114.402 E28.17385
G1 X57.33 Y113.512 E28.20509
G1 X57.707 Y112.653 E28.23629
G1 X58.158 Y111.831 E28.26748
G1 X58.681 Y111.051 E28.29871
G1 X59.248 Y110.347 E28.32878
G1 X59.923 Y109.646 E28.36114
G1 X60.632 Y109.031 E28.39236
G1 X61.364 Y108.501 E28.42242
G1 X62.2 Y108.002 E28.4548
G0 F9000 X62.374 Y108.362
G1 F3000 X63.187 Y107.969 E28.48483
G1 X64.032 Y107.649 E28.51489
G1 X64.901 Y107.406 E28.5449
G1 X65.789 Y107.24 E28.57495
G1 X66.928 Y107.144 E28.61296
G1 X67.535 Y107.131 E28.63316
G1 X206.498 Y107.131 E33.25508
G1 X207.342 Y107.142 E33.28316
G1 X208.244 Y107.195 E33.31321
G1 X209.137 Y107.327 E33.34324
G1 X210.015 Y107.538 E33.37327
G1 X210.871 Y107.826 E33.40331
G1 X211.698 Y108.188 E33.43333
G1 X212.49 Y108.623 E33.46339
G1 X213.241 Y109.125 E33.49343
G1 X213.944 Y109.692 E33.52347
G1 X214.594 Y110.319 E33.55351
G1 X215.186 Y111.001 E33.58355
G1 X215.716 Y111.732 E33.61358
G1 X216.178 Y112.508 E33.64362
G1 X216.571 Y113.321 E33.67365
G1 X216.889 Y114.166 E33.70368
G1 X217.132 Y115.036 E33.73372
G1 X217.297 Y115.924 E33.76376
G1 X217.392 Y117.054 E33.80148
G1 X217.405 Y117.661 E33.82167
G1 X217.404 Y156.721 E35.12081
G1 X217.395 Y157.448 E35.145
G1 X217.344 Y158.35 E35.17504
G1 X217.213 Y159.244 E35.2051
G1 X217.004 Y160.122 E35.23512
G1 X216.718 Y160.979 E35.26516
G1 X216.357 Y161.807 E35.29521
G1 X215.925 Y162.599 E35.32521
G1 X215.424 Y163.351 E35.35527
G1 X214.858 Y164.055 E35.38531
G1 X214.233 Y164.706 E35.41533
G1 X213.552 Y165.3 E35.44538
G1 X212.821 Y165.831 E35.47543
G1 X212.047 Y166.295 E35.50545
G1 X211.234 Y166.689 E35.5355
G1 X210.39 Y167.009 E35.56552
G1 X209.52 Y167.254 E35.59558
G1 X208.633 Y167.42 E35.62559
G1 X207.482 Y167.518 E35.66402
G1 X206.875 Y167.531 E35.68421
G1 X67.78 Y167.53 E40.31053
G1 X67.082 Y167.521 E40.33375
G1 X66.181 Y167.47 E40.36376
G1 X65.287 Y167.338 E40.39382
G1 X64.409 Y167.129 E40.42384
G1 X63.552 Y166.842 E40.4539
G1 X62.725 Y166.481 E40.48391
G1 X61.932 Y166.048 E40.51396
G1 X61.181 Y165.547 E40.54399
G1 X60.477 Y164.981 E40.57403
G1 X59.826 Y164.355 E40.60407
G1 X59.233 Y163.674 E40.6341
G1 X58.703 Y162.943 E40.66413
G1 X58.239 Y162.168 E40.69418
G1 X57.845 Y161.355 E40.72423
G1 X57.525 Y160.511 E40.75425
G1 X57.281 Y159.641 E40.7843
G1 X57.115 Y158.753 E40.81435
G1 X57.018 Y157.598 E40.8529
G1 X57.005 Y156.989 E40.87316
G1 X57.006 Y117.867 E42.17436
G1 X57.015 Y117.202 E42.19648
G1 X57.067 Y116.3 E42.22653
G1 X57.199 Y115.407 E42.25655
G1 X57.409 Y114.529 E42.28658
G1 X57.696 Y113.672 E42.31664
G1 X58.058 Y112.845 E42.34667
G1 X58.491 Y112.053 E42.37669
G1 X58.993 Y111.302 E42.40673
G1 X59.56 Y110.598 E42.4368
G1 X60.186 Y109.948 E42.46681
G1 X60.867 Y109.355 E42.49685
G1 X61.599 Y108.825 E42.52691
G1 X62.374 Y108.362 E42.55693
G1 F1500 E36.05693
;MESH:Body1.3mf
G0 F9000 X68.005 Y116.666
G0 X206.605 Y156.731
;TYPE:WALL-INNER
G1 F1500 E42.55693
G1 F3000 X206.605 Y117.931 E43.84742
G1 X67.805 Y117.931 E48.46393
G1 X67.805 Y156.731 E49.75442
G1 X206.605 Y156.731 E54.37093
G0 F9000 X207.005 Y157.131
;TYPE:WALL-OUTER
G1 F3000 X207.005 Y117.531 E55.68803
G1 X67.405 Y117.531 E60.33115
G1 X67.405 Y157.131 E61.64825
G1 X207.005 Y157.131 E66.29136
G0 F9000 X206.735 Y156.861
G0 X206.505 Y156.371
G0 X206.245 Y156.371
;TYPE:SKIN
G1 F3000 X68.165 Y156.371 E70.88392
G1 X68.165 Y118.291 E72.15047
G1 X206.245 Y118.291 E76.74303
G1 X206.245 Y156.371 E78.00957
G1 F1500 E71.50957
G0 F9000 X206.505 Y156.371
G0 X206.505 Y118.928
G0 X206.044 Y118.928
G1 F1500 E78.00957
G1 F3000 X205.606 Y118.49 E78.03018
G0 F9000 X205.04 Y118.49
G1 F3000 X206.044 Y119.494 E78.0774
G0 F9000 X206.044 Y120.06
G1 F3000 X204.474 Y118.49 E78.15125
G0 F9000 X203.909 Y118.49
G1 F3000 X206.044 Y120.626 E78.2517
G0 F9000 X206.044 Y121.191
G1 F3000 X203.343 Y118.49 E78.37874
G0 F9000 X202.777 Y118.49
G1 F3000 X206.044 Y121.757 E78.53241
G0 F9000 X206.044 Y122.323
G1 F3000 X202.212 Y118.49 E78.71268
G0 F9000 X201.646 Y118.49
G1 F3000 X206.044 Y122.888 E78.91955
G0 F9000 X206.044 Y123.454
G1 F3000 X201.08 Y118.49 E79.15304
G0 F9000 X200.514 Y118.49
G1 F3000 X206.044 Y124.02 E79.41316
G0 F9000 X206.044 Y124.585
G1 F3000 X199.949 Y118.49 E79.69985
G0 F9000 X199.383 Y118.49
G1 F3000 X206.044 Y125.151 E80.01316
G0 F9000 X206.044 Y125.717
G1 F3000 X198.817 Y118.49 E80.3531
G0 F9000 X198.252 Y118.49
G1 F3000 X206.044 Y126.282 E80.71961
G0 F9000 X206.044 Y126.848
G1 F3000 X197.686 Y118.49 E81.11274
G0 F9000 X197.12 Y118.49
G1 F3000 X206.044 Y127.414 E81.5325
G0 F9000 X206.044 Y127.979
G1 F3000 X196.555 Y118.49 E81.97883
G0 F9000 X195.989 Y118.49
G1 F3000 X206.044 Y128.545 E82.45179
G0 F9000 X206.044 Y129.111
G1 F3000 X195.423 Y118.49 E82.95137
G0 F9000 X194.858 Y118.49
G1 F3000 X206.044 Y129.677 E83.47755
G0 F9000 X206.044 Y130.242
G1 F3000 X194.292 Y118.49 E84.03033
G0 F9000 X193.726 Y118.49
G1 F3000 X206.044 Y130.808 E84.60973
G0 F9000 X206.044 Y131.374
G1 F3000 X193.161 Y118.49 E85.21573
G0 F9000 X192.595 Y118.49
G1 F3000 X206.044 Y131.939 E85.84833
G0 F9000 X206.044 Y132.505
G1 F3000 X192.029 Y118.49 E86.50755
G0 F9000 X191.464 Y118.49
G1 F3000 X206.044 Y133.071 E87.19337
G0 F9000 X206.044 Y133.636
G1 F3000 X190.898 Y118.49 E87.90579
G0 F9000 X190.332 Y118.49
G1 F3000 X206.044 Y134.202 E88.64484
G0 F9000 X206.044 Y134.768
G1 F3000 X189.766 Y118.49 E89.4105
G0 F9000 X189.201 Y118.49
G1 F3000 X206.044 Y135.333 E90.20275
G0 F9000 X206.044 Y135.899
G1 F3000 X188.635 Y118.49 E91.02161
G0 F9000 X188.069 Y118.49
G1 F3000 X206.044 Y136.465 E91.8671
G0 F9000 X206.044 Y137.03
G1 F3000 X187.504 Y118.49 E92.73917
G0 F9000 X186.938 Y118.49
G1 F3000 X206.044 Y137.596 E93.63785
G0 F9000 X206.044 Y138.162
G1 F3000 X186.372 Y118.49 E94.56317
G0 F9000 X185.807 Y118.49
G1 F3000 X206.044 Y138.727 E95.51505
G0 F9000 X206.044 Y139.293
G1 F3000 X185.241 Y118.49 E96.49356
G0 F9000 X184.675 Y118.49
G1 F3000 X206.044 Y139.859 E97.49869
G0 F9000 X206.044 Y140.425
G1 F3000 X184.11 Y118.49 E98.53042
G0 F9000 X183.544 Y118.49
G1 F3000 X206.044 Y140.99 E99.58876
G0 F9000 X206.044 Y141.556
G1 F3000 X182.978 Y118.49 E100.67371
G0 F9000 X182.413 Y118.49
G1 F3000 X206.044 Y142.122 E101.78526
G0 F9000 X206.044 Y142.687
G1 F3000 X181.847 Y118.49 E102.92342
G0 F9000 X181.281 Y118.49
G1 F3000 X206.044 Y143.253 E104.08819
G0 F9000 X206.044 Y143.819
G1 F3000 X180.715 Y118.49 E105.27959
G0 F9000 X180.15 Y118.49
G1 F3000 X206.044 Y144.384 E106.49756
G0 F9000 X206.044 Y144.95
G1 F3000 X179.584 Y118.49 E107.74216
G0 F9000 X179.018 Y118.49
G1 F3000 X206.044 Y145.516 E109.01338
G0 F9000 X206.044 Y146.081
G1 F3000 X178.453 Y118.49 E110.31118
G0 F9000 X177.887 Y118.49
G1 F3000 X206.044 Y146.647 E111.6356
G0 F9000 X206.044 Y147.213
G1 F3000 X177.321 Y118.49 E112.98664
G0 F9000 X176.756 Y118.49
G1 F3000 X206.044 Y147.778 E114.36426
G0 F9000 X206.044 Y148.344
G1 F3000 X176.19 Y118.49 E115.7685
G0 F9000 X175.624 Y118.49
G1 F3000 X206.044 Y148.91 E117.19936
G0 F9000 X206.044 Y149.476
G1 F3000 X175.059 Y118.49 E118.65682
G0 F9000 X174.493 Y118.49
G1 F3000 X206.044 Y150.041 E120.14089
G0 F9000 X206.044 Y150.607
G1 F3000 X173.927 Y118.49 E121.65157
G0 F9000 X173.362 Y118.49
G1 F3000 X206.044 Y151.173 E123.18886
G0 F9000 X206.044 Y151.738
G1 F3000 X172.796 Y118.49 E124.75274
G0 F9000 X172.23 Y118.49
G1 F3000 X206.044 Y152.304 E126.34325
G0 F9000 X206.044 Y152.87
G1 F3000 X171.665 Y118.49 E127.96035
G0 F9000 X171.099 Y118.49
G1 F3000 X206.044 Y153.435 E129.60406
G0 F9000 X206.044 Y154.001
G1 F3000 X170.533 Y118.49 E131.27439
G0 F9000 X169.967 Y118.49
G1 F3000 X206.044 Y154.567 E132.97134
G0 F9000 X206.044 Y155.132
G1 F3000 X169.402 Y118.49 E134.69487
G0 F9000 X168.836 Y118.49
G1 F3000 X206.044 Y155.698 E136.44502
G0 F9000 X205.95 Y156.17
G1 F3000 X168.27 Y118.49 E138.21737
G0 F9000 X167.705 Y118.49
G1 F3000 X205.384 Y156.17 E139.9897
G0 F9000 X204.819 Y156.17
G1 F3000 X167.139 Y118.49 E141.76205
G0 F9000 X166.573 Y118.49
G1 F3000 X204.253 Y156.17 E143.5344
G0 F9000 X203.687 Y156.17
G1 F3000 X166.008 Y118.49 E145.30673
G0 F9000 X165.442 Y118.49
G1 F3000 X203.122 Y156.17 E147.07908
G0 F9000 X202.556 Y156.17
G1 F3000 X164.876 Y118.49 E148.85143
G0 F9000 X164.311 Y118.49
G1 F3000 X201.99 Y156.17 E150.62376
G0 F9000 X201.425 Y156.17
G1 F3000 X163.745 Y118.49 E152.39611
G0 F9000 X163.179 Y118.49
G1 F3000 X200.859 Y156.17 E154.16846
G0 F9000 X200.293 Y156.17
G1 F3000 X162.614 Y118.49 E155.94079
G0 F9000 X162.048 Y118.49
G1 F3000 X199.727 Y156.17 E157.71312
G0 F9000 X199.162 Y156.17
G1 F3000 X161.482 Y118.49 E159.48547
G0 F9000 X160.916 Y118.49
G1 F3000 X198.596 Y156.17 E161.25782
G0 F9000 X198.03 Y156.17
G1 F3000 X160.351 Y118.49 E163.03015
G0 F9000 X159.785 Y118.49
G1 F3000 X197.465 Y156.17 E164.8025
G0 F9000 X196.899 Y156.17
G1 F3000 X159.219 Y118.49 E166.57485
G0 F9000 X158.654 Y118.49
G1 F3000 X196.333 Y156.17 E168.34718
G0 F9000 X195.768 Y156.17
G1 F3000 X158.088 Y118.49 E170.11953
G0 F9000 X157.522 Y118.49
G1 F3000 X195.202 Y156.17 E171.89188
G0 F9000 X194.636 Y156.17
G1 F3000 X156.957 Y118.49 E173.66421
G0 F9000 X156.391 Y118.49
G1 F3000 X194.071 Y156.17 E175.43656
G0 F9000 X193.505 Y156.17
G1 F3000 X155.825 Y118.49 E177.20892
G0 F9000 X155.26 Y118.49
G1 F3000 X192.939 Y156.17 E178.98124
G0 F9000 X192.374 Y156.17
G1 F3000 X154.694 Y118.49 E180.7536
G0 F9000 X154.128 Y118.49
G1 F3000 X191.808 Y156.17 E182.52595
G0 F9000 X191.242 Y156.17
G1 F3000 X153.563 Y118.49 E184.29828
G0 F9000 X152.997 Y118.49
G1 F3000 X190.677 Y156.17 E186.07063
G0 F9000 X190.111 Y156.17
G1 F3000 X152.431 Y118.49 E187.84298
G0 F9000 X151.866 Y118.49
G1 F3000 X189.545 Y156.17 E189.61531
G0 F9000 X188.979 Y156.17
G1 F3000 X151.3 Y118.49 E191.38764
G0 F9000 X150.734 Y118.49
G1 F3000 X188.414 Y156.17 E193.15999
G0 F9000 X187.848 Y156.17
G1 F3000 X150.168 Y118.49 E194.93234
G0 F9000 X149.603 Y118.49
G1 F3000 X187.282 Y156.17 E196.70467
G0 F9000 X186.717 Y156.17
G1 F3000 X149.037 Y118.49 E198.47702
G0 F9000 X148.471 Y118.49
G1 F3000 X186.151 Y156.17 E200.24937
G0 F9000 X185.585 Y156.17
G1 F3000 X147.906 Y118.49 E202.0217
G0 F9000 X147.34 Y118.49
G1 F3000 X185.02 Y156.17 E203.79405
G0 F9000 X184.454 Y156.17
G1 F3000 X146.774 Y118.49 E205.5664
G0 F9000 X146.209 Y118.49
G1 F3000 X183.888 Y156.17 E207.33873
G0 F9000 X183.323 Y156.17
G1 F3000 X145.643 Y118.49 E209.11108
G0 F9000 X145.077 Y118.49
G1 F3000 X182.757 Y156.17 E210.88343
G0 F9000 X182.191 Y156.17
G1 F3000 X144.512 Y118.49 E212.65576
G0 F9000 X143.946 Y118.49
G1 F3000 X181.626 Y156.17 E214.42811
G0 F9000 X181.06 Y156.17
G1 F3000 X143.38 Y118.49 E216.20047
G0 F9000 X142.815 Y118.49
