;FLAVOR:Marlin
;TIME:10297
;Filament used: 13.0249m
;Layer height: 0.2
;MINX:89.97
;MINY:89.23
;MINZ:0.2
;MAXX:186.97
;MAXY:186.23
;MAXZ:30
;Generated with Cura_SteamEngine 5.4.0
M140 S60
M105
M190 S60
M104 S200
M105
M109 S200
M82 ;absolute extrusion mode
M201 X500.00 Y500.00 Z100.00 E5000.00 ;Setup machine max acceleration
M203 X500.00 Y500.00 Z10.00 E50.00 ;Setup machine max feedrate
M204 P500.00 R1000.00 T500.00 ;Setup Print/Retract/Travel acceleration
M205 X8.00 Y8.00 Z0.40 E5.00 ;Setup Jerk
M220 S100 ;Reset Feedrate
M221 S100 ;Reset Flowrate

G28 ;Home

G92 E0 ;Reset Extruder
G1 Z2.0 F3000 ;Move Z Axis up
G1 X10.1 Y20 Z0.28 F5000.0 ;Move to start position
G1 X10.1 Y200.0 Z0.28 F1500.0 E15 ;Draw the first line
G1 X10.4 Y200.0 Z0.28 F5000.0 ;Move to side a little
G1 X10.4 Y20 Z0.28 F1500.0 E30 ;Draw the second line
G92 E0 ;Reset Extruder
G1 Z2.0 F3000 ;Move Z Axis up

G92 E0
G92 E0
G1 F1500 E-6.5
;LAYER_COUNT:150
;LAYER:0
M107
G0 F9000 X93.426 Y92.243 Z0.2
;TYPE:SKIRT
G1 F1500 E0
G1 F2400 X94.162 Y91.606 E0.03237
G1 X94.894 Y91.076 E0.06243
G1 X95.791 Y90.541 E0.09717
G1 X96.669 Y90.12 E0.12956
G1 X97.582 Y89.778 E0.16198
G1 X98.519 Y89.519 E0.19432
G1 X99.486 Y89.341 E0.22702
G1 X100.625 Y89.245 E0.26504
G1 X101.282 Y89.23 E0.2869
G1 X175.274 Y89.23 E2.74788
G1 X176.154 Y89.243 E2.77715
G1 X177.126 Y89.302 E2.80954
G1 X178.089 Y89.448 E2.84194
G1 X179.036 Y89.679 E2.87436
G1 X179.924 Y89.979 E2.90553
G1 X180.816 Y90.369 E2.93791
G1 X181.699 Y90.856 E2.97145
G1 X182.45 Y91.358 E3.00149
G1 X183.265 Y92.016 E3.03633
G1 X183.963 Y92.694 E3.0687
G1 X184.599 Y93.431 E3.10108
G1 X185.169 Y94.221 E3.13348
G1 X185.631 Y94.997 E3.16352
G1 X186.085 Y95.939 E3.1983
G1 X186.414 Y96.817 E3.22948
G1 X186.683 Y97.789 E3.26302
G1 X186.86 Y98.755 E3.29569
G1 X186.955 Y99.885 E3.33341
G1 X186.97 Y100.56 E3.35586
G1 X186.969 Y174.63 E5.81944
G1 X186.958 Y175.393 E5.84482
G1 X186.901 Y176.366 E5.87724
G1 X186.756 Y177.329 E5.90963
G1 X186.527 Y178.275 E5.942
G1 X186.216 Y179.199 E5.97443
G1 X185.824 Y180.09 E6.0068
G1 X185.356 Y180.942 E6.03913
G1 X184.834 Y181.723 E6.07038
G1 X184.201 Y182.508 E6.10392
G1 X183.576 Y183.159 E6.13393
G1 X182.787 Y183.847 E6.16875
G1 X182.027 Y184.397 E6.19996
G1 X181.16 Y184.914 E6.23353
G1 X180.282 Y185.336 E6.26593
G1 X179.371 Y185.678 E6.29829
G1 X178.432 Y185.939 E6.33071
G1 X177.466 Y186.117 E6.36338
G1 X176.315 Y186.215 E6.4018
G1 X175.64 Y186.23 E6.42426
G1 X101.534 Y186.229 E8.88903
G1 X100.801 Y186.218 E8.91342
G1 X99.829 Y186.161 E8.9458
G1 X98.866 Y186.015 E8.9782
G1 X97.92 Y185.786 E9.01057
G1 X96.996 Y185.474 E9.04301
G1 X96.106 Y185.082 E9.07535
G1 X95.283 Y184.631 E9.10656
G1 X94.444 Y184.07 E9.14013
G1 X93.74 Y183.504 E9.17018
G1 X92.987 Y182.779 E9.20494
G1 X92.35 Y182.043 E9.23732
G1 X91.82 Y181.312 E9.26735
G1 X91.284 Y180.415 E9.3021
G1 X90.862 Y179.537 E9.33451
G1 X90.52 Y178.625 E9.3669
G1 X90.26 Y177.687 E9.39928
G1 X90.082 Y176.718 E9.43204
G1 X89.984 Y175.539 E9.47139
G1 X89.97 Y174.888 E9.49305
G1 X89.971 Y100.755 E11.95872
G1 X89.982 Y100.055 E11.98201
G1 X90.04 Y99.082 E12.01443
G1 X90.186 Y98.119 E12.04682
G1 X90.416 Y97.173 E12.0792
G1 X90.729 Y96.25 E12.11162
G1 X91.121 Y95.36 E12.14397
G1 X91.591 Y94.507 E12.17636
G1 X92.134 Y93.699 E12.20874
G1 X92.701 Y92.995 E12.2388
G1 X93.426 Y92.243 E12.27355
G0 F9000 X93.688 Y92.545
G1 F2400 X94.397 Y91.93 E12.30476
G1 X95.129 Y91.4 E12.33482
G1 X95.965 Y90.901 E12.3672
G1 X96.81 Y90.494 E12.3984
G1 X97.689 Y90.163 E12.42964
G1 X98.592 Y89.912 E12.46081
G1 X99.52 Y89.74 E12.4922
G1 X100.659 Y89.644 E12.53022
G1 X101.291 Y89.63 E12.55124
G1 X175.268 Y89.63 E15.01173
G1 X176.13 Y89.642 E15.0404
G1 X177.067 Y89.698 E15.07162
G1 X177.995 Y89.837 E15.10283
G1 X178.908 Y90.058 E15.13408
G1 X179.764 Y90.346 E15.16411
G1 X180.656 Y90.736 E15.19649
G1 X181.477 Y91.189 E15.22768
G1 X182.228 Y91.691 E15.25773
G1 X182.987 Y92.303 E15.29016
G1 X183.661 Y92.956 E15.32137
G1 X184.275 Y93.665 E15.35256
G1 X184.825 Y94.426 E15.38379
G1 X185.287 Y95.202 E15.41383
G1 X185.71 Y96.079 E15.44622
G1 X186.039 Y96.957 E15.4774
G1 X186.29 Y97.862 E15.50864
G1 X186.461 Y98.789 E15.53999
G1 X186.556 Y99.919 E15.57771
G1 X186.57 Y100.56 E15.59903
G1 X186.569 Y174.625 E18.06244
G1 X186.559 Y175.37 E18.08722
G1 X186.505 Y176.307 E18.11844
G1 X186.367 Y177.236 E18.14968
G1 X186.148 Y178.148 E18.18087
G1 X185.85 Y179.038 E18.21209
G1 X185.473 Y179.898 E18.24332
G1 X185.023 Y180.72 E18.27449
G1 X184.501 Y181.501 E18.30573
G1 X183.912 Y182.231 E18.33693
G1 X183.287 Y182.882 E18.36695
G1 X182.552 Y183.523 E18.39938
G1 X181.792 Y184.073 E18.43059
G1 X180.986 Y184.554 E18.46181
G1 X180.141 Y184.962 E18.49301
G1 X179.263 Y185.293 E18.52422
G1 X178.359 Y185.546 E18.55545
G1 X177.432 Y185.718 E18.5868
G1 X176.281 Y185.816 E18.62523
G1 X175.64 Y185.83 E18.64655
G1 X101.54 Y185.829 E21.11113
G1 X100.824 Y185.819 E21.13494
G1 X99.888 Y185.765 E21.16613
G1 X98.959 Y185.626 E21.19737
G1 X98.047 Y185.407 E21.22856
G1 X97.157 Y185.108 E21.25979
G1 X96.298 Y184.731 E21.29099
G1 X95.475 Y184.28 E21.32221
G1 X94.695 Y183.758 E21.35342
G1 X93.991 Y183.192 E21.38347
G1 X93.289 Y182.517 E21.41586
G1 X92.674 Y181.808 E21.44707
G1 X92.144 Y181.077 E21.47711
G1 X91.644 Y180.241 E21.50951
G1 X91.236 Y179.396 E21.54071
G1 X90.905 Y178.518 E21.57192
G1 X90.653 Y177.614 E21.60314
G1 X90.481 Y176.685 E21.63456
G1 X90.383 Y175.506 E21.67391
G1 X90.37 Y174.888 E21.69447
G1 X90.371 Y100.761 E24.15994
G1 X90.381 Y100.078 E24.18266
G1 X90.436 Y99.141 E24.21388
G1 X90.575 Y98.213 E24.24509
G1 X90.795 Y97.301 E24.27629
G1 X91.095 Y96.411 E24.30753
G1 X91.472 Y95.552 E24.33873
G1 X91.923 Y94.73 E24.36992
G1 X92.446 Y93.95 E24.40115
G1 X93.013 Y93.246 E24.43122
G1 X93.688 Y92.545 E24.46358
G0 F9000 X93.951 Y92.847
G1 F2400 X94.632 Y92.254 E24.49362
G1 X95.364 Y91.724 E24.52368
G1 X96.139 Y91.261 E24.5537
G1 X96.952 Y90.868 E24.58374
G1 X97.797 Y90.548 E24.61379
G1 X98.666 Y90.305 E24.6438
G1 X99.554 Y90.139 E24.67385
G1 X100.693 Y90.043 E24.71187
G1 X101.3 Y90.03 E24.73206
G1 X175.263 Y90.03 E27.19208
G1 X176.107 Y90.041 E27.22015
G1 X177.009 Y90.094 E27.2502
G1 X177.902 Y90.226 E27.28023
G1 X178.78 Y90.437 E27.31026
G1 X179.636 Y90.725 E27.3403
G1 X180.463 Y91.087 E27.37033
G1 X181.255 Y91.522 E27.40038
G1 X182.006 Y92.024 E27.43043
G1 X182.709 Y92.591 E27.46046
G1 X183.359 Y93.218 E27.4905
G1 X183.951 Y93.9 E27.52054
G1 X184.481 Y94.631 E27.55057
G1 X184.943 Y95.407 E27.58061
G1 X185.336 Y96.22 E27.61064
G1 X185.654 Y97.065 E27.64067
G1 X185.897 Y97.935 E27.67072
G1 X186.062 Y98.823 E27.70076
G1 X186.157 Y99.953 E27.73847
G1 X186.17 Y100.56 E27.75867
G1 X186.169 Y174.62 E30.22191
G1 X186.16 Y175.347 E30.24609
G1 X186.109 Y176.249 E30.27614
G1 X185.978 Y177.143 E30.30619
G1 X185.769 Y178.021 E30.33621
G1 X185.483 Y178.878 E30.36626
G1 X185.122 Y179.706 E30.39631
G1 X184.69 Y180.498 E30.42631
G1 X184.189 Y181.25 E30.45637
G1 X183.623 Y181.954 E30.48641
G1 X182.998 Y182.605 E30.51643
G1 X182.317 Y183.199 E30.54648
G1 X181.586 Y183.73 E30.57653
G1 X180.812 Y184.194 E30.60655
G1 X179.999 Y184.588 E30.6366
G1 X179.155 Y184.908 E30.66662
G1 X178.285 Y185.153 E30.69668
G1 X177.398 Y185.319 E30.72669
G1 X176.247 Y185.417 E30.76511
G1 X175.64 Y185.43 E30.78531
G1 X101.545 Y185.429 E33.24972
G1 X100.847 Y185.42 E33.27293
G1 X99.946 Y185.369 E33.30295
G1 X99.052 Y185.237 E33.33301
G1 X98.174 Y185.028 E33.36303
G1 X97.317 Y184.741 E33.39308
G1 X96.49 Y184.38 E33.4231
G1 X95.697 Y183.947 E33.45315
G1 X94.946 Y183.446 E33.48317
G1 X94.242 Y182.88 E33.51322
G1 X93.591 Y182.254 E33.54326
G1 X92.998 Y181.573 E33.57329
G1 X92.468 Y180.842 E33.60332
G1 X92.004 Y180.067 E33.63337
G1 X91.61 Y179.254 E33.66341
G1 X91.29 Y178.41 E33.69344
G1 X91.046 Y177.54 E33.72349
G1 X90.88 Y176.652 E33.75354
G1 X90.783 Y175.497 E33.79209
G1 X90.77 Y174.888 E33.81235
G1 X90.771 Y100.766 E36.27765
G1 X90.78 Y100.101 E36.29977
G1 X90.832 Y99.199 E36.32982
G1 X90.964 Y98.306 E36.35985
G1 X91.174 Y97.428 E36.38987
G1 X91.461 Y96.571 E36.41993
G1 X91.823 Y95.744 E36.44996
G1 X92.256 Y94.952 E36.47998
G1 X92.758 Y94.201 E36.51003
G1 X93.325 Y93.497 E36.54009
G1 X93.951 Y92.847 E36.57011
G1 F1500 E30.07011
;MESH:Body1.3mf
G0 F9000 X120.876 Y120.28
G0 X123.473 Y124.862
;TYPE:WALL-INNER
G1 F1500 E36.57011
G1 F2400 X122.793 Y124.9 E36.59276
G1 X122.151 Y124.782 E36.61447
G1 X121.525 Y124.482 E36.63756
G1 X121.014 Y124.062 E36.65956
G1 X120.613 Y123.498 E36.68258
G1 X120.373 Y122.885 E36.70447
G1 X120.291 Y122.22 E36.72676
G1 X120.372 Y121.574 E36.74841
G1 X120.613 Y120.962 E36.77029
G1 X121.025 Y120.387 E36.79381
G1 X121.54 Y119.964 E36.81598
G1 X122.152 Y119.679 E36.83843
G1 X122.795 Y119.556 E36.86021
G1 X123.481 Y119.6 E36.88307
G1 X124.088 Y119.799 E36.90432
G1 X124.678 Y120.166 E36.92743
G1 X125.136 Y120.65 E36.94959
G1 X125.453 Y121.231 E36.9716
G1 X125.63 Y121.899 E36.99459
G1 X125.629 Y122.571 E37.01694
G1 X125.46 Y123.21 E37.03892
G1 X125.139 Y123.809 E37.06153
G1 X124.681 Y124.294 E37.08371
G1 X124.108 Y124.654 E37.10622
G1 X123.473 Y124.862 E37.12845
G1 F1500 E30.62845
G0 F9000 X123.507 Y124.958
G0 X124.185 Y124.817
G0 X128.234 Y130.076
G0 X138.837 Y150.325
G1 F1500 E37.12845
G1 F2400 X137.463 Y150.291 E37.17416
G1 X136.14 Y150.113 E37.21856
G1 X134.827 Y149.793 E37.26351
G1 X133.576 Y149.341 E37.30775
G1 X132.39 Y148.767 E37.35157
G1 X131.23 Y148.043 E37.39705
G1 X130.19 Y147.228 E37.441
G1 X129.238 Y146.304 E37.48512
G1 X128.333 Y145.217 E37.53217
G1 X127.632 Y144.157 E37.57444
G1 X127.008 Y142.962 E37.61927
G1 X126.506 Y141.688 E37.66482
G1 X126.153 Y140.396 E37.70937
G1 X125.942 Y139.074 E37.75389
G1 X125.871 Y137.698 E37.79972
G1 X125.939 Y136.419 E37.84232
G1 X126.153 Y135.065 E37.88791
G1 X126.506 Y133.772 E37.93249
G1 X126.994 Y132.529 E37.97691
G1 X127.616 Y131.329 E38.02186
G1 X128.372 Y130.192 E38.06727
G1 X129.217 Y129.177 E38.1112
G1 X130.165 Y128.253 E38.15523
G1 X131.23 Y127.417 E38.20026
G1 X132.364 Y126.707 E38.24476
G1 X133.576 Y126.119 E38.28957
G1 X134.827 Y125.667 E38.33381
G1 X136.14 Y125.347 E38.37876
G1 X137.463 Y125.169 E38.42316
G1 X138.837 Y125.135 E38.46887
G1 X140.114 Y125.237 E38.51148
G1 X141.453 Y125.487 E38.55678
G1 X142.778 Y125.89 E38.60285
G1 X143.948 Y126.382 E38.64506
G1 X145.156 Y127.049 E38.69096
G1 X146.281 Y127.843 E38.73676
G1 X147.282 Y128.724 E38.78111
G1 X148.187 Y129.71 E38.82562
G1 X148.973 Y130.768 E38.86946
G1 X149.65 Y131.918 E38.91384
G1 X150.196 Y133.118 E38.95769
G1 X150.624 Y134.409 E39.00293
G1 X150.91 Y135.725 E39.04772
G1 X151.053 Y137.056 E39.09225
G1 X151.053 Y138.404 E39.13708
G1 X150.91 Y139.735 E39.1816
G1 X150.624 Y141.051 E39.2264
G1 X150.209 Y142.31 E39.27049
G1 X149.633 Y143.575 E39.31672
G1 X148.957 Y144.717 E39.36086
G1 X148.172 Y145.77 E39.40454
G1 X147.231 Y146.786 E39.4506
G1 X146.256 Y147.639 E39.49369
G1 X145.182 Y148.394 E39.53735
G1 X143.976 Y149.065 E39.58325
G1 X142.716 Y149.593 E39.62869
G1 X141.456 Y149.973 E39.67247
G1 X140.114 Y150.223 E39.71787
G1 X138.837 Y150.325 E39.76048
G1 F1500 E33.26048
G0 F9000 X138.671 Y150.424
G0 X141.459 Y150.157
G0 X151.197 Y153.941
G0 X153.793 Y155.903
G1 F1500 E39.76048
G1 F2400 X153.149 Y155.781 E39.78228
G1 X152.54 Y155.496 E39.80464
G1 X152.02 Y155.063 E39.82715
G1 X151.617 Y154.514 E39.8498
G1 X151.373 Y153.893 E39.87199
G1 X151.29 Y153.225 E39.89438
G1 X151.379 Y152.551 E39.91699
G1 X151.626 Y151.938 E39.93897
G1 X152.017 Y151.396 E39.9612
G1 X152.525 Y150.974 E39.98317
G1 X153.155 Y150.683 E40.00625
G1 X153.788 Y150.557 E40.02771
G1 X154.47 Y150.602 E40.05045
G1 X155.104 Y150.801 E40.07255
G1 X155.684 Y151.171 E40.09543
G1 X156.135 Y151.654 E40.11741
G1 X156.464 Y152.248 E40.13999
G1 X156.628 Y152.887 E40.16194
G1 X156.628 Y153.54 E40.18365
G1 X156.466 Y154.208 E40.20652
G1 X156.138 Y154.809 E40.22929
G1 X155.685 Y155.29 E40.25126
G1 X155.112 Y155.655 E40.27386
G1 X154.446 Y155.862 E40.29706
G1 X153.793 Y155.903 E40.31882
G1 F1500 E33.81882
G0 F9000 X153.775 Y156.003
G0 X155.182 Y155.824
G0 X155.182 Y174.43
G0 X175.37 Y174.63
G1 F1500 E40.31882
G1 F2400 X175.37 Y100.83 E42.77342
G1 X101.57 Y100.83 E45.22802
G1 X101.57 Y174.63 E47.68261
G1 X175.37 Y174.63 E50.13721
G1 F1500 E43.63721
G0 F9000 X175.17 Y125.002
G0 X155.795 Y124.435
G0 X153.788 Y124.903
G1 F1500 E50.13721
G1 F2400 X153.153 Y124.778 E50.15874
G1 X152.533 Y124.493 E50.18143
G1 X152.017 Y124.059 E50.20386
G1 X151.626 Y123.523 E50.22592
G1 X151.375 Y122.882 E50.24882
G1 X151.289 Y122.234 E50.27056
G1 X151.377 Y121.572 E50.29277
G1 X151.616 Y120.948 E50.315
G1 X152.022 Y120.395 E50.33782
G1 X152.54 Y119.964 E50.36023
G1 X153.152 Y119.679 E50.38268
G1 X153.795 Y119.556 E50.40446
G1 X154.481 Y119.6 E50.42732
G1 X155.088 Y119.799 E50.44857
G1 X155.672 Y120.16 E50.4714
G1 X156.135 Y120.654 E50.49392
G1 X156.464 Y121.248 E50.51651
G1 X156.628 Y121.887 E50.53845
G1 X156.628 Y122.54 E50.56017
G1 X156.466 Y123.208 E50.58303
G1 X156.138 Y123.81 E50.60583
G1 X155.676 Y124.296 E50.62813
G1 X155.113 Y124.655 E50.65034
G1 X154.468 Y124.863 E50.67288
G1 X153.788 Y124.903 E50.69554
G1 F1500 E44.19554
G0 F9000 X153.77 Y125.002
G0 X152.431 Y124.637
G0 X125.295 Y151.559
G0 X123.446 Y155.862
G1 F1500 E50.69554
G1 F2400 X122.793 Y155.903 E50.7173
G1 X122.149 Y155.781 E50.7391
G1 X121.541 Y155.497 E50.76142
G1 X121.024 Y155.072 E50.78368
G1 X120.625 Y154.528 E50.80612
G1 X120.373 Y153.885 E50.82909
G1 X120.291 Y153.22 E50.85137
G1 X120.372 Y152.574 E50.87303
G1 X120.613 Y151.962 E50.8949
G1 X121.018 Y151.394 E50.91811
G1 X121.521 Y150.977 E50.93984
G1 X122.13 Y150.687 E50.96227
G1 X122.794 Y150.56 E50.98476
G1 X123.473 Y150.598 E51.00738
G1 X124.118 Y150.808 E51.02994
G1 X124.67 Y151.163 E51.05177
G1 X125.132 Y151.65 E51.07409
G1 X125.453 Y152.223 E51.09594
G1 X125.629 Y152.889 E51.11885
G1 X125.63 Y153.561 E51.1412
G1 X125.453 Y154.229 E51.16418
G1 X125.144 Y154.799 E51.18575
G1 X124.68 Y155.294 E51.20832
G1 X124.112 Y155.655 E51.2307
G1 X123.446 Y155.862 E51.2539
G0 F9000 X123.404 Y155.463
;TYPE:WALL-OUTER
G1 F2400 X122.836 Y155.501 E51.27283
G1 X122.275 Y155.397 E51.29181
G1 X121.745 Y155.148 E51.31128
G1 X121.316 Y154.793 E51.3298
G1 X120.971 Y154.32 E51.34928
G1 X120.762 Y153.779 E51.36857
G1 X120.696 Y153.204 E51.38782
G1 X120.764 Y152.674 E51.40559
G1 X120.971 Y152.14 E51.42464
G1 X121.305 Y151.679 E51.44357
G1 X121.744 Y151.313 E51.46258
G1 X122.262 Y151.068 E51.48164
G1 X122.815 Y150.96 E51.50038
G1 X123.389 Y150.994 E51.51951
G1 X123.94 Y151.171 E51.53875
G1 X124.42 Y151.475 E51.55765
G1 X124.826 Y151.912 E51.57749
G1 X125.075 Y152.367 E51.59474
G1 X125.229 Y152.961 E51.61515
G1 X125.23 Y153.489 E51.63271
G1 X125.088 Y154.063 E51.65238
G1 X124.809 Y154.574 E51.67174
G1 X124.412 Y154.991 E51.69089
G1 X123.949 Y155.287 E51.70917
G1 X123.404 Y155.463 E51.72822
G1 F1500 E45.22822
G0 F9000 X123.495 Y155.749
G0 X124.04 Y155.509
G0 X124.342 Y155.318
G0 X125.627 Y154.293
G0 X136.126 Y150.294
G0 X138.783 Y149.926
G1 F1500 E51.72822
G1 F2400 X137.485 Y149.891 E51.77141
G1 X136.201 Y149.717 E51.8145
G1 X134.931 Y149.406 E51.85799
G1 X133.73 Y148.972 E51.90047
G1 X132.549 Y148.398 E51.94414
G1 X131.451 Y147.709 E51.98725
G1 X130.437 Y146.913 E52.03013
G1 X129.504 Y146.003 E52.07348
G1 X128.673 Y145.005 E52.11667
G1 X127.96 Y143.927 E52.15966
G1 X127.358 Y142.768 E52.2031
G1 X126.886 Y141.563 E52.24614
G1 X126.543 Y140.303 E52.28957
G1 X126.339 Y139.021 E52.33275
G1 X126.271 Y137.719 E52.37611
G1 X126.341 Y136.419 E52.41941
G1 X126.545 Y135.148 E52.46223
G1 X126.886 Y133.897 E52.50536
G1 X127.363 Y132.683 E52.54874
G1 X127.96 Y131.533 E52.59183
G1 X128.673 Y130.456 E52.63479
G1 X129.518 Y129.441 E52.67872
G1 X130.437 Y128.547 E52.72136
G1 X131.468 Y127.739 E52.76493
G1 X132.568 Y127.052 E52.80807
G1 X133.74 Y126.484 E52.85138
G1 X134.951 Y126.048 E52.89419
G1 X136.222 Y125.739 E52.9377
G1 X137.495 Y125.568 E52.98042
G1 X138.805 Y125.534 E53.024
G1 X140.104 Y125.639 E53.06735
G1 X141.37 Y125.879 E53.11021
G1 X142.623 Y126.259 E53.15376
G1 X143.792 Y126.75 E53.19593
G1 X144.953 Y127.394 E53.24009
G1 X146.009 Y128.137 E53.28303
G1 X146.988 Y128.996 E53.32635
