;FLAVOR:Marlin
;TIME:2337
;Filament used: 1.56694m
;Layer height: 0.2
;MINX:94.946
;MINY:90.42
;MINZ:0.2
;MAXX:166.335
;MAXY:161.81
;MAXZ:5.2
;Generated with Cura_SteamEngine 5.4.0
M140 S60
M105
M190 S60
M104 S200
M105
M109 S200
M82 ;absolute extrusion mode
M201 X500.00 Y500.00 Z100.00 E5000.00 ;Setup machine max acceleration
M203 X500.00 Y500.00 Z10.00 E50.00 ;Setup machine max feedrate
M204 P500.00 R1000.00 T500.00 ;Setup Print/Retract/Travel acceleration
M205 X8.00 Y8.00 Z0.40 E5.00 ;Setup Jerk
M220 S100 ;Reset Feedrate
M221 S100 ;Reset Flowrate

G28 ;Home

G92 E0 ;Reset Extruder
G1 Z2.0 F3000 ;Move Z Axis up
G1 X10.1 Y20 Z0.28 F5000.0 ;Move to start position
G1 X10.1 Y200.0 Z0.28 F1500.0 E15 ;Draw the first line
G1 X10.4 Y200.0 Z0.28 F5000.0 ;Move to side a little
G1 X10.4 Y20 Z0.28 F1500.0 E30 ;Draw the second line
G92 E0 ;Reset Extruder
G1 Z2.0 F3000 ;Move Z Axis up

G92 E0
G92 E0
G1 F1500 E-6.5
;LAYER_COUNT:26
;LAYER:0
M107
G0 F6000 X104.708 Y101.151 Z0.2
;TYPE:SKIRT
G1 F1500 E0
G1 F1200 X105.282 Y100.582 E0.02688
G1 X106.08 Y99.83 E0.06335
G1 X106.796 Y99.195 E0.09518
G1 X107.395 Y98.688 E0.12128
G1 X108.119 Y98.103 E0.15224
G1 X108.989 Y97.443 E0.18856
G1 X109.89 Y96.8 E0.22538
G1 X110.721 Y96.241 E0.25869
G1 X111.745 Y95.599 E0.29889
G1 X112.41 Y95.209 E0.32453
G1 X113.593 Y94.557 E0.36946
G1 X114.511 Y94.093 E0.40367
G1 X115.366 Y93.687 E0.43515
G1 X116.37 Y93.245 E0.47163
G1 X117.059 Y92.963 E0.4964
G1 X118.025 Y92.595 E0.53078
G1 X118.969 Y92.266 E0.56403
G1 X119.885 Y91.974 E0.596
G1 X121.189 Y91.605 E0.64108
G1 X122.198 Y91.354 E0.67566
G1 X123.172 Y91.142 E0.70881
G1 X123.964 Y90.99 E0.73564
G1 X124.909 Y90.835 E0.76749
G1 X126.218 Y90.658 E0.81142
G1 X127.237 Y90.555 E0.84549
G1 X128.288 Y90.479 E0.88053
G1 X129.315 Y90.435 E0.91472
G1 X130.243 Y90.42 E0.94559
G1 X130.952 Y90.425 E0.96917
G1 X132.069 Y90.463 E1.00635
G1 X133.342 Y90.546 E1.04878
G1 X134.396 Y90.649 E1.084
G1 X135.435 Y90.783 E1.11884
G1 X136.116 Y90.886 E1.14175
G1 X137.403 Y91.12 E1.18526
G1 X138.435 Y91.342 E1.22037
G1 X139.407 Y91.58 E1.25365
G1 X140.394 Y91.852 E1.2877
G1 X141.096 Y92.065 E1.3121
G1 X142.031 Y92.396 E1.34509
G1 X142.915 Y92.802 E1.37745
G1 X143.761 Y93.283 E1.40982
G1 X144.505 Y93.795 E1.43986
G1 X145.31 Y94.463 E1.47465
G1 X145.952 Y95.099 E1.5047
G1 X146.419 Y95.635 E1.52835
G1 X148.409 Y98.049 E1.6324
G1 X150.05 Y99.93 E1.71543
G1 X151.765 Y101.79 E1.79958
G1 X153.508 Y103.574 E1.88253
G1 X155.356 Y105.36 E1.96801
G1 X157.168 Y107.018 E2.0497
G1 X159.096 Y108.682 E2.1344
G1 X161.119 Y110.334 E2.22127
G1 X161.857 Y110.997 E2.25427
G1 X162.521 Y111.708 E2.28663
G1 X163.099 Y112.448 E2.31786
G1 X163.647 Y113.296 E2.35144
G1 X164.101 Y114.158 E2.38384
G1 X164.462 Y115.016 E2.4148
G1 X164.665 Y115.614 E2.43581
G1 X165.03 Y116.827 E2.47794
G1 X165.251 Y117.652 E2.50635
G1 X165.431 Y118.404 E2.53206
G1 X165.636 Y119.364 E2.56471
G1 X165.826 Y120.392 E2.59948
G1 X165.974 Y121.343 E2.6315
G1 X166.143 Y122.73 E2.67797
G1 X166.233 Y123.741 E2.71173
G1 X166.295 Y124.761 E2.74572
G1 X166.329 Y125.797 E2.78019
G1 X166.335 Y126.473 E2.80268
G1 X166.32 Y127.445 E2.83501
G1 X166.27 Y128.544 E2.8716
G1 X166.165 Y129.904 E2.91697
G1 X166.063 Y130.814 E2.94742
G1 X165.923 Y131.834 E2.98167
G1 X165.796 Y132.61 E3.00782
G1 X165.537 Y133.943 E3.05299
G1 X165.325 Y134.869 E3.08458
G1 X165.077 Y135.837 E3.11782
G1 X164.863 Y136.592 E3.14392
G1 X164.554 Y137.583 E3.17844
G1 X164.134 Y138.796 E3.22114
G1 X163.86 Y139.525 E3.24704
G1 X163.493 Y140.425 E3.27937
G1 X163.095 Y141.331 E3.31228
G1 X162.508 Y142.554 E3.3574
G1 X162.023 Y143.489 E3.39243
G1 X161.548 Y144.344 E3.42497
G1 X161.159 Y145.004 E3.45045
G1 X160.459 Y146.117 E3.49418
G1 X159.885 Y146.967 E3.52829
G1 X159.305 Y147.778 E3.56145
G1 X158.887 Y148.332 E3.58454
G1 X158.204 Y149.19 E3.62101
G1 X157.557 Y149.962 E3.65451
G1 X156.73 Y150.885 E3.69573
G1 X155.983 Y151.668 E3.73173
G1 X155.264 Y152.375 E3.76526
G1 X154.71 Y152.896 E3.79056
G1 X153.997 Y153.507 E3.82179
G1 X153.177 Y154.093 E3.85531
G1 X152.337 Y154.586 E3.88771
G1 X151.457 Y155.003 E3.92009
G1 X150.543 Y155.34 E3.9525
G1 X149.613 Y155.593 E3.98455
G1 X148.965 Y155.718 E4.0065
G1 X147.232 Y156 E4.0649
G1 X144.629 Y156.47 E4.15288
G1 X142.21 Y156.98 E4.2351
G1 X139.731 Y157.576 E4.3199
G1 X137.326 Y158.227 E4.40277
G1 X134.893 Y158.96 E4.48729
G1 X132.542 Y159.741 E4.56968
G1 X128.782 Y161.135 E4.70306
G1 X127.854 Y161.429 E4.73544
G1 X126.905 Y161.64 E4.76777
G1 X125.938 Y161.769 E4.80022
G1 X124.966 Y161.81 E4.83257
G1 X123.993 Y161.765 E4.86497
G1 X123.098 Y161.646 E4.895
G1 X122.536 Y161.533 E4.91407
G1 X121.277 Y161.238 E4.95708
G1 X120.485 Y161.023 E4.98437
G1 X119.529 Y160.735 E5.01758
G1 X118.835 Y160.51 E5.04185
G1 X117.567 Y160.055 E5.08665
G1 X116.886 Y159.789 E5.11097
G1 X115.964 Y159.401 E5.14424
G1 X115.013 Y158.97 E5.17897
G1 X114.081 Y158.515 E5.21346
G1 X112.925 Y157.903 E5.25697
G1 X112.282 Y157.537 E5.28157
G1 X111.088 Y156.815 E5.32798
G1 X110.289 Y156.293 E5.35973
G1 X109.702 Y155.89 E5.38341
G1 X108.86 Y155.283 E5.41793
G1 X108.052 Y154.662 E5.45183
G1 X107.197 Y153.967 E5.48847
G1 X106.452 Y153.324 E5.52121
G1 X105.708 Y152.646 E5.55468
G1 X104.992 Y151.953 E5.58783
G1 X104.054 Y150.986 E5.63263
G1 X103.593 Y150.486 E5.65525
G1 X102.885 Y149.672 E5.69114
G1 X102.047 Y148.648 E5.73515
G1 X101.397 Y147.796 E5.77079
G1 X101.005 Y147.254 E5.79304
G1 X100.414 Y146.392 E5.8278
G1 X99.717 Y145.308 E5.87066
G1 X99.184 Y144.417 E5.90519
G1 X98.693 Y143.541 E5.93859
G1 X98.359 Y142.906 E5.96246
G1 X97.911 Y142.007 E5.99587
G1 X97.435 Y140.975 E6.03367
G1 X96.968 Y139.872 E6.0735
G1 X96.588 Y138.892 E6.10846
G1 X96.347 Y138.218 E6.13227
G1 X96.013 Y137.205 E6.16775
G1 X95.722 Y136.235 E6.20143
G1 X95.396 Y135 E6.24391
G1 X95.225 Y134.274 E6.26872
G1 X95.047 Y133.318 E6.30106
G1 X94.953 Y132.347 E6.33351
G1 X94.946 Y131.375 E6.36584
G1 X95.016 Y130.475 E6.39587
G1 X95.19 Y129.444 E6.43064
G1 X95.418 Y128.57 E6.46068
G1 X95.654 Y127.877 E6.48503
G1 X96.21 Y126.413 E6.53712
G1 X97.088 Y123.984 E6.62302
G1 X97.879 Y121.587 E6.70698
G1 X98.598 Y119.178 E6.79059
G1 X99.256 Y116.722 E6.87516
G1 X99.83 Y114.304 E6.95782
G1 X100.349 Y111.812 E7.04248
G1 X100.793 Y109.336 E7.12615
G1 X101.028 Y107.84 E7.17651
G1 X101.225 Y106.886 E7.20891
G1 X101.504 Y105.953 E7.2413
G1 X101.864 Y105.05 E7.27364
G1 X102.269 Y104.243 E7.30367
G1 X102.82 Y103.353 E7.33848
G1 X103.379 Y102.607 E7.36949
G1 X103.823 Y102.098 E7.39195
G1 X104.708 Y101.151 E7.43506
G0 F6000 X104.99 Y101.435
G1 F1200 X105.556 Y100.873 E7.46159
G1 X106.345 Y100.129 E7.49766
G1 X107.054 Y99.5 E7.52919
G1 X107.646 Y98.999 E7.55498
G1 X108.361 Y98.422 E7.58554
G1 X109.231 Y97.762 E7.62186
G1 X110.113 Y97.132 E7.65791
G1 X110.934 Y96.58 E7.69082
G1 X111.947 Y95.944 E7.7306
G1 X112.603 Y95.559 E7.7559
G1 X113.774 Y94.914 E7.80036
G1 X114.682 Y94.454 E7.83422
G1 X115.527 Y94.053 E7.86533
G1 X116.522 Y93.615 E7.90148
G1 X117.201 Y93.337 E7.92589
G1 X118.157 Y92.973 E7.95991
G1 X119.091 Y92.647 E7.99281
G1 X119.994 Y92.359 E8.02434
G1 X121.285 Y91.993 E8.06897
G1 X122.283 Y91.745 E8.10317
G1 X123.247 Y91.535 E8.13599
G1 X124.029 Y91.385 E8.16247
G1 X124.963 Y91.231 E8.19395
G1 X126.258 Y91.056 E8.23742
G1 X127.266 Y90.954 E8.27112
G1 X128.305 Y90.879 E8.30576
G1 X129.322 Y90.835 E8.33962
G1 X130.24 Y90.82 E8.37016
G1 X130.939 Y90.825 E8.39341
G1 X132.043 Y90.862 E8.43015
G1 X133.303 Y90.944 E8.47214
G1 X134.345 Y91.046 E8.50697
G1 X135.375 Y91.178 E8.5415
G1 X136.045 Y91.28 E8.56404
G1 X137.319 Y91.511 E8.60711
G1 X138.34 Y91.73 E8.64184
G1 X139.301 Y91.966 E8.67475
G1 X140.278 Y92.235 E8.70846
G1 X140.963 Y92.442 E8.73226
G1 X141.865 Y92.76 E8.76407
G1 X142.718 Y93.15 E8.79526
G1 X143.534 Y93.613 E8.82647
G1 X144.278 Y94.125 E8.85651
G1 X145.028 Y94.747 E8.88891
G1 X145.67 Y95.383 E8.91897
G1 X146.109 Y95.888 E8.94123
G1 X146.827 Y96.768 E8.979
G1 X146.965 Y96.925 E8.98595
G1 X148.1 Y98.303 E9.04533
G1 X149.756 Y100.201 E9.12911
G1 X151.471 Y102.061 E9.21326
G1 X153.23 Y103.862 E9.29699
G1 X155.078 Y105.648 E9.38247
G1 X156.907 Y107.321 E9.46491
G1 X158.843 Y108.992 E9.54997
G1 X160.852 Y110.632 E9.63623
G1 X161.565 Y111.27 E9.66805
G1 X162.206 Y111.955 E9.69925
G1 X162.763 Y112.666 E9.72929
G1 X163.293 Y113.483 E9.76168
G1 X163.732 Y114.313 E9.79291
G1 X164.083 Y115.145 E9.82295
G1 X164.282 Y115.73 E9.8435
G1 X164.644 Y116.93 E9.88519
G1 X164.862 Y117.745 E9.91325
G1 X165.04 Y118.488 E9.93866
G1 X165.243 Y119.437 E9.97094
G1 X165.431 Y120.454 E10.00534
G1 X165.577 Y121.392 E10.03691
G1 X165.745 Y122.765 E10.08292
G1 X165.834 Y123.765 E10.11631
G1 X165.895 Y124.774 E10.14993
G1 X165.929 Y125.801 E10.18411
G1 X165.935 Y126.467 E10.20626
G1 X165.92 Y127.427 E10.23819
G1 X165.871 Y128.513 E10.27435
G1 X165.767 Y129.86 E10.31928
G1 X165.667 Y130.759 E10.34937
G1 X165.528 Y131.769 E10.38328
G1 X165.403 Y132.534 E10.40906
G1 X165.147 Y133.854 E10.45378
G1 X164.937 Y134.77 E10.48504
G1 X164.692 Y135.728 E10.51793
G1 X164.481 Y136.473 E10.54368
G1 X164.176 Y137.452 E10.57779
G1 X163.76 Y138.655 E10.62012
G1 X163.49 Y139.374 E10.64567
G1 X163.127 Y140.264 E10.67764
G1 X162.734 Y141.158 E10.71012
G1 X162.153 Y142.37 E10.75482
G1 X161.673 Y143.295 E10.78948
G1 X161.203 Y144.141 E10.82167
G1 X160.82 Y144.791 E10.84676
G1 X160.128 Y145.893 E10.89004
G1 X159.56 Y146.734 E10.9238
G1 X158.986 Y147.537 E10.95663
G1 X158.574 Y148.083 E10.97938
G1 X157.898 Y148.933 E11.0155
G1 X157.259 Y149.695 E11.04857
G1 X156.441 Y150.609 E11.08937
G1 X155.702 Y151.383 E11.12496
G1 X154.99 Y152.084 E11.1582
G1 X154.45 Y152.592 E11.18286
G1 X153.737 Y153.203 E11.21409
G1 X152.974 Y153.748 E11.24527
G1 X152.165 Y154.225 E11.27651
G1 X151.318 Y154.628 E11.30771
G1 X150.438 Y154.954 E11.33892
G1 X149.537 Y155.2 E11.36998
G1 X148.901 Y155.323 E11.39153
G1 X147.161 Y155.606 E11.45016
G1 X144.558 Y156.077 E11.53814
G1 X142.116 Y156.591 E11.62114
G1 X139.637 Y157.187 E11.70595
G1 X137.221 Y157.841 E11.78919
G1 X134.767 Y158.58 E11.87444
G1 X132.416 Y159.361 E11.95683
G1 X128.661 Y160.754 E12.09004
G1 X127.767 Y161.039 E12.12125
G1 X126.852 Y161.244 E12.15244
G1 X125.921 Y161.369 E12.18368
G1 X124.984 Y161.41 E12.21487
G1 X124.046 Y161.368 E12.2461
G1 X123.151 Y161.249 E12.27613
G1 X122.627 Y161.143 E12.29392
G1 X121.382 Y160.852 E12.33644
G1 X120.6 Y160.64 E12.36339
G1 X119.653 Y160.355 E12.39628
G1 X118.97 Y160.133 E12.42017
G1 X117.712 Y159.682 E12.46462
G1 X117.041 Y159.42 E12.48858
G1 X116.129 Y159.037 E12.52147
G1 X115.188 Y158.611 E12.55583
G1 X114.268 Y158.162 E12.58988
G1 X113.123 Y157.555 E12.63298
G1 X112.489 Y157.195 E12.65723
G1 X111.307 Y156.48 E12.70318
G1 X110.515 Y155.963 E12.73464
G1 X109.936 Y155.566 E12.75799
G1 X109.104 Y154.966 E12.7921
G1 X108.304 Y154.352 E12.82564
G1 X107.458 Y153.664 E12.86191
G1 X106.721 Y153.028 E12.89429
G1 X105.986 Y152.359 E12.92735
G1 X105.279 Y151.675 E12.96007
G1 X104.348 Y150.715 E13.00454
G1 X103.895 Y150.223 E13.02679
G1 X103.195 Y149.419 E13.06225
G1 X102.365 Y148.405 E13.10583
G1 X101.721 Y147.561 E13.14114
G1 X101.335 Y147.028 E13.16303
G1 X100.75 Y146.176 E13.1974
G1 X100.06 Y145.103 E13.23983
G1 X99.533 Y144.221 E13.274
G1 X99.047 Y143.354 E13.30706
G1 X98.717 Y142.728 E13.3306
G1 X98.274 Y141.839 E13.36364
G1 X97.803 Y140.819 E13.401
G1 X97.341 Y139.728 E13.44041
G1 X96.965 Y138.757 E13.47504
G1 X96.727 Y138.093 E13.4985
G1 X96.396 Y137.09 E13.53363
G1 X96.109 Y136.133 E13.56686
G1 X95.785 Y134.908 E13.60901
G1 X95.618 Y134.2 E13.6332
G1 X95.445 Y133.279 E13.66437
G1 X95.353 Y132.344 E13.69562
G1 X95.345 Y131.406 E13.72682
G1 X95.415 Y130.506 E13.75684
G1 X95.577 Y129.545 E13.78926
G1 X95.805 Y128.671 E13.8193
G1 X96.028 Y128.019 E13.84222
G1 X96.584 Y126.555 E13.8943
G1 X97.464 Y124.12 E13.98042
G1 X98.259 Y121.712 E14.06476
G1 X98.981 Y119.292 E14.14876
G1 X99.642 Y116.826 E14.23367
G1 X100.222 Y114.386 E14.31709
G1 X100.741 Y111.894 E14.40175
G1 X101.187 Y109.407 E14.48579
G1 X101.42 Y107.92 E14.53585
G1 X101.608 Y107 E14.56708
G1 X101.876 Y106.101 E14.59828
G1 X102.222 Y105.229 E14.62948
G1 X102.627 Y104.422 E14.65952
G1 X103.14 Y103.593 E14.69194
G1 X103.699 Y102.847 E14.72295
G1 X104.115 Y102.371 E14.74397
G1 X104.99 Y101.435 E14.78659
G0 F6000 X105.272 Y101.719
G1 F1200 X105.83 Y101.164 E14.81276
G1 X106.611 Y100.428 E14.84846
G1 X107.312 Y99.805 E14.87965
G1 X107.897 Y99.31 E14.90514
G1 X108.603 Y98.741 E14.9353
G1 X109.464 Y98.087 E14.97126
G1 X110.336 Y97.464 E15.0069
G1 X111.147 Y96.919 E15.0394
G1 X112.15 Y96.289 E15.0788
G1 X112.796 Y95.909 E15.10372
G1 X113.955 Y95.271 E15.14773
G1 X114.853 Y94.815 E15.18122
G1 X115.688 Y94.419 E15.21196
G1 X116.674 Y93.985 E15.24779
G1 X117.343 Y93.711 E15.27184
G1 X118.289 Y93.351 E15.3055
G1 X119.213 Y93.028 E15.33806
G1 X120.103 Y92.744 E15.36913
G1 X121.381 Y92.381 E15.41332
G1 X122.368 Y92.136 E15.44714
G1 X123.322 Y91.928 E15.47962
G1 X124.094 Y91.78 E15.50576
G1 X125.016 Y91.627 E15.53685
G1 X126.298 Y91.454 E15.57987
G1 X127.295 Y91.353 E15.6132
G1 X128.322 Y91.279 E15.64745
G1 X129.329 Y91.235 E15.68097
G1 X130.237 Y91.22 E15.71118
G1 X130.926 Y91.225 E15.7341
G1 X132.017 Y91.261 E15.7704
G1 X133.264 Y91.342 E15.81197
G1 X134.294 Y91.443 E15.84639
G1 X135.314 Y91.573 E15.88059
G1 X135.974 Y91.674 E15.90279
G1 X137.235 Y91.902 E15.94542
G1 X138.244 Y92.118 E15.97974
G1 X139.195 Y92.352 E16.01231
G1 X140.162 Y92.618 E16.04567
G1 X140.847 Y92.825 E16.06947
G1 X141.699 Y93.124 E16.0995
G1 X142.521 Y93.498 E16.12954
G1 X143.307 Y93.943 E16.15958
G1 X144.051 Y94.455 E16.18962
G1 X144.746 Y95.031 E16.21964
G1 X145.388 Y95.667 E16.2497
G1 X145.799 Y96.141 E16.27056
G1 X146.527 Y97.033 E16.30886
G1 X146.656 Y97.179 E16.31534
G1 X147.791 Y98.557 E16.37471
G1 X149.462 Y100.472 E16.45925
G1 X151.185 Y102.341 E16.54379
G1 X152.952 Y104.15 E16.6279
G1 X154.8 Y105.936 E16.71338
G1 X156.646 Y107.624 E16.79658
G1 X158.59 Y109.302 E16.88199
G1 X160.599 Y110.942 E16.96825
G1 X161.273 Y111.544 E16.99831
G1 X161.891 Y112.202 E17.02833
G1 X162.448 Y112.913 E17.05837
G1 X162.94 Y113.67 E17.0884
G1 X163.363 Y114.468 E17.11844
G1 X163.714 Y115.3 E17.14847
G1 X163.899 Y115.846 E17.16765
G1 X164.258 Y117.033 E17.20889
G1 X164.473 Y117.838 E17.23661
G1 X164.649 Y118.572 E17.26171
G1 X164.85 Y119.51 E17.29362
G1 X165.036 Y120.515 E17.32761
G1 X165.18 Y121.441 E17.35878
G1 X165.347 Y122.8 E17.40432
G1 X165.435 Y123.789 E17.43735
G1 X165.495 Y124.787 E17.4706
G1 X165.529 Y125.805 E17.50448
G1 X165.535 Y126.461 E17.5263
G1 X165.52 Y127.409 E17.55783
G1 X165.472 Y128.482 E17.59355
G1 X165.369 Y129.816 E17.63806
G1 X165.271 Y130.704 E17.66777
G1 X165.133 Y131.705 E17.70138
G1 X165.01 Y132.458 E17.72675
G1 X164.757 Y133.765 E17.77103
G1 X164.55 Y134.671 E17.80194
G1 X164.307 Y135.619 E17.83449
G1 X164.099 Y136.354 E17.8599
G1 X163.798 Y137.321 E17.89358
G1 X163.386 Y138.514 E17.93556
G1 X163.119 Y139.223 E17.96076
G1 X162.761 Y140.103 E17.99236
G1 X162.373 Y140.985 E18.02441
G1 X161.798 Y142.186 E18.0687
G1 X161.323 Y143.101 E18.10298
G1 X160.858 Y143.938 E18.13483
G1 X160.481 Y144.578 E18.15954
G1 X159.796 Y145.669 E18.20238
G1 X159.235 Y146.501 E18.23576
G1 X158.666 Y147.296 E18.26827
G1 X158.261 Y147.834 E18.29067
G1 X157.592 Y148.676 E18.32644
G1 X156.961 Y149.428 E18.35909
G1 X156.152 Y150.333 E18.39946
G1 X155.421 Y151.098 E18.43466
G1 X154.716 Y151.793 E18.46758
G1 X154.189 Y152.289 E18.49165
G1 X153.504 Y152.878 E18.5217
G1 X152.77 Y153.404 E18.55174
G1 X151.993 Y153.864 E18.58177
G1 X151.178 Y154.253 E18.6118
G1 X150.332 Y154.568 E18.64183
G1 X149.461 Y154.807 E18.67187
G1 X148.837 Y154.928 E18.69301
G1 X147.09 Y155.212 E18.75188
G1 X144.487 Y155.684 E18.83987
G1 X142.022 Y156.202 E18.92364
G1 X139.543 Y156.798 E19.00845
G1 X137.116 Y157.455 E19.09207
G1 X134.641 Y158.2 E19.17804
G1 X132.29 Y158.981 E19.26044
G1 X128.539 Y160.373 E19.39351
G1 X127.679 Y160.649 E19.42355
G1 X126.798 Y160.848 E19.45359
G1 X125.903 Y160.969 E19.48363
G1 X125.001 Y161.01 E19.51366
G1 X124.099 Y160.971 E19.54369
G1 X123.204 Y160.852 E19.57372
G1 X122.718 Y160.754 E19.59021
G1 X121.487 Y160.466 E19.63226
