;FLAVOR:Marlin
;TIME:2591
;Filament used: 2.40144m
;Layer height: 0.2
;MINX:100.113
;MINY:96.451
;MINZ:0.2
;MAXX:171.5
;MAXY:167.836
;MAXZ:18
;Generated with Cura_SteamEngine 5.4.0
M140 S60
M105
M190 S60
M104 S200
M105
M109 S200
M82 ;absolute extrusion mode
M201 X500.00 Y500.00 Z100.00 E5000.00 ;Setup machine max acceleration
M203 X500.00 Y500.00 Z10.00 E50.00 ;Setup machine max feedrate
M204 P500.00 R1000.00 T500.00 ;Setup Print/Retract/Travel acceleration
M205 X8.00 Y8.00 Z0.40 E5.00 ;Setup Jerk
M220 S100 ;Reset Feedrate
M221 S100 ;Reset Flowrate

G28 ;Home

G92 E0 ;Reset Extruder
G1 Z2.0 F3000 ;Move Z Axis up
G1 X10.1 Y20 Z0.28 F5000.0 ;Move to start position
G1 X10.1 Y200.0 Z0.28 F1500.0 E15 ;Draw the first line
G1 X10.4 Y200.0 Z0.28 F5000.0 ;Move to side a little
G1 X10.4 Y20 Z0.28 F1500.0 E30 ;Draw the second line
G92 E0 ;Reset Extruder
G1 Z2.0 F3000 ;Move Z Axis up

G92 E0
G92 E0
G1 F1500 E-6.5
;LAYER_COUNT:90
;LAYER:0
M107
G0 F9000 X104.803 Y116.818 Z0.2
;TYPE:SKIRT
G1 F1500 E0
G1 F2400 X105.339 Y116.352 E0.02362
G1 X106.593 Y115.331 E0.07741
G1 X108.554 Y113.676 E0.16275
G1 X110.417 Y112.01 E0.24588
G1 X112.283 Y110.245 E0.33131
G1 X114.051 Y108.474 E0.41454
G1 X115.771 Y106.653 E0.49785
G1 X117.435 Y104.787 E0.58101
G1 X120.106 Y101.568 E0.72013
G1 X120.762 Y100.849 E0.7525
G1 X121.48 Y100.19 E0.78492
G1 X122.253 Y99.599 E0.81728
G1 X123.075 Y99.077 E0.84967
G1 X123.956 Y98.624 E0.88262
G1 X125.22 Y98.133 E0.92772
G1 X125.958 Y97.909 E0.95337
G1 X127.421 Y97.513 E1.00378
G1 X128.537 Y97.255 E1.04188
G1 X129.51 Y97.06 E1.07488
G1 X130.307 Y96.92 E1.1018
G1 X131.58 Y96.737 E1.14457
G1 X132.523 Y96.631 E1.17613
G1 X133.452 Y96.549 E1.20715
G1 X134.651 Y96.48 E1.2471
G1 X135.925 Y96.451 E1.28948
G1 X137.109 Y96.463 E1.32886
G1 X138.042 Y96.503 E1.35992
G1 X138.973 Y96.565 E1.39096
G1 X140.183 Y96.681 E1.43139
G1 X141.433 Y96.846 E1.47332
G1 X142.382 Y97.001 E1.50531
G1 X143.161 Y97.148 E1.53167
G1 X144.113 Y97.352 E1.56406
G1 X145.619 Y97.732 E1.61572
G1 X146.549 Y98.001 E1.64791
G1 X147.626 Y98.345 E1.68552
G1 X148.571 Y98.679 E1.71886
G1 X149.7 Y99.118 E1.75914
G1 X150.611 Y99.506 E1.79208
G1 X151.443 Y99.884 E1.82247
G1 X152.508 Y100.407 E1.86194
G1 X153.572 Y100.974 E1.90204
G1 X154.381 Y101.438 E1.93305
G1 X155.2 Y101.936 E1.96494
G1 X156.233 Y102.607 E2.00591
G1 X157.197 Y103.28 E2.04501
G1 X157.977 Y103.861 E2.07736
G1 X158.911 Y104.602 E2.11701
G1 X159.412 Y105.021 E2.13873
G1 X160.551 Y106.031 E2.18937
G1 X161.24 Y106.684 E2.22094
G1 X162.064 Y107.516 E2.25989
G1 X162.593 Y108.079 E2.28558
G1 X163.225 Y108.818 E2.31792
G1 X163.791 Y109.612 E2.35035
G1 X164.266 Y110.421 E2.38156
G1 X164.698 Y111.333 E2.41512
G1 X165.035 Y112.247 E2.44752
G1 X165.288 Y113.178 E2.47961
G1 X165.417 Y113.851 E2.5024
G1 X165.628 Y115.169 E2.5468
G1 X166.074 Y117.701 E2.63231
G1 X166.588 Y120.204 E2.71729
G1 X167.154 Y122.602 E2.79924
G1 X167.803 Y125.049 E2.88345
G1 X168.53 Y127.506 E2.96867
G1 X169.307 Y129.88 E3.05175
G1 X170.161 Y132.267 E3.13607
G1 X170.782 Y133.883 E3.19365
G1 X171.078 Y134.773 E3.22485
G1 X171.31 Y135.755 E3.25841
G1 X171.441 Y136.648 E3.28843
G1 X171.5 Y137.693 E3.32324
G1 X171.465 Y138.665 E3.35559
G1 X171.357 Y139.561 E3.3856
G1 X171.217 Y140.273 E3.40974
G1 X170.919 Y141.542 E3.45309
G1 X170.706 Y142.318 E3.47986
G1 X170.444 Y143.199 E3.51043
G1 X170.048 Y144.39 E3.55217
G1 X169.617 Y145.55 E3.59333
G1 X169.274 Y146.392 E3.62357
G1 X168.779 Y147.517 E3.66445
G1 X168.366 Y148.38 E3.69627
G1 X167.968 Y149.162 E3.72546
G1 X167.517 Y149.996 E3.75699
G1 X166.76 Y151.288 E3.8068
G1 X166.245 Y152.1 E3.83878
G1 X165.742 Y152.85 E3.86881
G1 X165.027 Y153.85 E3.9097
G1 X164.477 Y154.573 E3.93992
G1 X163.663 Y155.581 E3.98301
G1 X163.095 Y156.24 E4.01194
G1 X162.441 Y156.963 E4.04437
G1 X161.373 Y158.061 E4.09532
G1 X160.73 Y158.68 E4.125
G1 X160.084 Y159.272 E4.15415
G1 X159.366 Y159.896 E4.18578
G1 X158.406 Y160.681 E4.22703
G1 X157.619 Y161.286 E4.26005
G1 X156.461 Y162.114 E4.30739
G1 X155.637 Y162.663 E4.34033
G1 X154.603 Y163.306 E4.38083
G1 X153.779 Y163.783 E4.41249
G1 X152.713 Y164.364 E4.45287
G1 X151.887 Y164.781 E4.48365
G1 X151.066 Y165.168 E4.51384
G1 X149.886 Y165.681 E4.55663
G1 X148.772 Y166.122 E4.59648
G1 X148.216 Y166.327 E4.61619
G1 X147.062 Y166.715 E4.65668
G1 X146.13 Y167.001 E4.68911
G1 X144.948 Y167.322 E4.72985
G1 X143.949 Y167.56 E4.764
G1 X142.991 Y167.738 E4.79641
G1 X142.022 Y167.83 E4.82879
G1 X141.048 Y167.836 E4.86118
G1 X140.148 Y167.764 E4.89121
G1 X139.117 Y167.589 E4.92599
G1 X138.244 Y167.359 E4.95602
G1 X137.552 Y167.123 E4.98034
G1 X136.346 Y166.663 E5.02327
G1 X133.914 Y165.776 E5.10937
G1 X131.506 Y164.975 E5.19377
G1 X129.122 Y164.256 E5.27659
G1 X126.666 Y163.59 E5.36123
G1 X124.24 Y163.004 E5.44424
G1 X121.753 Y162.482 E5.52876
G1 X119.258 Y162.026 E5.61312
G1 X117.507 Y161.751 E5.67207
G1 X116.553 Y161.554 E5.70447
G1 X115.621 Y161.275 E5.73683
G1 X114.748 Y160.927 E5.76809
G1 X113.848 Y160.472 E5.80163
G1 X113.021 Y159.957 E5.83403
G1 X112.277 Y159.398 E5.86498
G1 X111.821 Y159.004 E5.88503
G1 X111.237 Y158.457 E5.91164
G1 X110.469 Y157.698 E5.94756
G1 X109.414 Y156.581 E5.99866
G1 X108.802 Y155.884 E6.02951
G1 X107.988 Y154.907 E6.0718
G1 X107.629 Y154.449 E6.09116
G1 X106.707 Y153.199 E6.14282
G1 X106.157 Y152.397 E6.17517
G1 X105.499 Y151.376 E6.21557
G1 X105.057 Y150.642 E6.24406
G1 X104.588 Y149.816 E6.27566
G1 X104.123 Y148.944 E6.30852
G1 X103.626 Y147.942 E6.34572
G1 X103.217 Y147.056 E6.37818
G1 X102.616 Y145.62 E6.42996
G1 X102.285 Y144.743 E6.46114
G1 X101.989 Y143.9 E6.49085
G1 X101.601 Y142.679 E6.53346
G1 X101.353 Y141.803 E6.56374
G1 X101.061 Y140.642 E6.60356
G1 X100.864 Y139.749 E6.63398
G1 X100.684 Y138.817 E6.66555
G1 X100.444 Y137.301 E6.7166
G1 X100.328 Y136.353 E6.74836
G1 X100.243 Y135.472 E6.7778
G1 X100.157 Y134.197 E6.82031
G1 X100.118 Y133.017 E6.85957
G1 X100.113 Y132.371 E6.88106
G1 X100.147 Y130.903 E6.9299
G1 X100.202 Y129.926 E6.96245
G1 X100.308 Y128.709 E7.00308
G1 X100.417 Y127.78 E7.03419
G1 X100.599 Y126.541 E7.07584
G1 X100.755 Y125.673 E7.10517
G1 X101.008 Y124.464 E7.14625
G1 X101.238 Y123.516 E7.1787
G1 X101.55 Y122.371 E7.21817
G1 X101.757 Y121.682 E7.2421
G1 X102.055 Y120.83 E7.27212
G1 X102.487 Y119.878 E7.30689
G1 X102.967 Y119.03 E7.3393
G1 X103.479 Y118.286 E7.36934
G1 X104.146 Y117.481 E7.40411
G1 X104.803 Y116.818 E7.43516
G0 F9000 X105.087 Y117.1
G1 F2400 X105.592 Y116.662 E7.45739
G1 X106.846 Y115.641 E7.51117
G1 X108.812 Y113.982 E7.59673
G1 X110.692 Y112.301 E7.68061
G1 X112.558 Y110.536 E7.76604
G1 X114.334 Y108.757 E7.84965
G1 X116.062 Y106.928 E7.93334
G1 X117.734 Y105.053 E8.0169
G1 X120.402 Y101.837 E8.15588
G1 X121.033 Y101.143 E8.18707
G1 X121.724 Y100.507 E8.21831
G1 X122.468 Y99.936 E8.2495
G1 X123.259 Y99.432 E8.2807
G1 X124.101 Y98.997 E8.31222
G1 X125.336 Y98.516 E8.3563
G1 X126.063 Y98.295 E8.38157
G1 X127.511 Y97.903 E8.43147
G1 X128.616 Y97.647 E8.46919
G1 X129.579 Y97.454 E8.50186
G1 X130.364 Y97.316 E8.52837
G1 X131.625 Y97.134 E8.57075
G1 X132.558 Y97.029 E8.60197
G1 X133.475 Y96.948 E8.63259
G1 X134.66 Y96.88 E8.67207
G1 X135.921 Y96.851 E8.71402
G1 X137.092 Y96.863 E8.75297
G1 X138.016 Y96.902 E8.78373
G1 X138.935 Y96.963 E8.81437
G1 X140.131 Y97.078 E8.85433
G1 X141.369 Y97.241 E8.89586
G1 X142.308 Y97.394 E8.9275
G1 X143.077 Y97.539 E8.95353
G1 X144.015 Y97.74 E8.98544
G1 X145.508 Y98.116 E9.03664
G1 X146.427 Y98.382 E9.06847
G1 X147.493 Y98.722 E9.10568
G1 X148.426 Y99.052 E9.1386
G1 X149.543 Y99.486 E9.17845
G1 X150.446 Y99.87 E9.21109
G1 X151.267 Y100.243 E9.24108
G1 X152.32 Y100.76 E9.2801
G1 X153.373 Y101.321 E9.31978
G1 X154.173 Y101.78 E9.35046
G1 X154.982 Y102.271 E9.38193
G1 X156.004 Y102.935 E9.42247
G1 X156.958 Y103.601 E9.46117
G1 X157.738 Y104.182 E9.49352
G1 X158.655 Y104.909 E9.53244
G1 X159.147 Y105.32 E9.55376
G1 X160.276 Y106.321 E9.60395
G1 X160.956 Y106.966 E9.63512
G1 X161.773 Y107.79 E9.67371
G1 X162.289 Y108.339 E9.69877
G1 X162.9 Y109.051 E9.72998
G1 X163.446 Y109.815 E9.76121
G1 X163.921 Y110.624 E9.79241
G1 X164.323 Y111.472 E9.82363
G1 X164.649 Y112.352 E9.85484
G1 X164.895 Y113.253 E9.8859
G1 X165.022 Y113.914 E9.90829
G1 X165.234 Y115.238 E9.95289
G1 X165.682 Y117.781 E10.03877
G1 X166.196 Y120.284 E10.12376
G1 X166.767 Y122.705 E10.20649
G1 X167.419 Y125.162 E10.29104
G1 X168.146 Y127.619 E10.37626
G1 X168.93 Y130.015 E10.46011
G1 X169.785 Y132.402 E10.54444
G1 X170.402 Y134.009 E10.60169
G1 X170.698 Y134.899 E10.63289
G1 X170.914 Y135.813 E10.66413
G1 X171.045 Y136.706 E10.69415
G1 X171.1 Y137.679 E10.72656
G1 X171.068 Y138.617 E10.75778
G1 X170.96 Y139.513 E10.78779
G1 X170.828 Y140.181 E10.81044
G1 X170.533 Y141.436 E10.85332
G1 X170.323 Y142.204 E10.8798
G1 X170.064 Y143.073 E10.90996
G1 X169.673 Y144.251 E10.95124
G1 X169.247 Y145.399 E10.99197
G1 X168.908 Y146.231 E11.02185
G1 X168.418 Y147.344 E11.0623
G1 X168.009 Y148.199 E11.09382
G1 X167.616 Y148.972 E11.12266
G1 X167.172 Y149.794 E11.15374
G1 X166.422 Y151.074 E11.20308
G1 X165.913 Y151.877 E11.2347
G1 X165.416 Y152.618 E11.26438
G1 X164.709 Y153.608 E11.30484
G1 X164.166 Y154.322 E11.33467
G1 X163.36 Y155.32 E11.37734
G1 X162.798 Y155.972 E11.40597
G1 X162.154 Y156.684 E11.4379
G1 X161.096 Y157.773 E11.4884
G1 X160.459 Y158.385 E11.51778
G1 X159.822 Y158.97 E11.54655
G1 X159.113 Y159.586 E11.57779
G1 X158.162 Y160.364 E11.61865
G1 X157.386 Y160.961 E11.65122
G1 X156.239 Y161.781 E11.69811
G1 X155.426 Y162.323 E11.73061
G1 X154.403 Y162.96 E11.77069
G1 X153.588 Y163.432 E11.80202
G1 X152.533 Y164.007 E11.84198
G1 X151.716 Y164.419 E11.87241
G1 X150.906 Y164.801 E11.9022
G1 X149.738 Y165.309 E11.94456
G1 X148.634 Y165.747 E11.98407
G1 X148.088 Y165.948 E12.00342
G1 X146.945 Y166.333 E12.04353
G1 X146.025 Y166.615 E12.07554
G1 X144.855 Y166.933 E12.11586
G1 X143.875 Y167.167 E12.14938
G1 X142.953 Y167.34 E12.18058
G1 X142.019 Y167.43 E12.21179
G1 X141.08 Y167.437 E12.24302
G1 X140.18 Y167.365 E12.27305
G1 X139.219 Y167.202 E12.30547
G1 X138.346 Y166.972 E12.33549
G1 X137.695 Y166.749 E12.35838
G1 X136.489 Y166.289 E12.40131
G1 X134.04 Y165.396 E12.48801
G1 X131.632 Y164.595 E12.57242
G1 X129.227 Y163.87 E12.65596
G1 X126.76 Y163.201 E12.74098
G1 X124.334 Y162.615 E12.82399
G1 X121.825 Y162.088 E12.90926
G1 X119.33 Y161.633 E12.99361
G1 X117.587 Y161.359 E13.0523
G1 X116.667 Y161.171 E13.08353
G1 X115.769 Y160.903 E13.1147
G1 X114.896 Y160.555 E13.14596
G1 X114.059 Y160.132 E13.17715
G1 X113.261 Y159.637 E13.20838
G1 X112.539 Y159.095 E13.23841
G1 X112.083 Y158.701 E13.25845
G1 X111.518 Y158.172 E13.2842
G1 X110.76 Y157.423 E13.31964
G1 X109.705 Y156.306 E13.37074
G1 X109.109 Y155.628 E13.40077
G1 X108.303 Y154.66 E13.44266
G1 X107.951 Y154.212 E13.46161
G1 X107.037 Y152.973 E13.51282
G1 X106.493 Y152.18 E13.5448
G1 X105.842 Y151.17 E13.58477
G1 X105.405 Y150.444 E13.61295
G1 X104.941 Y149.628 E13.64418
G1 X104.481 Y148.766 E13.67667
G1 X103.989 Y147.774 E13.7135
G1 X103.586 Y146.901 E13.74548
G1 X102.99 Y145.479 E13.79676
G1 X102.662 Y144.611 E13.82763
G1 X102.37 Y143.779 E13.85695
G1 X101.986 Y142.57 E13.89915
G1 X101.741 Y141.705 E13.92905
G1 X101.452 Y140.556 E13.96845
G1 X101.257 Y139.673 E13.99853
G1 X101.079 Y138.754 E14.02966
G1 X100.841 Y137.252 E14.08024
G1 X100.726 Y136.315 E14.11164
G1 X100.642 Y135.445 E14.14071
G1 X100.557 Y134.184 E14.18275
G1 X100.518 Y133.014 E14.22169
G1 X100.513 Y132.38 E14.24277
G1 X100.546 Y130.925 E14.29118
G1 X100.6 Y129.961 E14.32329
G1 X100.705 Y128.756 E14.36352
G1 X100.813 Y127.838 E14.39427
G1 X100.993 Y126.612 E14.43548
G1 X101.147 Y125.755 E14.46444
G1 X101.397 Y124.558 E14.50511
G1 X101.624 Y123.621 E14.53718
G1 X101.933 Y122.486 E14.5763
G1 X102.135 Y121.814 E14.59964
G1 X102.433 Y120.962 E14.62966
G1 X102.835 Y120.075 E14.66205
G1 X103.297 Y119.257 E14.6933
G1 X103.809 Y118.513 E14.72334
G1 X104.43 Y117.763 E14.75572
G1 X105.087 Y117.1 E14.78677
G0 F9000 X105.349 Y117.402
G1 F2400 X105.844 Y116.972 E14.80858
G1 X107.104 Y115.947 E14.8626
G1 X109.07 Y114.288 E14.94816
G1 X110.967 Y112.592 E15.03279
G1 X112.833 Y110.827 E15.11822
G1 X114.617 Y109.04 E15.20221
G1 X116.352 Y107.202 E15.28627
G1 X118.042 Y105.308 E15.3707
G1 X120.698 Y102.106 E15.50907
G1 X121.304 Y101.437 E15.53909
G1 X121.968 Y100.824 E15.56915
G1 X122.683 Y100.273 E15.59917
G1 X123.444 Y99.787 E15.6292
G1 X124.246 Y99.37 E15.65927
G1 X125.453 Y98.899 E15.70236
G1 X126.167 Y98.681 E15.72719
G1 X127.602 Y98.293 E15.77663
G1 X128.695 Y98.039 E15.81395
G1 X129.648 Y97.848 E15.84628
G1 X130.421 Y97.712 E15.87239
G1 X131.67 Y97.531 E15.91436
G1 X132.593 Y97.427 E15.94526
G1 X133.498 Y97.347 E15.97547
G1 X134.669 Y97.28 E16.01449
G1 X135.917 Y97.251 E16.05601
G1 X137.075 Y97.263 E16.09452
G1 X137.99 Y97.301 E16.12498
G1 X138.897 Y97.361 E16.15521
G1 X140.079 Y97.475 E16.19471
G1 X141.305 Y97.636 E16.23584
G1 X142.234 Y97.787 E16.26714
G1 X142.993 Y97.93 E16.29283
G1 X143.917 Y98.128 E16.32426
G1 X145.397 Y98.5 E16.37502
G1 X146.306 Y98.763 E16.40649
G1 X147.36 Y99.099 E16.44328
G1 X148.281 Y99.425 E16.47578
G1 X149.387 Y99.854 E16.51524
G1 X150.281 Y100.234 E16.54754
G1 X151.091 Y100.602 E16.57714
G1 X152.132 Y101.113 E16.61571
G1 X153.174 Y101.668 E16.65497
G1 X153.965 Y102.122 E16.68531
G1 X154.764 Y102.607 E16.71639
G1 X155.775 Y103.263 E16.75648
G1 X156.719 Y103.922 E16.79477
G1 X157.49 Y104.496 E16.82674
G1 X158.399 Y105.216 E16.86531
G1 X158.882 Y105.619 E16.88623
G1 X160.001 Y106.611 E16.93597
G1 X160.672 Y107.248 E16.96674
G1 X161.482 Y108.064 E17.00498
G1 X161.986 Y108.6 E17.02945
G1 X162.575 Y109.284 E17.05947
G1 X163.101 Y110.018 E17.08951
G1 X163.56 Y110.796 E17.11955
G1 X163.948 Y111.612 E17.14961
G1 X164.263 Y112.458 E17.17963
G1 X164.502 Y113.329 E17.20967
G1 X164.627 Y113.977 E17.23162
G1 X164.84 Y115.307 E17.27642
G1 X165.29 Y117.861 E17.36268
G1 X165.804 Y120.364 E17.44766
G1 X166.38 Y122.808 E17.53118
G1 X167.035 Y125.276 E17.6161
G1 X167.763 Y127.733 E17.70134
G1 X168.553 Y130.15 E17.78591
G1 X169.409 Y132.537 E17.87025
G1 X170.023 Y134.136 E17.92722
G1 X170.309 Y134.992 E17.95724
G1 X170.518 Y135.871 E17.98729
G1 X170.649 Y136.764 E18.01731
G1 X170.7 Y137.666 E18.04736
G1 X170.671 Y138.569 E18.07741
G1 X170.563 Y139.465 E18.10743
G1 X170.439 Y140.089 E18.12859
G1 X170.147 Y141.331 E18.17102
G1 X169.94 Y142.09 E18.19719
G1 X169.684 Y142.947 E18.22694
G1 X169.298 Y144.112 E18.26776
G1 X168.877 Y145.248 E18.30805
G1 X168.542 Y146.07 E18.33757
G1 X168.057 Y147.172 E18.37762
G1 X167.653 Y148.018 E18.4088
G1 X167.264 Y148.782 E18.43732
G1 X166.827 Y149.592 E18.46793
G1 X166.084 Y150.86 E18.51681
G1 X165.581 Y151.654 E18.54807
G1 X165.09 Y152.386 E18.57739
G1 X164.391 Y153.366 E18.61742
G1 X163.855 Y154.071 E18.64688
G1 X163.057 Y155.059 E18.68912
G1 X162.501 Y155.704 E18.71744
G1 X161.867 Y156.405 E18.74888
G1 X160.819 Y157.484 E18.79891
G1 X160.188 Y158.09 E18.82801
G1 X159.559 Y158.668 E18.85642
G1 X158.86 Y159.276 E18.88723
G1 X157.918 Y160.047 E18.92772
G1 X157.153 Y160.636 E18.95983
G1 X156.017 Y161.448 E19.00627
G1 X155.215 Y161.983 E19.03834
G1 X154.202 Y162.614 E19.07803
G1 X153.397 Y163.081 E19.10899
G1 X152.353 Y163.65 E19.14853
G1 X151.545 Y164.057 E19.17862
G1 X150.746 Y164.434 E19.20801
G1 X149.59 Y164.937 E19.24994
G1 X148.496 Y165.372 E19.2891
G1 X147.96 Y165.569 E19.30809
G1 X146.828 Y165.951 E19.34783
G1 X145.92 Y166.229 E19.37941
G1 X144.762 Y166.544 E19.41933
G1 X143.801 Y166.774 E19.45219
G1 X142.914 Y166.942 E19.48222
G1 X142.015 Y167.03 E19.51226
G1 X141.112 Y167.038 E19.5423
G1 X140.212 Y166.966 E19.57233
G1 X139.321 Y166.815 E19.60238
G1 X138.448 Y166.585 E19.63241
G1 X137.838 Y166.375 E19.65387
G1 X136.632 Y165.915 E19.6968
G1 X134.166 Y165.016 E19.7841
G1 X131.758 Y164.215 E19.8685
G1 X129.332 Y163.484 E19.95278
G1 X126.854 Y162.812 E20.03817
G1 X124.428 Y162.227 E20.12117
G1 X121.897 Y161.694 E20.2072
G1 X119.402 Y161.24 E20.29155
G1 X117.666 Y160.967 E20.35
G1 X116.781 Y160.788 E20.38003
G1 X115.916 Y160.531 E20.41004
G1 X115.076 Y160.198 E20.4401
G1 X114.269 Y159.792 E20.47014
G1 X113.501 Y159.317 E20.50018
