;FLAVOR:Marlin
;TIME:10612
;Filament used: 13.1606m
;Layer height: 0.2
;MINX:88.748
;MINY:80.383
;MINZ:0.2
;MAXX:185.748
;MAXY:177.383
;MAXZ:30
;Generated with Cura_SteamEngine 5.4.0
M140 S60
M105
M190 S60
M104 S200
M105
M109 S200
M82 ;absolute extrusion mode
M201 X500.00 Y500.00 Z100.00 E5000.00 ;Setup machine max acceleration
M203 X500.00 Y500.00 Z10.00 E50.00 ;Setup machine max feedrate
M204 P500.00 R1000.00 T500.00 ;Setup Print/Retract/Travel acceleration
M205 X8.00 Y8.00 Z0.40 E5.00 ;Setup Jerk
M220 S100 ;Reset Feedrate
M221 S100 ;Reset Flowrate

G28 ;Home

G92 E0 ;Reset Extruder
G1 Z2.0 F3000 ;Move Z Axis up
G1 X10.1 Y20 Z0.28 F5000.0 ;Move to start position
G1 X10.1 Y200.0 Z0.28 F1500.0 E15 ;Draw the first line
G1 X10.4 Y200.0 Z0.28 F5000.0 ;Move to side a little
G1 X10.4 Y20 Z0.28 F1500.0 E30 ;Draw the second line
G92 E0 ;Reset Extruder
G1 Z2.0 F3000 ;Move Z Axis up

G92 E0
G92 E0
G1 F1500 E-6.5
;LAYER_COUNT:150
;LAYER:0
M107
G0 F9000 X91.479 Y84.148 Z0.2
;TYPE:SKIRT
G1 F1500 E0
G1 F2400 X92.204 Y83.396 E0.03474
G1 X92.94 Y82.759 E0.06712
G1 X93.672 Y82.229 E0.09718
G1 X94.569 Y81.694 E0.13191
G1 X95.447 Y81.273 E0.1643
G1 X96.36 Y80.931 E0.19673
G1 X97.297 Y80.672 E0.22906
G1 X98.264 Y80.494 E0.26176
G1 X99.403 Y80.398 E0.29978
G1 X100.06 Y80.383 E0.32164
G1 X174.052 Y80.383 E2.78262
G1 X174.932 Y80.396 E2.81189
G1 X175.904 Y80.455 E2.84428
G1 X176.867 Y80.601 E2.87668
G1 X177.814 Y80.832 E2.9091
G1 X178.702 Y81.132 E2.94027
G1 X179.594 Y81.522 E2.97265
G1 X180.477 Y82.009 E3.00619
G1 X181.228 Y82.511 E3.03624
G1 X182.043 Y83.169 E3.07108
G1 X182.741 Y83.847 E3.10344
G1 X183.377 Y84.584 E3.13582
G1 X183.947 Y85.374 E3.16822
G1 X184.409 Y86.15 E3.19826
G1 X184.863 Y87.092 E3.23304
G1 X185.192 Y87.97 E3.26422
G1 X185.461 Y88.942 E3.29777
G1 X185.638 Y89.908 E3.33043
G1 X185.733 Y91.038 E3.36815
G1 X185.748 Y91.713 E3.3906
G1 X185.747 Y165.783 E5.85418
G1 X185.736 Y166.546 E5.87956
G1 X185.679 Y167.519 E5.91198
G1 X185.534 Y168.482 E5.94437
G1 X185.305 Y169.428 E5.97674
G1 X184.994 Y170.352 E6.00917
G1 X184.602 Y171.243 E6.04155
G1 X184.134 Y172.095 E6.07388
G1 X183.612 Y172.876 E6.10512
G1 X182.979 Y173.661 E6.13866
G1 X182.354 Y174.312 E6.16868
G1 X181.565 Y175 E6.2035
G1 X180.805 Y175.55 E6.2347
G1 X179.938 Y176.067 E6.26827
G1 X179.06 Y176.489 E6.30067
G1 X178.149 Y176.831 E6.33304
G1 X177.21 Y177.092 E6.36545
G1 X176.244 Y177.27 E6.39812
G1 X175.093 Y177.368 E6.43654
G1 X174.418 Y177.383 E6.459
G1 X100.312 Y177.382 E8.92378
G1 X99.579 Y177.371 E8.94816
G1 X98.607 Y177.314 E8.98054
G1 X97.644 Y177.168 E9.01294
G1 X96.698 Y176.939 E9.04531
G1 X95.774 Y176.627 E9.07775
G1 X94.884 Y176.235 E9.11009
G1 X94.061 Y175.784 E9.14131
G1 X93.222 Y175.223 E9.17488
G1 X92.518 Y174.657 E9.20492
G1 X91.765 Y173.932 E9.23969
G1 X91.128 Y173.196 E9.27206
G1 X90.598 Y172.465 E9.30209
G1 X90.062 Y171.568 E9.33685
G1 X89.64 Y170.69 E9.36925
G1 X89.298 Y169.778 E9.40164
G1 X89.038 Y168.84 E9.43402
G1 X88.86 Y167.871 E9.46679
G1 X88.762 Y166.692 E9.50614
G1 X88.748 Y166.041 E9.52779
G1 X88.749 Y91.908 E11.99347
G1 X88.76 Y91.208 E12.01675
G1 X88.818 Y90.235 E12.04917
G1 X88.964 Y89.272 E12.08157
G1 X89.194 Y88.326 E12.11395
G1 X89.507 Y87.403 E12.14636
G1 X89.899 Y86.513 E12.17871
G1 X90.369 Y85.66 E12.2111
G1 X90.912 Y84.852 E12.24348
G1 X91.479 Y84.148 E12.27355
G0 F9000 X91.791 Y84.399
G1 F2400 X92.466 Y83.698 E12.30591
G1 X93.175 Y83.083 E12.33713
G1 X93.907 Y82.553 E12.36719
G1 X94.743 Y82.054 E12.39957
G1 X95.588 Y81.647 E12.43076
G1 X96.467 Y81.316 E12.462
G1 X97.37 Y81.065 E12.49318
G1 X98.298 Y80.893 E12.52457
G1 X99.437 Y80.797 E12.56259
G1 X100.069 Y80.783 E12.58361
G1 X174.046 Y80.783 E15.0441
G1 X174.908 Y80.795 E15.07277
G1 X175.845 Y80.851 E15.10399
G1 X176.773 Y80.99 E15.1352
G1 X177.686 Y81.211 E15.16644
G1 X178.542 Y81.499 E15.19648
G1 X179.434 Y81.889 E15.22886
G1 X180.255 Y82.342 E15.26005
G1 X181.006 Y82.844 E15.29009
G1 X181.765 Y83.456 E15.32252
G1 X182.439 Y84.109 E15.35374
G1 X183.053 Y84.818 E15.38493
G1 X183.603 Y85.579 E15.41616
G1 X184.065 Y86.355 E15.4462
G1 X184.488 Y87.232 E15.47858
G1 X184.817 Y88.11 E15.50977
G1 X185.068 Y89.015 E15.541
G1 X185.239 Y89.942 E15.57236
G1 X185.334 Y91.072 E15.61007
G1 X185.348 Y91.713 E15.6314
G1 X185.347 Y165.778 E18.09481
G1 X185.337 Y166.523 E18.11959
G1 X185.283 Y167.46 E18.15081
G1 X185.145 Y168.389 E18.18205
G1 X184.926 Y169.301 E18.21324
G1 X184.628 Y170.191 E18.24446
G1 X184.251 Y171.051 E18.27569
G1 X183.801 Y171.873 E18.30686
G1 X183.279 Y172.654 E18.3381
G1 X182.69 Y173.384 E18.3693
G1 X182.065 Y174.035 E18.39931
G1 X181.33 Y174.676 E18.43175
G1 X180.57 Y175.226 E18.46295
G1 X179.764 Y175.707 E18.49417
G1 X178.919 Y176.115 E18.52538
G1 X178.041 Y176.446 E18.55659
G1 X177.137 Y176.699 E18.58781
G1 X176.21 Y176.871 E18.61917
G1 X175.059 Y176.969 E18.65759
G1 X174.418 Y176.983 E18.67892
G1 X100.318 Y176.982 E21.14349
G1 X99.602 Y176.972 E21.16731
G1 X98.666 Y176.918 E21.19849
G1 X97.737 Y176.779 E21.22974
G1 X96.825 Y176.56 E21.26093
G1 X95.935 Y176.261 E21.29216
G1 X95.076 Y175.884 E21.32336
G1 X94.253 Y175.433 E21.35457
G1 X93.473 Y174.911 E21.38579
G1 X92.769 Y174.345 E21.41583
G1 X92.067 Y173.67 E21.44823
G1 X91.452 Y172.961 E21.47944
G1 X90.922 Y172.23 E21.50947
G1 X90.422 Y171.394 E21.54187
G1 X90.014 Y170.549 E21.57308
G1 X89.683 Y169.671 E21.60429
G1 X89.431 Y168.767 E21.6355
G1 X89.259 Y167.838 E21.66693
G1 X89.161 Y166.659 E21.70628
G1 X89.148 Y166.041 E21.72684
G1 X89.149 Y91.914 E24.19231
G1 X89.159 Y91.231 E24.21503
G1 X89.214 Y90.294 E24.24625
G1 X89.353 Y89.366 E24.27746
G1 X89.573 Y88.454 E24.30866
G1 X89.873 Y87.564 E24.3399
G1 X90.25 Y86.705 E24.3711
G1 X90.701 Y85.883 E24.40228
G1 X91.224 Y85.103 E24.43352
G1 X91.791 Y84.399 E24.46358
G0 F9000 X92.103 Y84.65
G1 F2400 X92.729 Y84 E24.4936
G1 X93.41 Y83.407 E24.52363
G1 X94.142 Y82.877 E24.55369
G1 X94.917 Y82.414 E24.58372
G1 X95.73 Y82.021 E24.61375
G1 X96.575 Y81.701 E24.6438
G1 X97.444 Y81.458 E24.67382
G1 X98.332 Y81.292 E24.70386
G1 X99.471 Y81.196 E24.74188
G1 X100.078 Y81.183 E24.76207
G1 X174.041 Y81.183 E27.22209
G1 X174.885 Y81.194 E27.25017
G1 X175.787 Y81.247 E27.28022
G1 X176.68 Y81.379 E27.31024
G1 X177.558 Y81.59 E27.34028
G1 X178.414 Y81.878 E27.37032
G1 X179.241 Y82.24 E27.40034
G1 X180.033 Y82.675 E27.4304
G1 X180.784 Y83.177 E27.46044
G1 X181.487 Y83.744 E27.49048
G1 X182.137 Y84.371 E27.52052
G1 X182.729 Y85.053 E27.55055
G1 X183.259 Y85.784 E27.58059
G1 X183.721 Y86.56 E27.61062
G1 X184.114 Y87.373 E27.64066
G1 X184.432 Y88.218 E27.67069
G1 X184.675 Y89.088 E27.70073
G1 X184.84 Y89.976 E27.73077
G1 X184.935 Y91.106 E27.76849
G1 X184.948 Y91.713 E27.78868
G1 X184.947 Y165.773 E30.25193
G1 X184.938 Y166.5 E30.27611
G1 X184.887 Y167.402 E30.30616
G1 X184.756 Y168.296 E30.33621
G1 X184.547 Y169.174 E30.36623
G1 X184.261 Y170.031 E30.39628
G1 X183.9 Y170.859 E30.42632
G1 X183.468 Y171.651 E30.45633
G1 X182.967 Y172.403 E30.48638
G1 X182.401 Y173.107 E30.51642
G1 X181.776 Y173.758 E30.54644
G1 X181.095 Y174.352 E30.5765
G1 X180.364 Y174.883 E30.60655
G1 X179.59 Y175.347 E30.63656
G1 X178.777 Y175.741 E30.66661
G1 X177.933 Y176.061 E30.69663
G1 X177.063 Y176.306 E30.72669
G1 X176.176 Y176.472 E30.75671
G1 X175.025 Y176.57 E30.79513
G1 X174.418 Y176.583 E30.81532
G1 X100.323 Y176.582 E33.27973
G1 X99.625 Y176.573 E33.30295
G1 X98.724 Y176.522 E33.33296
G1 X97.83 Y176.39 E33.36302
G1 X96.952 Y176.181 E33.39304
G1 X96.095 Y175.894 E33.4231
G1 X95.268 Y175.533 E33.45311
G1 X94.475 Y175.1 E33.48316
G1 X93.724 Y174.599 E33.51319
G1 X93.02 Y174.033 E33.54323
G1 X92.369 Y173.407 E33.57327
G1 X91.776 Y172.726 E33.60331
G1 X91.246 Y171.995 E33.63334
G1 X90.782 Y171.22 E33.66338
G1 X90.388 Y170.407 E33.69343
G1 X90.068 Y169.563 E33.72345
G1 X89.824 Y168.693 E33.7535
G1 X89.658 Y167.805 E33.78355
G1 X89.561 Y166.65 E33.8221
G1 X89.548 Y166.041 E33.84236
G1 X89.549 Y91.919 E36.30767
G1 X89.558 Y91.254 E36.32979
G1 X89.61 Y90.352 E36.35984
G1 X89.742 Y89.459 E36.38986
G1 X89.952 Y88.581 E36.41989
G1 X90.239 Y87.724 E36.44995
G1 X90.601 Y86.897 E36.47998
G1 X91.034 Y86.105 E36.51
G1 X91.536 Y85.354 E36.54004
G1 X92.103 Y84.65 E36.57011
G1 F1500 E30.07011
;MESH:Lower_Cover.3mf
G0 F9000 X119.243 Y112.003
G0 X122.252 Y116.016
;TYPE:WALL-INNER
G1 F1500 E36.57011
G1 F2400 X121.572 Y116.053 E36.59276
G1 X120.93 Y115.935 E36.61447
G1 X120.312 Y115.646 E36.63716
G1 X119.797 Y115.218 E36.65943
G1 X119.416 Y114.696 E36.68093
G1 X119.152 Y114.041 E36.70441
G1 X119.068 Y113.373 E36.72681
G1 X119.151 Y112.727 E36.74847
G1 X119.416 Y112.071 E36.772
G1 X119.806 Y111.537 E36.79399
G1 X120.334 Y111.113 E36.81652
G1 X120.929 Y110.833 E36.83839
G1 X121.573 Y110.71 E36.8602
G1 X122.258 Y110.753 E36.88302
G1 X122.881 Y110.956 E36.90482
G1 X123.456 Y111.319 E36.92743
G1 X123.914 Y111.804 E36.94962
G1 X124.245 Y112.41 E36.97259
G1 X124.402 Y113.042 E36.99425
G1 X124.405 Y113.704 E37.01627
G1 X124.243 Y114.368 E37.039
G1 X123.917 Y114.961 E37.0615
G1 X123.459 Y115.447 E37.08372
G1 X122.884 Y115.805 E37.10624
G1 X122.252 Y116.016 E37.12841
G1 F1500 E30.62841
G0 F9000 X122.961 Y115.968
G0 X127.013 Y121.229
G0 X137.616 Y141.478
G1 F1500 E37.12841
G1 F2400 X136.242 Y141.444 E37.17412
G1 X134.919 Y141.267 E37.21851
G1 X133.605 Y140.947 E37.2635
G1 X132.353 Y140.494 E37.30778
G1 X131.169 Y139.921 E37.35153
G1 X130.008 Y139.196 E37.39705
G1 X128.968 Y138.381 E37.441
G1 X127.99 Y137.43 E37.48637
G1 X127.112 Y136.37 E37.53215
G1 X126.394 Y135.283 E37.57548
G1 X125.787 Y134.115 E37.61926
G1 X125.285 Y132.84 E37.66484
G1 X124.929 Y131.523 E37.71021
G1 X124.717 Y130.194 E37.75497
G1 X124.649 Y128.851 E37.7997
G1 X124.724 Y127.508 E37.84444
G1 X124.929 Y126.244 E37.88703
G1 X125.285 Y124.927 E37.9324
G1 X125.773 Y123.682 E37.97688
G1 X126.394 Y122.483 E38.02179
G1 X127.151 Y121.345 E38.06725
G1 X127.995 Y120.331 E38.11113
G1 X128.943 Y119.407 E38.15516
G1 X130.008 Y118.571 E38.20019
G1 X131.143 Y117.86 E38.24474
G1 X132.353 Y117.273 E38.28947
G1 X133.605 Y116.82 E38.33375
G1 X134.919 Y116.5 E38.37873
G1 X136.242 Y116.323 E38.42313
G1 X137.616 Y116.289 E38.46884
G1 X138.892 Y116.391 E38.51142
G1 X140.231 Y116.64 E38.55671
G1 X141.555 Y117.043 E38.60275
G1 X142.753 Y117.548 E38.64599
G1 X143.934 Y118.203 E38.6909
G1 X145.035 Y118.975 E38.73563
G1 X146.055 Y119.873 E38.78083
G1 X146.95 Y120.844 E38.82475
G1 X147.751 Y121.921 E38.86939
G1 X148.429 Y123.07 E38.91376
G1 X148.986 Y124.301 E38.9587
G1 X149.403 Y125.564 E39.00294
G1 X149.688 Y126.878 E39.04766
G1 X149.831 Y128.21 E39.09222
G1 X149.831 Y129.556 E39.13699
G1 X149.688 Y130.889 E39.18158
G1 X149.403 Y132.203 E39.2263
G1 X148.986 Y133.466 E39.27054
G1 X148.442 Y134.67 E39.31448
G1 X147.751 Y135.846 E39.35984
G1 X146.95 Y136.922 E39.40446
G1 X146.009 Y137.939 E39.45054
G1 X145.035 Y138.792 E39.49361
G1 X143.96 Y139.547 E39.5373
G1 X142.753 Y140.219 E39.58325
G1 X141.555 Y140.724 E39.62649
G1 X140.231 Y141.127 E39.67252
G1 X138.892 Y141.376 E39.71782
G1 X137.616 Y141.478 E39.76039
G1 F1500 E33.26039
G0 F9000 X137.45 Y141.577
G0 X138.97 Y141.548
G0 X149.975 Y145.084
G0 X152.572 Y147.056
G1 F1500 E39.76039
G1 F2400 X151.925 Y146.934 E39.78229
G1 X151.304 Y146.639 E39.80516
G1 X150.799 Y146.216 E39.82707
G1 X150.401 Y145.668 E39.84959
G1 X150.152 Y145.046 E39.87188
G1 X150.067 Y144.377 E39.89431
G1 X150.154 Y143.732 E39.91595
G1 X150.404 Y143.091 E39.93884
G1 X150.797 Y142.553 E39.961
G1 X151.302 Y142.128 E39.98295
G1 X151.933 Y141.836 E40.00608
G1 X152.568 Y141.711 E40.0276
G1 X153.249 Y141.755 E40.0503
G1 X153.891 Y141.965 E40.07277
G1 X154.457 Y142.32 E40.09499
G1 X154.913 Y142.808 E40.1172
G1 X155.243 Y143.402 E40.1398
G1 X155.406 Y144.042 E40.16177
G1 X155.406 Y144.694 E40.18345
G1 X155.245 Y145.361 E40.20628
G1 X154.916 Y145.962 E40.22906
G1 X154.464 Y146.442 E40.25099
G1 X153.881 Y146.811 E40.27394
G1 X153.258 Y147.014 E40.29573
G1 X152.572 Y147.056 E40.31859
G1 F1500 E33.81859
G0 F9000 X152.673 Y147.153
G0 X153.954 Y146.977
G0 X153.952 Y165.602
G0 X174.148 Y165.783
G1 F1500 E40.31859
G1 F2400 X174.148 Y91.983 E42.77319
G1 X100.349 Y91.984 E45.22776
G1 X100.349 Y165.782 E47.68229
G1 X174.148 Y165.783 E50.13685
G1 F1500 E43.63685
G0 F9000 X173.948 Y116.155
G0 X153.955 Y115.977
G0 X152.568 Y116.056
G1 F1500 E50.13685
G1 F2400 X151.931 Y115.931 E50.15844
G1 X151.315 Y115.648 E50.18099
G1 X150.789 Y115.211 E50.20374
G1 X150.404 Y114.676 E50.22566
G1 X150.154 Y114.035 E50.24854
G1 X150.067 Y113.387 E50.27029
G1 X150.156 Y112.725 E50.2925
G1 X150.395 Y112.099 E50.31479
G1 X150.801 Y111.548 E50.33755
G1 X151.291 Y111.14 E50.35876
G1 X151.928 Y110.833 E50.38228
G1 X152.573 Y110.71 E50.40412
G1 X153.258 Y110.753 E50.42695
G1 X153.881 Y110.957 E50.44875
G1 X154.463 Y111.325 E50.47165
G1 X154.913 Y111.808 E50.49361
G1 X155.243 Y112.402 E50.51621
G1 X155.406 Y113.042 E50.53818
G1 X155.406 Y113.694 E50.55986
G1 X155.245 Y114.361 E50.58268
G1 X154.915 Y114.963 E50.60552
G1 X154.456 Y115.448 E50.62773
G1 X153.891 Y115.802 E50.6499
G1 X153.249 Y116.012 E50.67237
G1 X152.568 Y116.056 E50.69507
G1 F1500 E44.19507
G0 F9000 X152.55 Y116.155
G0 X151.211 Y115.791
G0 X124.073 Y142.713
G0 X122.258 Y147.014
G1 F1500 E50.69507
G1 F2400 X121.572 Y147.056 E50.71793
G1 X120.925 Y146.934 E50.73983
G1 X120.306 Y146.64 E50.76262
G1 X119.802 Y146.224 E50.78435
G1 X119.404 Y145.681 E50.80675
G1 X119.152 Y145.04 E50.82965
G1 X119.068 Y144.373 E50.85201
G1 X119.151 Y143.727 E50.87368
G1 X119.416 Y143.071 E50.89721
G1 X119.799 Y142.546 E50.91882
G1 X120.302 Y142.129 E50.94055
G1 X120.925 Y141.833 E50.96349
G1 X121.572 Y141.714 E50.98537
G1 X122.265 Y141.755 E51.00846
G1 X122.884 Y141.962 E51.03017
G1 X123.467 Y142.328 E51.05307
G1 X123.91 Y142.804 E51.0747
G1 X124.232 Y143.378 E51.09659
G1 X124.405 Y144.035 E51.11918
G1 X124.408 Y144.714 E51.14177
G1 X124.232 Y145.381 E51.16471
G1 X123.922 Y145.952 E51.18632
G1 X123.456 Y146.448 E51.20896
G1 X122.88 Y146.811 E51.2316
G1 X122.258 Y147.014 E51.25336
G0 F9000 X122.165 Y146.62
;TYPE:WALL-OUTER
G1 F2400 X121.615 Y146.654 E51.27169
G1 X121.036 Y146.545 E51.29129
G1 X120.538 Y146.309 E51.30962
G1 X120.095 Y145.946 E51.32866
G1 X119.75 Y145.473 E51.34814
G1 X119.541 Y144.932 E51.36743
G1 X119.471 Y144.383 E51.38583
G1 X119.543 Y143.827 E51.40448
G1 X119.749 Y143.295 E51.42346
G1 X120.084 Y142.832 E51.44246
G1 X120.542 Y142.455 E51.46219
G1 X121.031 Y142.225 E51.48017
G1 X121.593 Y142.114 E51.49922
G1 X122.168 Y142.147 E51.51838
G1 X122.716 Y142.325 E51.53754
G1 X123.198 Y142.63 E51.55651
G1 X123.604 Y143.066 E51.57633
G1 X123.854 Y143.522 E51.59362
G1 X124.007 Y144.103 E51.61361
G1 X124.008 Y144.643 E51.63157
G1 X123.867 Y145.215 E51.65116
G1 X123.587 Y145.727 E51.67057
G1 X123.181 Y146.149 E51.69005
G1 X122.724 Y146.438 E51.70803
G1 X122.165 Y146.62 E51.72758
G1 F1500 E45.22758
G0 F9000 X121.707 Y147.151
G0 X122.821 Y146.662
G0 X123.122 Y146.471
G0 X124.405 Y145.446
G0 X134.906 Y141.448
G0 X137.562 Y141.079
G1 F1500 E51.72758
G1 F2400 X136.263 Y141.044 E51.7708
G1 X134.98 Y140.871 E51.81386
G1 X133.708 Y140.56 E51.85742
G1 X132.508 Y140.125 E51.89987
G1 X131.328 Y139.552 E51.9435
G1 X130.229 Y138.862 E51.98666
G1 X129.199 Y138.052 E52.03024
G1 X128.282 Y137.156 E52.07288
G1 X127.452 Y136.158 E52.11606
G1 X126.734 Y135.071 E52.15939
G1 X126.137 Y133.921 E52.20248
G1 X125.665 Y132.716 E52.24553
G1 X125.324 Y131.459 E52.28884
G1 X125.117 Y130.173 E52.33217
G1 X125.049 Y128.872 E52.3755
G1 X125.119 Y127.572 E52.4188
G1 X125.326 Y126.299 E52.4617
G1 X125.665 Y125.051 E52.50471
G1 X126.137 Y123.846 E52.54775
G1 X126.739 Y122.686 E52.59122
G1 X127.452 Y121.609 E52.63418
G1 X128.296 Y120.595 E52.67806
G1 X129.215 Y119.701 E52.7207
G1 X130.246 Y118.893 E52.76427
G1 X131.347 Y118.205 E52.80745
G1 X132.517 Y117.638 E52.85069
G1 X133.729 Y117.201 E52.89354
G1 X135.001 Y116.892 E52.93708
G1 X136.274 Y116.722 E52.9798
G1 X137.584 Y116.688 E53.02338
G1 X138.881 Y116.793 E53.06666
G1 X140.148 Y117.032 E53.10955
G1 X141.4 Y117.412 E53.15306
G1 X142.579 Y117.908 E53.19561
G1 X143.722 Y118.542 E53.23908
G1 X144.788 Y119.29 E53.28239
