;FLAVOR:Marlin
;TIME:2500
;Filament used: 1.63124m
;Layer height: 0.2
;MINX:96.58
;MINY:101.335
;MINZ:0.2
;MAXX:167.968
;MAXY:172.724
;MAXZ:7
;Generated with Cura_SteamEngine 5.4.0
M140 S60
M105
M190 S60
M104 S200
M105
M109 S200
M82 ;absolute extrusion mode
M201 X500.00 Y500.00 Z100.00 E5000.00 ;Setup machine max acceleration
M203 X500.00 Y500.00 Z10.00 E50.00 ;Setup machine max feedrate
M204 P500.00 R1000.00 T500.00 ;Setup Print/Retract/Travel acceleration
M205 X8.00 Y8.00 Z0.40 E5.00 ;Setup Jerk
M220 S100 ;Reset Feedrate
M221 S100 ;Reset Flowrate

G28 ;Home

G92 E0 ;Reset Extruder
G1 Z2.0 F3000 ;Move Z Axis up
G1 X10.1 Y20 Z0.28 F5000.0 ;Move to start position
G1 X10.1 Y200.0 Z0.28 F1500.0 E15 ;Draw the first line
G1 X10.4 Y200.0 Z0.28 F5000.0 ;Move to side a little
G1 X10.4 Y20 Z0.28 F1500.0 E30 ;Draw the second line
G92 E0 ;Reset Extruder
G1 Z2.0 F3000 ;Move Z Axis up

G92 E0
G92 E0
G1 F1500 E-6.5
;LAYER_COUNT:35
;LAYER:0
M107
G0 F6000 X107.474 Y110.938 Z0.2
;TYPE:SKIRT
G1 F1500 E0
G1 F1200 X108.24 Y110.217 E0.03499
G1 X108.983 Y109.586 E0.06741
G1 X109.749 Y109.044 E0.09862
G1 X110.619 Y108.536 E0.13213
G1 X111.436 Y108.15 E0.16218
G1 X112.417 Y107.79 E0.19694
G1 X113.347 Y107.541 E0.22896
G1 X113.964 Y107.423 E0.24985
G1 X115.25 Y107.215 E0.29318
G1 X117.792 Y106.77 E0.37901
G1 X120.23 Y106.27 E0.46179
G1 X122.701 Y105.689 E0.54622
G1 X125.155 Y105.038 E0.63066
G1 X127.571 Y104.325 E0.71444
G1 X129.942 Y103.552 E0.79739
G1 X132.362 Y102.688 E0.88285
G1 X134.014 Y102.053 E0.94172
G1 X134.904 Y101.757 E0.97291
G1 X135.886 Y101.525 E1.00647
G1 X136.779 Y101.394 E1.03649
G1 X137.824 Y101.335 E1.07131
G1 X138.796 Y101.37 E1.10366
G1 X139.692 Y101.478 E1.13367
G1 X140.385 Y101.614 E1.15716
G1 X141.601 Y101.899 E1.1987
G1 X142.424 Y102.121 E1.22705
G1 X143.423 Y102.42 E1.26174
G1 X144.355 Y102.731 E1.29442
G1 X145.345 Y103.089 E1.32943
G1 X146.026 Y103.355 E1.35375
G1 X146.95 Y103.744 E1.38709
G1 X148.176 Y104.304 E1.43192
G1 X148.808 Y104.615 E1.45535
G1 X149.929 Y105.209 E1.49754
G1 X150.927 Y105.78 E1.53579
G1 X151.769 Y106.295 E1.56861
G1 X152.615 Y106.845 E1.60218
G1 X153.199 Y107.246 E1.62574
G1 X154.058 Y107.867 E1.66099
G1 X154.898 Y108.511 E1.6962
G1 X155.64 Y109.114 E1.728
G1 X156.409 Y109.775 E1.76172
G1 X157.413 Y110.695 E1.80702
G1 X158.126 Y111.394 E1.84023
G1 X158.641 Y111.925 E1.86483
G1 X159.525 Y112.889 E1.90833
G1 X160.202 Y113.678 E1.94291
G1 X160.688 Y114.274 E1.96849
G1 X161.313 Y115.078 E2.00236
G1 X162.062 Y116.111 E2.0448
G1 X162.655 Y116.986 E2.07996
G1 X163.193 Y117.829 E2.11322
G1 X163.583 Y118.479 E2.13843
G1 X164.066 Y119.325 E2.17083
G1 X164.564 Y120.257 E2.20598
G1 X165.135 Y121.42 E2.24907
G1 X165.59 Y122.425 E2.28576
G1 X165.835 Y123.001 E2.30658
G1 X166.323 Y124.252 E2.35124
G1 X166.646 Y125.163 E2.38339
G1 X166.986 Y126.216 E2.42019
G1 X167.185 Y126.894 E2.4437
G1 X167.449 Y127.874 E2.47745
G1 X167.685 Y128.858 E2.51111
G1 X167.865 Y129.816 E2.54353
G1 X167.959 Y130.784 E2.57588
G1 X167.968 Y131.759 E2.60831
G1 X167.89 Y132.729 E2.64067
G1 X167.741 Y133.619 E2.67069
G1 X167.489 Y134.593 E2.70415
G1 X167.258 Y135.271 E2.72797
G1 X166.841 Y136.369 E2.76704
G1 X166.764 Y136.593 E2.77491
G1 X166.291 Y137.84 E2.81927
G1 X165.455 Y140.25 E2.90412
G1 X164.711 Y142.608 E2.98635
G1 X164.009 Y145.073 E3.0716
G1 X163.394 Y147.491 E3.15458
G1 X162.839 Y149.959 E3.23872
G1 X162.364 Y152.396 E3.3213
G1 X161.877 Y155.354 E3.42101
G1 X161.666 Y156.343 E3.45464
G1 X161.378 Y157.273 E3.48702
G1 X161.01 Y158.173 E3.51936
G1 X160.565 Y159.039 E3.55175
G1 X160.064 Y159.832 E3.58295
G1 X159.479 Y160.602 E3.61511
G1 X159.092 Y161.042 E3.6346
G1 X158.188 Y162.009 E3.67863
G1 X157.601 Y162.59 E3.7061
G1 X156.821 Y163.324 E3.74172
G1 X156.106 Y163.958 E3.7735
G1 X155.333 Y164.608 E3.8071
G1 X154.795 Y165.038 E3.83
G1 X153.65 Y165.9 E3.87767
G1 X153.038 Y166.334 E3.90262
G1 X152.238 Y166.873 E3.93471
G1 X151.168 Y167.544 E3.97672
G1 X150.491 Y167.941 E4.00282
G1 X149.333 Y168.579 E4.04679
G1 X148.479 Y169.015 E4.07868
G1 X147.778 Y169.351 E4.10454
G1 X146.838 Y169.773 E4.13881
G1 X145.641 Y170.265 E4.18185
G1 X144.617 Y170.646 E4.21819
G1 X143.681 Y170.964 E4.25107
G1 X142.714 Y171.264 E4.28475
G1 X142.001 Y171.465 E4.30939
G1 X140.687 Y171.796 E4.35446
G1 X139.712 Y172.008 E4.38764
G1 X138.977 Y172.149 E4.41253
G1 X137.774 Y172.344 E4.45307
G1 X136.972 Y172.453 E4.47999
G1 X135.703 Y172.586 E4.52243
G1 X134.623 Y172.665 E4.55844
G1 X133.596 Y172.709 E4.59263
G1 X132.673 Y172.724 E4.62334
G1 X131.949 Y172.719 E4.64742
G1 X130.549 Y172.667 E4.69401
G1 X129.846 Y172.62 E4.71745
G1 X128.53 Y172.496 E4.76141
G1 X127.777 Y172.402 E4.78665
G1 X126.528 Y172.213 E4.82867
G1 X125.804 Y172.082 E4.85314
G1 X124.774 Y171.868 E4.88813
G1 X123.488 Y171.559 E4.93212
G1 X122.815 Y171.376 E4.95531
G1 X121.813 Y171.079 E4.99007
G1 X120.961 Y170.781 E5.02009
G1 X120.008 Y170.348 E5.05491
G1 X119.162 Y169.867 E5.08728
G1 X118.36 Y169.313 E5.1197
G1 X117.612 Y168.689 E5.1521
G1 X116.949 Y168.032 E5.18314
G1 X116.495 Y167.511 E5.20613
G1 X115.778 Y166.632 E5.24385
G1 X115.638 Y166.473 E5.2509
G1 X114.493 Y165.083 E5.3108
G1 X112.848 Y163.198 E5.39401
G1 X111.155 Y161.363 E5.47705
G1 X109.388 Y159.554 E5.56116
G1 X107.577 Y157.804 E5.64492
G1 X105.696 Y156.086 E5.72965
G1 X103.821 Y154.466 E5.81206
G1 X101.793 Y152.81 E5.89915
G1 X101.055 Y152.147 E5.93214
G1 X100.391 Y151.436 E5.9645
G1 X99.813 Y150.696 E5.99573
G1 X99.265 Y149.848 E6.02931
G1 X98.811 Y148.986 E6.06172
G1 X98.45 Y148.128 E6.09268
G1 X98.247 Y147.53 E6.11368
G1 X97.873 Y146.292 E6.15669
G1 X97.657 Y145.47 E6.18496
G1 X97.417 Y144.453 E6.21972
G1 X97.274 Y143.777 E6.2427
G1 X97.036 Y142.452 E6.28747
G1 X96.894 Y141.476 E6.32028
G1 X96.771 Y140.434 E6.35517
G1 X96.705 Y139.725 E6.37886
G1 X96.615 Y138.342 E6.42495
G1 X96.583 Y137.302 E6.45956
G1 X96.58 Y136.374 E6.49043
G1 X96.603 Y135.377 E6.5236
G1 X96.641 Y134.624 E6.54867
G1 X96.746 Y133.263 E6.59407
G1 X96.852 Y132.316 E6.62577
G1 X96.995 Y131.273 E6.66078
G1 X97.111 Y130.56 E6.68481
G1 X97.363 Y129.262 E6.72879
G1 X97.588 Y128.274 E6.76249
G1 X97.84 Y127.291 E6.79624
G1 X98.138 Y126.255 E6.8321
G1 X98.45 Y125.282 E6.86608
G1 X98.778 Y124.344 E6.89913
G1 X99.154 Y123.365 E6.93401
G1 X99.54 Y122.438 E6.96741
G1 X99.963 Y121.503 E7.00154
G1 X100.42 Y120.557 E7.03649
G1 X100.884 Y119.667 E7.06987
G1 X101.374 Y118.787 E7.10337
G1 X101.917 Y117.873 E7.13873
G1 X102.446 Y117.038 E7.17161
G1 X102.855 Y116.426 E7.19609
G1 X103.444 Y115.592 E7.23005
G1 X104.05 Y114.78 E7.26375
G1 X104.88 Y113.742 E7.30795
G1 X105.368 Y113.169 E7.33298
G1 X106.071 Y112.381 E7.36811
G1 X106.702 Y111.709 E7.39877
G1 X107.474 Y110.938 E7.43506
G0 F6000 X107.748 Y111.229
G1 F1200 X108.499 Y110.522 E7.46936
G1 X109.214 Y109.913 E7.5006
G1 X109.98 Y109.371 E7.53181
G1 X110.79 Y108.898 E7.56301
G1 X111.607 Y108.512 E7.59306
G1 X112.521 Y108.176 E7.62545
G1 X113.422 Y107.934 E7.65648
G1 X114.028 Y107.818 E7.677
G1 X115.314 Y107.61 E7.72033
G1 X117.87 Y107.162 E7.80664
G1 X120.31 Y106.662 E7.88948
G1 X122.804 Y106.076 E7.97469
G1 X125.258 Y105.425 E8.05913
G1 X127.684 Y104.709 E8.14326
G1 X130.077 Y103.929 E8.22698
G1 X132.497 Y103.064 E8.31245
G1 X134.14 Y102.433 E8.37099
G1 X135.03 Y102.137 E8.40219
G1 X135.944 Y101.921 E8.43342
G1 X136.837 Y101.79 E8.46344
G1 X137.81 Y101.735 E8.49586
G1 X138.748 Y101.767 E8.52707
G1 X139.644 Y101.875 E8.55709
G1 X140.294 Y102.003 E8.57912
G1 X141.497 Y102.285 E8.62022
G1 X142.309 Y102.504 E8.64819
G1 X143.297 Y102.8 E8.6825
G1 X144.219 Y103.107 E8.71482
G1 X145.2 Y103.462 E8.74952
G1 X145.871 Y103.724 E8.77347
G1 X146.784 Y104.108 E8.80642
G1 X147.999 Y104.663 E8.85084
G1 X148.621 Y104.969 E8.8739
G1 X149.73 Y105.556 E8.91563
G1 X150.718 Y106.121 E8.95349
G1 X151.551 Y106.631 E8.98598
G1 X152.389 Y107.175 E9.0192
G1 X152.965 Y107.57 E9.04243
G1 X153.815 Y108.184 E9.07731
G1 X154.646 Y108.821 E9.11214
G1 X155.379 Y109.417 E9.14356
G1 X156.139 Y110.07 E9.17688
G1 X157.133 Y110.981 E9.22173
G1 X157.839 Y111.673 E9.25461
G1 X158.346 Y112.195 E9.27881
G1 X159.221 Y113.149 E9.32187
G1 X159.892 Y113.931 E9.35614
G1 X160.372 Y114.519 E9.38139
G1 X160.989 Y115.313 E9.41483
G1 X161.731 Y116.335 E9.45684
G1 X162.318 Y117.201 E9.49163
G1 X162.85 Y118.035 E9.52454
G1 X163.236 Y118.677 E9.54945
G1 X163.713 Y119.513 E9.58146
G1 X164.205 Y120.434 E9.61619
G1 X164.771 Y121.585 E9.65885
G1 X165.222 Y122.581 E9.69522
G1 X165.462 Y123.146 E9.71564
G1 X165.946 Y124.386 E9.75991
G1 X166.265 Y125.286 E9.79167
G1 X166.602 Y126.329 E9.82812
G1 X166.799 Y126.998 E9.85132
G1 X167.06 Y127.968 E9.88473
G1 X167.292 Y128.933 E9.91774
G1 X167.467 Y129.855 E9.94895
G1 X167.559 Y130.788 E9.98014
G1 X167.569 Y131.727 E10.01137
G1 X167.495 Y132.663 E10.0426
G1 X167.346 Y133.553 E10.07261
G1 X167.102 Y134.492 E10.10488
G1 X166.884 Y135.129 E10.12727
G1 X166.467 Y136.227 E10.16634
G1 X166.39 Y136.451 E10.17421
G1 X165.917 Y137.698 E10.21857
G1 X165.077 Y140.119 E10.30381
G1 X164.326 Y142.498 E10.38678
G1 X163.624 Y144.963 E10.47203
G1 X163.006 Y147.392 E10.55539
G1 X162.446 Y149.882 E10.64028
G1 X161.971 Y152.319 E10.72286
G1 X161.482 Y155.289 E10.82297
G1 X161.284 Y156.225 E10.85479
G1 X161.008 Y157.122 E10.886
G1 X160.654 Y157.991 E10.91721
G1 X160.226 Y158.826 E10.94842
G1 X159.745 Y159.59 E10.97845
G1 X159.16 Y160.36 E11.01061
G1 X158.8 Y160.769 E11.02873
G1 X157.906 Y161.725 E11.07227
G1 X157.327 Y162.299 E11.09938
G1 X156.555 Y163.025 E11.13463
G1 X155.849 Y163.652 E11.16604
G1 X155.083 Y164.296 E11.19932
G1 X154.554 Y164.719 E11.22185
G1 X153.419 Y165.574 E11.26911
G1 X152.815 Y166.002 E11.29373
G1 X152.025 Y166.534 E11.32541
G1 X150.965 Y167.199 E11.36703
G1 X150.298 Y167.591 E11.39276
G1 X149.151 Y168.223 E11.43632
G1 X148.306 Y168.654 E11.46787
G1 X147.614 Y168.986 E11.4934
G1 X146.686 Y169.403 E11.52724
G1 X145.501 Y169.89 E11.56985
G1 X144.488 Y170.267 E11.6058
G1 X143.562 Y170.582 E11.63833
G1 X142.605 Y170.879 E11.67166
G1 X141.903 Y171.077 E11.69592
G1 X140.602 Y171.405 E11.74054
G1 X139.637 Y171.615 E11.77339
G1 X138.913 Y171.754 E11.79791
G1 X137.72 Y171.948 E11.83811
G1 X136.93 Y172.055 E11.86463
G1 X135.674 Y172.187 E11.90663
G1 X134.606 Y172.265 E11.94225
G1 X133.589 Y172.309 E11.9761
G1 X132.676 Y172.324 E12.00648
G1 X131.964 Y172.319 E12.03016
G1 X130.576 Y172.268 E12.07635
G1 X129.884 Y172.222 E12.09942
G1 X128.579 Y172.099 E12.14302
G1 X127.837 Y172.007 E12.16789
G1 X126.599 Y171.819 E12.20953
G1 X125.885 Y171.69 E12.23367
G1 X124.867 Y171.479 E12.26824
G1 X123.593 Y171.173 E12.31182
G1 X122.929 Y170.993 E12.3347
G1 X121.945 Y170.701 E12.36884
G1 X121.093 Y170.403 E12.39886
G1 X120.205 Y170 E12.4313
G1 X119.389 Y169.538 E12.46249
G1 X118.616 Y169.005 E12.49372
G1 X117.894 Y168.405 E12.52494
G1 X117.231 Y167.748 E12.55598
G1 X116.805 Y167.258 E12.57758
G1 X116.078 Y166.367 E12.61583
G1 X115.947 Y166.219 E12.6224
G1 X114.802 Y164.829 E12.6823
G1 X113.149 Y162.935 E12.76591
G1 X111.441 Y161.083 E12.8497
G1 X109.674 Y159.274 E12.93381
G1 X107.855 Y157.516 E13.01795
G1 X105.958 Y155.783 E13.10341
G1 X104.083 Y154.163 E13.18583
G1 X102.06 Y152.512 E13.27267
G1 X101.347 Y151.874 E13.3045
G1 X100.706 Y151.189 E13.3357
G1 X100.149 Y150.478 E13.36574
G1 X99.619 Y149.661 E13.39813
G1 X99.18 Y148.831 E13.42936
G1 X98.829 Y147.999 E13.45939
G1 X98.63 Y147.414 E13.47995
G1 X98.26 Y146.19 E13.52248
G1 X98.046 Y145.378 E13.5504
G1 X97.808 Y144.37 E13.58485
G1 X97.668 Y143.706 E13.60742
G1 X97.432 Y142.394 E13.65176
G1 X97.291 Y141.429 E13.6842
G1 X97.169 Y140.397 E13.71876
G1 X97.104 Y139.699 E13.74208
G1 X97.015 Y138.33 E13.78771
G1 X96.983 Y137.301 E13.82195
G1 X96.98 Y136.383 E13.85248
G1 X97.003 Y135.397 E13.88528
G1 X97.04 Y134.655 E13.90999
G1 X97.144 Y133.307 E13.95496
G1 X97.248 Y132.37 E13.98632
G1 X97.39 Y131.337 E14.021
G1 X97.504 Y130.636 E14.04462
G1 X97.753 Y129.351 E14.08815
G1 X97.975 Y128.373 E14.12151
G1 X98.224 Y127.402 E14.15485
G1 X98.519 Y126.377 E14.19033
G1 X98.828 Y125.414 E14.22396
G1 X99.152 Y124.487 E14.25663
G1 X99.523 Y123.519 E14.2911
G1 X99.905 Y122.603 E14.32411
G1 X100.323 Y121.677 E14.35791
G1 X100.775 Y120.742 E14.39245
G1 X101.233 Y119.862 E14.42544
G1 X101.718 Y118.991 E14.4586
G1 X102.255 Y118.087 E14.49357
G1 X102.779 Y117.26 E14.52614
G1 X103.182 Y116.657 E14.55026
G1 X103.765 Y115.831 E14.58388
G1 X104.363 Y115.03 E14.61713
G1 X105.185 Y114.001 E14.66094
G1 X105.666 Y113.435 E14.68564
G1 X106.362 Y112.655 E14.72041
G1 X106.985 Y111.992 E14.75067
G1 X107.748 Y111.229 E14.78656
G0 F6000 X108.022 Y111.52
G1 F1200 X108.759 Y110.826 E14.82023
G1 X109.446 Y110.239 E14.85028
G1 X110.182 Y109.716 E14.88031
G1 X110.961 Y109.26 E14.91034
G1 X111.778 Y108.874 E14.94039
G1 X112.625 Y108.562 E14.97041
G1 X113.497 Y108.327 E15.00045
G1 X114.092 Y108.213 E15.0206
G1 X115.378 Y108.005 E15.06393
G1 X117.948 Y107.554 E15.15071
G1 X120.39 Y107.054 E15.23362
G1 X122.907 Y106.463 E15.31961
G1 X125.361 Y105.812 E15.40405
G1 X127.797 Y105.093 E15.48853
G1 X130.212 Y104.306 E15.57301
G1 X132.632 Y103.44 E15.6585
G1 X134.267 Y102.812 E15.71675
G1 X135.123 Y102.526 E15.74677
G1 X136.002 Y102.317 E15.77682
G1 X136.895 Y102.186 E15.80684
G1 X137.797 Y102.135 E15.83689
G1 X138.7 Y102.164 E15.86694
G1 X139.596 Y102.272 E15.89696
G1 X140.203 Y102.392 E15.91754
G1 X141.393 Y102.671 E15.95819
G1 X142.194 Y102.887 E15.98578
G1 X143.171 Y103.18 E16.01971
G1 X144.083 Y103.483 E16.05167
G1 X145.055 Y103.835 E16.08605
G1 X145.716 Y104.093 E16.10965
G1 X146.618 Y104.472 E16.1422
G1 X147.822 Y105.022 E16.18622
G1 X148.434 Y105.323 E16.20891
G1 X149.543 Y105.91 E16.25064
G1 X150.509 Y106.462 E16.28764
G1 X151.333 Y106.966 E16.31977
G1 X152.163 Y107.505 E16.35269
G1 X152.731 Y107.894 E16.37558
G1 X153.572 Y108.501 E16.41008
G1 X154.394 Y109.131 E16.44453
G1 X155.118 Y109.72 E16.47557
G1 X155.869 Y110.365 E16.5085
G1 X156.853 Y111.267 E16.55289
G1 X157.552 Y111.952 E16.58544
G1 X158.051 Y112.465 E16.60925
G1 X158.917 Y113.409 E16.65186
G1 X159.582 Y114.184 E16.68582
G1 X160.056 Y114.764 E16.71073
G1 X160.665 Y115.548 E16.74375
G1 X161.4 Y116.56 E16.78535
G1 X161.981 Y117.416 E16.81976
G1 X162.507 Y118.241 E16.8523
G1 X162.889 Y118.875 E16.87692
G1 X163.36 Y119.701 E16.90855
G1 X163.846 Y120.611 E16.94286
G1 X164.407 Y121.75 E16.98509
G1 X164.854 Y122.737 E17.02113
G1 X165.089 Y123.292 E17.04117
G1 X165.569 Y124.52 E17.08503
G1 X165.884 Y125.409 E17.1164
G1 X166.218 Y126.442 E17.15251
G1 X166.413 Y127.102 E17.1754
G1 X166.671 Y128.062 E17.20846
G1 X166.899 Y129.008 E17.24082
G1 X167.069 Y129.895 E17.27086
G1 X167.159 Y130.793 E17.30088
G1 X167.17 Y131.696 E17.33091
G1 X167.1 Y132.597 E17.36097
G1 X166.951 Y133.487 E17.39099
G1 X166.724 Y134.362 E17.42105
G1 X166.51 Y134.987 E17.44302
G1 X166.088 Y136.098 E17.48255
G1 X166.016 Y136.309 E17.48997
G1 X165.543 Y137.556 E17.53433
G1 X164.699 Y139.988 E17.61995
G1 X163.941 Y142.388 E17.70366
G1 X163.239 Y144.853 E17.7889
G1 X162.618 Y147.293 E17.87265
G1 X162.053 Y149.805 E17.95828
G1 X161.578 Y152.242 E18.04086
G1 X161.087 Y155.224 E18.14138
G1 X160.901 Y156.108 E18.17143
G1 X160.637 Y156.972 E18.20147
G1 X160.298 Y157.809 E18.23151
G1 X159.887 Y158.613 E18.26154
G1 X159.406 Y159.377 E18.29157
G1 X158.859 Y160.096 E18.32162
G1 X158.508 Y160.496 E18.33932
G1 X157.624 Y161.441 E18.38236
G1 X157.053 Y162.008 E18.40912
G1 X156.29 Y162.726 E18.44397
G1 X155.591 Y163.346 E18.47504
G1 X154.833 Y163.984 E18.508
G1 X154.313 Y164.4 E18.53015
G1 X153.188 Y165.248 E18.577
G1 X152.592 Y165.67 E18.60129
G1 X151.812 Y166.195 E18.63256
G1 X150.762 Y166.854 E18.6738
G1 X150.105 Y167.241 E18.69916
G1 X148.969 Y167.867 E18.7423
G1 X148.133 Y168.293 E18.7735
G1 X147.45 Y168.621 E18.79871
G1 X146.534 Y169.033 E18.83211
G1 X145.362 Y169.515 E18.87426
G1 X144.359 Y169.888 E18.90985
G1 X143.444 Y170.2 E18.94201
G1 X142.496 Y170.494 E18.97502
G1 X141.805 Y170.689 E18.9989
G1 X140.517 Y171.014 E19.04308
G1 X139.562 Y171.222 E19.07559
G1 X138.849 Y171.359 E19.09974
G1 X137.667 Y171.552 E19.13957
G1 X136.888 Y171.657 E19.16571
G1 X135.645 Y171.788 E19.20729
G1 X134.589 Y171.865 E19.2425
