;FLAVOR:Marlin
;TIME:5029
;Filament used: 5.04249m
;Layer height: 0.2
;MINX:96.257
;MINY:94.16
;MINZ:0.2
;MAXX:169.755
;MAXY:167.653
;MAXZ:24
;Generated with Cura_SteamEngine 5.4.0
M140 S60
M105
M190 S60
M104 S200
M105
M109 S200
M82 ;absolute extrusion mode
M201 X500.00 Y500.00 Z100.00 E5000.00 ;Setup machine max acceleration
M203 X500.00 Y500.00 Z10.00 E50.00 ;Setup machine max feedrate
M204 P500.00 R1000.00 T500.00 ;Setup Print/Retract/Travel acceleration
M205 X8.00 Y8.00 Z0.40 E5.00 ;Setup Jerk
M220 S100 ;Reset Feedrate
M221 S100 ;Reset Flowrate

G28 ;Home

G92 E0 ;Reset Extruder
G1 Z2.0 F3000 ;Move Z Axis up
G1 X10.1 Y20 Z0.28 F5000.0 ;Move to start position
G1 X10.1 Y200.0 Z0.28 F1500.0 E15 ;Draw the first line
G1 X10.4 Y200.0 Z0.28 F5000.0 ;Move to side a little
G1 X10.4 Y20 Z0.28 F1500.0 E30 ;Draw the second line
G92 E0 ;Reset Extruder
G1 Z2.0 F3000 ;Move Z Axis up

G92 E0
G92 E0
G1 F1500 E-6.5
;LAYER_COUNT:120
;LAYER:0
M107
G0 F9000 X101.088 Y114.772 Z0.2
;TYPE:SKIRT
G1 F1500 E0
G1 F2400 X101.663 Y114.268 E0.02543
G1 X103.016 Y113.166 E0.08347
G1 X104.963 Y111.519 E0.16829
G1 X106.841 Y109.837 E0.25214
G1 X108.682 Y108.094 E0.33646
G1 X110.45 Y106.32 E0.41977
G1 X112.177 Y104.485 E0.50358
G1 X113.833 Y102.624 E0.58643
G1 X116.433 Y99.487 E0.72195
G1 X117.088 Y98.766 E0.75435
G1 X117.751 Y98.153 E0.78438
G1 X118.58 Y97.515 E0.81917
G1 X119.402 Y96.993 E0.85156
G1 X120.266 Y96.546 E0.88391
G1 X121.1 Y96.201 E0.91393
G1 X121.663 Y96.012 E0.93368
G1 X122.914 Y95.634 E0.97715
G1 X124.282 Y95.264 E1.02429
G1 X125.171 Y95.053 E1.05467
G1 X126.063 Y94.864 E1.085
G1 X127.724 Y94.576 E1.14107
G1 X128.8 Y94.429 E1.17719
G1 X129.379 Y94.362 E1.19658
G1 X130.723 Y94.246 E1.24145
G1 X132.131 Y94.177 E1.28833
G1 X133.084 Y94.16 E1.32003
G1 X134.015 Y94.167 E1.351
G1 X134.881 Y94.196 E1.37982
G1 X136.192 Y94.278 E1.42351
G1 X137.175 Y94.368 E1.45634
G1 X138.712 Y94.565 E1.50788
G1 X139.689 Y94.726 E1.54081
G1 X140.475 Y94.874 E1.56741
G1 X141.512 Y95.094 E1.60267
G1 X142.656 Y95.374 E1.64185
G1 X143.596 Y95.635 E1.67429
G1 X144.84 Y96.023 E1.71763
G1 X146.085 Y96.459 E1.76151
G1 X147.111 Y96.859 E1.79814
G1 X148.131 Y97.291 E1.83498
G1 X149.307 Y97.833 E1.87805
G1 X150.205 Y98.278 E1.91138
G1 X150.936 Y98.665 E1.93889
G1 X151.698 Y99.091 E1.96793
G1 X152.911 Y99.823 E2.01505
G1 X153.712 Y100.339 E2.04674
G1 X154.969 Y101.212 E2.09764
G1 X155.812 Y101.841 E2.13262
G1 X156.527 Y102.407 E2.16295
G1 X157.353 Y103.097 E2.19875
G1 X158.153 Y103.806 E2.2343
G1 X158.881 Y104.486 E2.26744
G1 X159.176 Y104.774 E2.28115
G1 X160.194 Y105.809 E2.32944
G1 X160.849 Y106.505 E2.36122
G1 X161.481 Y107.247 E2.39364
G1 X162.043 Y108.041 E2.426
G1 X162.535 Y108.884 E2.45846
G1 X162.947 Y109.764 E2.49078
G1 X163.283 Y110.679 E2.5232
G1 X163.533 Y111.607 E2.55516
G1 X163.655 Y112.242 E2.57667
G1 X163.92 Y113.881 E2.63189
G1 X164.382 Y116.442 E2.71845
G1 X164.903 Y118.929 E2.80296
G1 X165.472 Y121.318 E2.88464
G1 X166.129 Y123.755 E2.96859
G1 X166.865 Y126.205 E3.05367
G1 X167.655 Y128.591 E3.13727
G1 X168.526 Y130.994 E3.22228
G1 X169.028 Y132.295 E3.26866
G1 X169.336 Y133.22 E3.30109
G1 X169.561 Y134.166 E3.33343
G1 X169.694 Y135.059 E3.36346
G1 X169.755 Y136.104 E3.39828
G1 X169.722 Y137.077 E3.43066
G1 X169.607 Y138.029 E3.46255
G1 X169.5 Y138.586 E3.48141
G1 X169.365 Y139.178 E3.50161
G1 X169.064 Y140.369 E3.54247
G1 X168.778 Y141.419 E3.57866
G1 X168.458 Y142.463 E3.61498
G1 X168.151 Y143.381 E3.64718
G1 X167.822 Y144.28 E3.67902
G1 X167.313 Y145.55 E3.72452
G1 X166.809 Y146.694 E3.7661
G1 X166.444 Y147.454 E3.79414
G1 X165.979 Y148.367 E3.82822
G1 X165.31 Y149.589 E3.87456
G1 X164.729 Y150.563 E3.91228
G1 X164.203 Y151.391 E3.94491
G1 X163.749 Y152.071 E3.9721
G1 X163.178 Y152.877 E4.00495
G1 X162.425 Y153.875 E4.04654
G1 X161.614 Y154.88 E4.08949
G1 X160.839 Y155.775 E4.12887
G1 X160.076 Y156.607 E4.16641
G1 X159.207 Y157.494 E4.20771
G1 X158.555 Y158.121 E4.2378
G1 X157.825 Y158.788 E4.27069
G1 X157.07 Y159.44 E4.30387
G1 X156.193 Y160.156 E4.34152
G1 X155.406 Y160.761 E4.37454
G1 X154.324 Y161.542 E4.41892
G1 X153.607 Y162.029 E4.44775
G1 X152.537 Y162.706 E4.48986
G1 X151.643 Y163.236 E4.52443
G1 X150.283 Y163.978 E4.57596
G1 X149.485 Y164.379 E4.60566
G1 X148.355 Y164.908 E4.64716
G1 X147.43 Y165.307 E4.68067
G1 X146.266 Y165.768 E4.72231
G1 X145.379 Y166.089 E4.75368
G1 X144.18 Y166.482 E4.79565
G1 X143.114 Y166.794 E4.83259
G1 X141.806 Y167.136 E4.87756
G1 X140.844 Y167.367 E4.91046
G1 X139.887 Y167.548 E4.94286
G1 X138.918 Y167.643 E4.97524
G1 X137.944 Y167.653 E5.00764
G1 X136.973 Y167.577 E5.04003
G1 X136.082 Y167.429 E5.07007
G1 X135.079 Y167.17 E5.10453
G1 X134.396 Y166.936 E5.12854
G1 X132.955 Y166.385 E5.17985
G1 X130.539 Y165.51 E5.26532
G1 X128.156 Y164.724 E5.34878
G1 X125.716 Y163.994 E5.43348
G1 X123.298 Y163.346 E5.51675
G1 X120.907 Y162.777 E5.59849
G1 X118.35 Y162.244 E5.68537
G1 X115.847 Y161.795 E5.76994
G1 X114.34 Y161.557 E5.82069
G1 X113.385 Y161.36 E5.85312
G1 X112.453 Y161.08 E5.88549
G1 X111.581 Y160.733 E5.9167
G1 X110.68 Y160.278 E5.95027
G1 X109.854 Y159.762 E5.98267
G1 X109.085 Y159.185 E6.01464
G1 X108.624 Y158.783 E6.03499
G1 X108.149 Y158.34 E6.05659
G1 X107.446 Y157.657 E6.08919
G1 X106.807 Y157.018 E6.11925
G1 X106.053 Y156.224 E6.15567
G1 X105.382 Y155.476 E6.18909
G1 X104.583 Y154.528 E6.23032
G1 X103.902 Y153.669 E6.26678
G1 X103.035 Y152.493 E6.31538
G1 X102.485 Y151.69 E6.34775
G1 X101.938 Y150.85 E6.38109
G1 X101.373 Y149.919 E6.41731
G1 X100.807 Y148.921 E6.45547
G1 X100.322 Y148.008 E6.48986
G1 X99.809 Y146.963 E6.52858
G1 X99.315 Y145.875 E6.56832
G1 X98.939 Y144.979 E6.60064
G1 X98.606 Y144.124 E6.63116
G1 X98.188 Y142.948 E6.67267
G1 X97.79 Y141.697 E6.71633
G1 X97.462 Y140.524 E6.75684
G1 X97.297 Y139.864 E6.77947
G1 X97.034 Y138.696 E6.81929
G1 X96.838 Y137.688 E6.85344
G1 X96.643 Y136.473 E6.89437
G1 X96.517 Y135.533 E6.92592
G1 X96.364 Y133.966 E6.97828
G1 X96.303 Y132.997 E7.01057
G1 X96.26 Y131.743 E7.05231
G1 X96.257 Y130.75 E7.08533
G1 X96.273 Y129.968 E7.11135
G1 X96.337 Y128.682 E7.15417
G1 X96.464 Y127.235 E7.20249
G1 X96.588 Y126.203 E7.23706
G1 X96.745 Y125.145 E7.27263
G1 X96.894 Y124.306 E7.30098
G1 X97.186 Y122.899 E7.34877
G1 X97.399 Y122.021 E7.37882
G1 X97.699 Y120.914 E7.41697
G1 X98.072 Y119.653 E7.4607
G1 X98.392 Y118.734 E7.49307
G1 X98.79 Y117.846 E7.52544
G1 X99.266 Y116.997 E7.55781
G1 X99.816 Y116.191 E7.59026
G1 X100.435 Y115.439 E7.62266
G1 X101.088 Y114.772 E7.6537
G0 F9000 X101.374 Y115.052
G1 F2400 X101.916 Y114.578 E7.67765
G1 X103.269 Y113.476 E7.73569
G1 X105.23 Y111.817 E7.82112
G1 X107.108 Y110.135 E7.90498
G1 X108.957 Y108.384 E7.98967
G1 X110.733 Y106.602 E8.07335
G1 X112.476 Y104.751 E8.15792
G1 X114.132 Y102.89 E8.24077
G1 X116.729 Y99.756 E8.37615
G1 X117.36 Y99.06 E8.40739
G1 X118.023 Y98.447 E8.43742
G1 X118.795 Y97.852 E8.46984
G1 X119.586 Y97.348 E8.50104
G1 X120.419 Y96.916 E8.53225
G1 X121.253 Y96.571 E8.56227
G1 X121.779 Y96.395 E8.58072
G1 X123.018 Y96.02 E8.62377
G1 X124.374 Y95.653 E8.67049
G1 X125.254 Y95.444 E8.70058
G1 X126.131 Y95.258 E8.7304
G1 X127.778 Y94.972 E8.78599
G1 X128.845 Y94.826 E8.82181
G1 X129.413 Y94.761 E8.84083
G1 X130.743 Y94.646 E8.88523
G1 X132.138 Y94.577 E8.93168
G1 X133.081 Y94.56 E8.96305
G1 X134.002 Y94.567 E8.99369
G1 X134.856 Y94.595 E9.02211
G1 X136.155 Y94.676 E9.0654
G1 X137.124 Y94.765 E9.09776
G1 X138.647 Y94.96 E9.14883
G1 X139.615 Y95.119 E9.18146
G1 X140.392 Y95.265 E9.20775
G1 X141.417 Y95.483 E9.24261
G1 X142.561 Y95.763 E9.28178
G1 X143.477 Y96.017 E9.31339
G1 X144.708 Y96.401 E9.35628
G1 X145.94 Y96.832 E9.39969
G1 X146.955 Y97.227 E9.43592
G1 X147.964 Y97.654 E9.47236
G1 X149.129 Y98.191 E9.51503
G1 X150.018 Y98.632 E9.54803
G1 X150.741 Y99.014 E9.57523
G1 X151.491 Y99.433 E9.6038
G1 X152.694 Y100.159 E9.65054
G1 X153.484 Y100.668 E9.6818
G1 X154.73 Y101.533 E9.73225
G1 X155.564 Y102.155 E9.76685
G1 X156.271 Y102.714 E9.79683
G1 X157.088 Y103.396 E9.83222
G1 X157.88 Y104.098 E9.86742
G1 X158.602 Y104.772 E9.90027
G1 X158.891 Y105.054 E9.9137
G1 X159.903 Y106.083 E9.96171
G1 X160.545 Y106.765 E9.99286
G1 X161.155 Y107.479 E10.02409
G1 X161.698 Y108.243 E10.05527
G1 X162.173 Y109.054 E10.08653
G1 X162.572 Y109.902 E10.1177
G1 X162.897 Y110.783 E10.14893
G1 X163.14 Y111.683 E10.17994
G1 X163.26 Y112.306 E10.20104
G1 X163.526 Y113.952 E10.2565
G1 X163.99 Y116.524 E10.34342
G1 X164.511 Y119.011 E10.42794
G1 X165.086 Y121.422 E10.51038
G1 X165.746 Y123.87 E10.5947
G1 X166.485 Y126.331 E10.68017
G1 X167.275 Y128.717 E10.76376
G1 X168.153 Y131.138 E10.84942
G1 X168.649 Y132.422 E10.8952
G1 X168.947 Y133.313 E10.92645
G1 X169.165 Y134.225 E10.95764
G1 X169.298 Y135.118 E10.98766
G1 X169.355 Y136.091 E11.02008
G1 X169.325 Y137.029 E11.0513
G1 X169.214 Y137.954 E11.08228
G1 X169.11 Y138.497 E11.10067
G1 X168.977 Y139.08 E11.12056
G1 X168.678 Y140.264 E11.16118
G1 X168.395 Y141.302 E11.19696
G1 X168.079 Y142.336 E11.23292
G1 X167.775 Y143.244 E11.26477
G1 X167.451 Y144.131 E11.29618
G1 X166.947 Y145.389 E11.34125
G1 X166.448 Y146.521 E11.3824
G1 X166.088 Y147.272 E11.4101
G1 X165.628 Y148.175 E11.4438
G1 X164.966 Y149.384 E11.48965
G1 X164.391 Y150.349 E11.52701
G1 X163.871 Y151.169 E11.55931
G1 X163.422 Y151.84 E11.58616
G1 X162.859 Y152.636 E11.61859
G1 X162.114 Y153.624 E11.65974
G1 X161.312 Y154.618 E11.70222
G1 X160.544 Y155.505 E11.74125
G1 X159.79 Y156.327 E11.77835
G1 X158.93 Y157.206 E11.81925
G1 X158.285 Y157.826 E11.849
G1 X157.564 Y158.485 E11.88149
G1 X156.817 Y159.13 E11.91432
G1 X155.949 Y159.839 E11.95159
G1 X155.172 Y160.437 E11.98421
G1 X154.099 Y161.211 E12.02821
G1 X153.393 Y161.691 E12.0566
G1 X152.333 Y162.362 E12.09833
G1 X151.451 Y162.885 E12.13243
G1 X150.103 Y163.621 E12.18352
G1 X149.315 Y164.017 E12.21285
G1 X148.197 Y164.541 E12.25392
G1 X147.283 Y164.935 E12.28702
G1 X146.13 Y165.392 E12.32827
G1 X145.254 Y165.709 E12.35926
G1 X144.068 Y166.098 E12.40077
G1 X143.013 Y166.407 E12.43733
G1 X141.712 Y166.747 E12.48206
G1 X140.769 Y166.974 E12.51432
G1 X139.847 Y167.15 E12.54554
G1 X138.913 Y167.243 E12.57676
G1 X137.975 Y167.254 E12.60796
G1 X137.039 Y167.182 E12.63918
G1 X136.148 Y167.034 E12.66922
G1 X135.209 Y166.792 E12.70147
G1 X134.539 Y166.562 E12.72503
G1 X133.098 Y166.011 E12.77635
G1 X130.664 Y165.13 E12.86244
G1 X128.281 Y164.344 E12.9459
G1 X125.831 Y163.611 E13.03096
G1 X123.391 Y162.957 E13.11498
G1 X120.989 Y162.385 E13.1971
G1 X118.432 Y161.852 E13.28397
G1 X115.918 Y161.401 E13.36893
G1 X114.42 Y161.165 E13.41936
G1 X113.5 Y160.977 E13.4506
G1 X112.601 Y160.708 E13.48181
G1 X111.729 Y160.361 E13.51302
G1 X110.891 Y159.938 E13.54424
G1 X110.094 Y159.442 E13.57546
G1 X109.348 Y158.883 E13.60647
G1 X108.897 Y158.49 E13.62637
G1 X108.428 Y158.053 E13.64769
G1 X107.725 Y157.37 E13.68029
G1 X107.097 Y156.742 E13.70983
G1 X106.351 Y155.957 E13.74585
G1 X105.688 Y155.218 E13.77887
G1 X104.889 Y154.27 E13.8201
G1 X104.224 Y153.431 E13.85571
G1 X103.365 Y152.267 E13.90383
G1 X102.82 Y151.472 E13.93588
G1 X102.28 Y150.642 E13.96882
G1 X101.721 Y149.722 E14.00462
G1 X101.16 Y148.733 E14.04244
G1 X100.681 Y147.832 E14.07638
G1 X100.173 Y146.798 E14.1147
G1 X99.684 Y145.72 E14.15407
G1 X99.312 Y144.834 E14.18603
G1 X98.983 Y143.99 E14.21616
G1 X98.569 Y142.827 E14.25722
G1 X98.175 Y141.589 E14.30043
G1 X97.85 Y140.427 E14.34056
G1 X97.687 Y139.776 E14.36288
G1 X97.427 Y138.62 E14.40229
G1 X97.233 Y137.624 E14.43604
G1 X97.039 Y136.42 E14.4766
G1 X96.915 Y135.494 E14.50767
G1 X96.763 Y133.941 E14.55957
G1 X96.703 Y132.983 E14.5915
G1 X96.66 Y131.742 E14.6328
G1 X96.657 Y130.758 E14.66553
G1 X96.673 Y129.988 E14.69114
G1 X96.737 Y128.702 E14.73397
G1 X96.861 Y127.283 E14.78135
G1 X96.984 Y126.262 E14.81555
G1 X97.139 Y125.215 E14.85075
G1 X97.286 Y124.387 E14.87872
G1 X97.575 Y122.993 E14.92607
G1 X97.785 Y122.126 E14.95574
G1 X98.083 Y121.027 E14.99362
G1 X98.45 Y119.784 E15.03672
G1 X98.757 Y118.897 E15.06794
G1 X99.139 Y118.041 E15.09912
G1 X99.597 Y117.222 E15.13033
G1 X100.125 Y116.445 E15.16157
G1 X100.721 Y115.719 E15.19282
G1 X101.374 Y115.052 E15.22386
G0 F9000 X101.638 Y115.353
G1 F2400 X102.169 Y114.888 E15.24734
G1 X103.522 Y113.786 E15.30538
G1 X105.497 Y112.115 E15.39142
G1 X107.375 Y110.433 E15.47528
G1 X109.232 Y108.674 E15.56035
G1 X111.016 Y106.884 E15.6444
G1 X112.775 Y105.017 E15.72972
G1 X114.431 Y103.156 E15.81258
G1 X117.026 Y100.024 E15.94786
G1 X117.632 Y99.354 E15.9779
G1 X118.295 Y98.741 E16.00794
G1 X119.01 Y98.189 E16.03798
G1 X119.771 Y97.703 E16.06801
G1 X120.572 Y97.286 E16.09805
G1 X121.406 Y96.941 E16.12807
G1 X121.895 Y96.778 E16.14521
G1 X123.123 Y96.406 E16.18789
G1 X124.467 Y96.042 E16.2342
G1 X125.337 Y95.835 E16.26394
G1 X126.2 Y95.652 E16.29328
G1 X127.832 Y95.368 E16.34838
G1 X128.89 Y95.223 E16.3839
G1 X129.448 Y95.16 E16.40258
G1 X130.763 Y95.046 E16.44648
G1 X132.145 Y94.977 E16.4925
G1 X133.078 Y94.96 E16.52354
G1 X133.989 Y94.967 E16.55384
G1 X134.831 Y94.994 E16.58186
G1 X136.118 Y95.074 E16.62475
G1 X137.073 Y95.162 E16.65664
G1 X138.582 Y95.355 E16.70724
G1 X139.541 Y95.512 E16.73956
G1 X140.309 Y95.656 E16.76555
G1 X141.322 Y95.872 E16.8
G1 X142.454 Y96.149 E16.83876
G1 X143.358 Y96.399 E16.86996
G1 X144.576 Y96.779 E16.9124
G1 X145.795 Y97.205 E16.95534
G1 X146.799 Y97.595 E16.99117
G1 X147.797 Y98.017 E17.02721
G1 X148.951 Y98.549 E17.06947
G1 X149.831 Y98.986 E17.10215
G1 X150.546 Y99.363 E17.12903
G1 X151.284 Y99.775 E17.15715
G1 X152.477 Y100.495 E17.20349
G1 X153.256 Y100.997 E17.23432
G1 X154.491 Y101.854 E17.28431
G1 X155.316 Y102.469 E17.31854
G1 X156.015 Y103.021 E17.34816
G1 X156.823 Y103.695 E17.38316
G1 X157.607 Y104.39 E17.41801
G1 X158.323 Y105.058 E17.45057
G1 X158.606 Y105.334 E17.46372
G1 X159.612 Y106.357 E17.51144
G1 X160.241 Y107.025 E17.54196
G1 X160.829 Y107.711 E17.57201
G1 X161.353 Y108.446 E17.60203
G1 X161.811 Y109.225 E17.63209
G1 X162.197 Y110.041 E17.66211
G1 X162.511 Y110.888 E17.69216
G1 X162.747 Y111.759 E17.72217
G1 X162.865 Y112.37 E17.74287
G1 X163.132 Y114.023 E17.79856
G1 X163.598 Y116.606 E17.88586
G1 X164.119 Y119.093 E17.97037
G1 X164.7 Y121.526 E18.05357
G1 X165.363 Y123.985 E18.13828
G1 X166.105 Y126.457 E18.22412
G1 X166.897 Y128.848 E18.30789
G1 X167.78 Y131.282 E18.39401
G1 X168.27 Y132.55 E18.43923
G1 X168.558 Y133.406 E18.46926
G1 X168.769 Y134.284 E18.4993
G1 X168.902 Y135.177 E18.52933
G1 X168.955 Y136.079 E18.55938
G1 X168.928 Y136.982 E18.58943
G1 X168.821 Y137.879 E18.61947
G1 X168.72 Y138.408 E18.63739
G1 X168.589 Y138.982 E18.65697
G1 X168.292 Y140.159 E18.69734
G1 X168.012 Y141.185 E18.73271
G1 X167.7 Y142.209 E18.76832
G1 X167.399 Y143.107 E18.79982
G1 X167.08 Y143.982 E18.8308
G1 X166.581 Y145.228 E18.87544
G1 X166.087 Y146.348 E18.91615
G1 X165.727 Y147.099 E18.94385
G1 X165.277 Y147.983 E18.97684
G1 X164.622 Y149.179 E19.0222
G1 X164.053 Y150.135 E19.0592
G1 X163.539 Y150.946 E19.09114
G1 X163.095 Y151.609 E19.11768
G1 X162.54 Y152.395 E19.14968
G1 X161.803 Y153.373 E19.19041
G1 X161.009 Y154.356 E19.23244
G1 X160.249 Y155.235 E19.27108
G1 X159.504 Y156.047 E19.30774
G1 X158.653 Y156.918 E19.34824
G1 X158.015 Y157.531 E19.37767
G1 X157.302 Y158.182 E19.40978
G1 X156.564 Y158.82 E19.44223
G1 X155.705 Y159.522 E19.47912
G1 X154.938 Y160.113 E19.51133
G1 X153.874 Y160.88 E19.55495
G1 X153.179 Y161.353 E19.58291
G1 X152.129 Y162.018 E19.62425
G1 X151.259 Y162.534 E19.6579
G1 X149.923 Y163.264 E19.70853
G1 X149.145 Y163.655 E19.73749
G1 X148.039 Y164.174 E19.77813
G1 X147.135 Y164.563 E19.81086
G1 X145.994 Y165.016 E19.85169
G1 X145.129 Y165.329 E19.88229
G1 X143.955 Y165.714 E19.92338
G1 X142.912 Y166.02 E19.95953
G1 X141.618 Y166.358 E20.00401
G1 X140.693 Y166.581 E20.03566
G1 X139.807 Y166.752 E20.06567
G1 X138.908 Y166.843 E20.09573
G1 X138.005 Y166.855 E20.12576
G1 X137.105 Y166.787 E20.15578
G1 X136.214 Y166.639 E20.18582
G1 X135.339 Y166.414 E20.21587
G1 X134.682 Y166.188 E20.23898
G1 X133.241 Y165.637 E20.29029
G1 X130.789 Y164.75 E20.37702
G1 X128.406 Y163.964 E20.46048
G1 X125.946 Y163.228 E20.54588
G1 X123.484 Y162.568 E20.63066
