;FLAVOR:Marlin
;TIME:11017
;Filament used: 13.376m
;Layer height: 0.2
;MINX:81.235
;MINY:88.296
;MINZ:0.2
;MAXX:178.235
;MAXY:185.296
;MAXZ:30
;Generated with Cura_SteamEngine 5.4.0
M140 S60
M105
M190 S60
M104 S200
M105
M109 S200
M82 ;absolute extrusion mode
M201 X500.00 Y500.00 Z100.00 E5000.00 ;Setup machine max acceleration
M203 X500.00 Y500.00 Z10.00 E50.00 ;Setup machine max feedrate
M204 P500.00 R1000.00 T500.00 ;Setup Print/Retract/Travel acceleration
M205 X8.00 Y8.00 Z0.40 E5.00 ;Setup Jerk
M220 S100 ;Reset Feedrate
M221 S100 ;Reset Flowrate

G28 ;Home

G92 E0 ;Reset Extruder
G1 Z2.0 F3000 ;Move Z Axis up
G1 X10.1 Y20 Z0.28 F5000.0 ;Move to start position
G1 X10.1 Y200.0 Z0.28 F1500.0 E15 ;Draw the first line
G1 X10.4 Y200.0 Z0.28 F5000.0 ;Move to side a little
G1 X10.4 Y20 Z0.28 F1500.0 E30 ;Draw the second line
G92 E0 ;Reset Extruder
G1 Z2.0 F3000 ;Move Z Axis up

G92 E0
G92 E0
G1 F1500 E-6.5
;LAYER_COUNT:150
;LAYER:0
M107
G0 F9000 X84.691 Y91.309 Z0.2
;TYPE:SKIRT
G1 F1500 E0
G1 F3000 X85.427 Y90.672 E0.03237
G1 X86.159 Y90.142 E0.06243
G1 X87.056 Y89.607 E0.09717
G1 X87.934 Y89.186 E0.12956
G1 X88.847 Y88.844 E0.16198
G1 X89.784 Y88.585 E0.19432
G1 X90.751 Y88.407 E0.22702
G1 X91.89 Y88.311 E0.26504
G1 X92.547 Y88.296 E0.2869
G1 X166.539 Y88.296 E2.74788
G1 X167.419 Y88.309 E2.77715
G1 X168.391 Y88.368 E2.80954
G1 X169.354 Y88.514 E2.84194
G1 X170.301 Y88.745 E2.87436
G1 X171.189 Y89.045 E2.90553
G1 X172.081 Y89.435 E2.93791
G1 X172.964 Y89.922 E2.97145
G1 X173.715 Y90.424 E3.00149
G1 X174.53 Y91.082 E3.03633
G1 X175.228 Y91.76 E3.0687
G1 X175.864 Y92.497 E3.10108
G1 X176.434 Y93.287 E3.13348
G1 X176.896 Y94.063 E3.16352
G1 X177.35 Y95.005 E3.1983
G1 X177.679 Y95.883 E3.22948
G1 X177.948 Y96.855 E3.26302
G1 X178.125 Y97.821 E3.29569
G1 X178.22 Y98.951 E3.33341
G1 X178.235 Y99.626 E3.35586
G1 X178.234 Y173.696 E5.81944
G1 X178.223 Y174.459 E5.84482
G1 X178.166 Y175.432 E5.87724
G1 X178.021 Y176.395 E5.90963
G1 X177.792 Y177.341 E5.942
G1 X177.481 Y178.265 E5.97443
G1 X177.089 Y179.156 E6.0068
G1 X176.621 Y180.008 E6.03913
G1 X176.099 Y180.789 E6.07038
G1 X175.466 Y181.574 E6.10392
G1 X174.841 Y182.225 E6.13393
G1 X174.052 Y182.913 E6.16875
G1 X173.292 Y183.463 E6.19996
G1 X172.425 Y183.98 E6.23353
G1 X171.547 Y184.402 E6.26593
G1 X170.636 Y184.744 E6.29829
G1 X169.697 Y185.005 E6.33071
G1 X168.731 Y185.183 E6.36338
G1 X167.58 Y185.281 E6.4018
G1 X166.905 Y185.296 E6.42426
G1 X92.799 Y185.295 E8.88903
G1 X92.066 Y185.284 E8.91342
G1 X91.094 Y185.227 E8.9458
G1 X90.131 Y185.081 E8.9782
G1 X89.185 Y184.852 E9.01057
G1 X88.261 Y184.54 E9.04301
G1 X87.371 Y184.148 E9.07535
G1 X86.548 Y183.697 E9.10656
G1 X85.709 Y183.136 E9.14013
G1 X85.005 Y182.57 E9.17018
G1 X84.252 Y181.845 E9.20494
G1 X83.615 Y181.109 E9.23732
G1 X83.085 Y180.378 E9.26735
G1 X82.549 Y179.481 E9.3021
G1 X82.127 Y178.603 E9.33451
G1 X81.785 Y177.691 E9.3669
G1 X81.525 Y176.753 E9.39928
G1 X81.347 Y175.784 E9.43204
G1 X81.249 Y174.605 E9.47139
G1 X81.235 Y173.954 E9.49305
G1 X81.236 Y99.821 E11.95872
G1 X81.247 Y99.121 E11.98201
G1 X81.305 Y98.148 E12.01443
G1 X81.451 Y97.185 E12.04682
G1 X81.681 Y96.239 E12.0792
G1 X81.994 Y95.316 E12.11162
G1 X82.386 Y94.426 E12.14397
G1 X82.856 Y93.573 E12.17636
G1 X83.399 Y92.765 E12.20874
G1 X83.966 Y92.061 E12.2388
G1 X84.691 Y91.309 E12.27355
G0 F9000 X84.953 Y91.611
G1 F3000 X85.662 Y90.996 E12.30476
G1 X86.394 Y90.466 E12.33482
G1 X87.23 Y89.967 E12.3672
G1 X88.075 Y89.56 E12.3984
G1 X88.954 Y89.229 E12.42964
G1 X89.857 Y88.978 E12.46081
G1 X90.785 Y88.806 E12.4922
G1 X91.924 Y88.71 E12.53022
G1 X92.556 Y88.696 E12.55124
G1 X166.533 Y88.696 E15.01173
G1 X167.395 Y88.708 E15.0404
G1 X168.332 Y88.764 E15.07162
G1 X169.26 Y88.903 E15.10283
G1 X170.173 Y89.124 E15.13408
G1 X171.029 Y89.412 E15.16411
G1 X171.921 Y89.802 E15.19649
G1 X172.742 Y90.255 E15.22768
G1 X173.493 Y90.757 E15.25773
G1 X174.252 Y91.369 E15.29016
G1 X174.926 Y92.022 E15.32137
G1 X175.54 Y92.731 E15.35256
G1 X176.09 Y93.492 E15.38379
G1 X176.552 Y94.268 E15.41383
G1 X176.975 Y95.145 E15.44622
G1 X177.304 Y96.023 E15.4774
G1 X177.555 Y96.928 E15.50864
G1 X177.726 Y97.855 E15.53999
G1 X177.821 Y98.985 E15.57771
G1 X177.835 Y99.626 E15.59903
G1 X177.834 Y173.691 E18.06244
G1 X177.824 Y174.436 E18.08722
G1 X177.77 Y175.373 E18.11844
G1 X177.632 Y176.302 E18.14968
G1 X177.413 Y177.214 E18.18087
G1 X177.115 Y178.104 E18.21209
G1 X176.738 Y178.964 E18.24332
G1 X176.288 Y179.786 E18.27449
G1 X175.766 Y180.567 E18.30573
G1 X175.177 Y181.297 E18.33693
G1 X174.552 Y181.948 E18.36695
G1 X173.817 Y182.589 E18.39938
G1 X173.057 Y183.139 E18.43059
G1 X172.251 Y183.62 E18.46181
G1 X171.406 Y184.028 E18.49301
G1 X170.528 Y184.359 E18.52422
G1 X169.624 Y184.612 E18.55545
G1 X168.697 Y184.784 E18.5868
G1 X167.546 Y184.882 E18.62523
G1 X166.905 Y184.896 E18.64655
G1 X92.805 Y184.895 E21.11113
G1 X92.089 Y184.885 E21.13494
G1 X91.153 Y184.831 E21.16613
G1 X90.224 Y184.692 E21.19737
G1 X89.312 Y184.473 E21.22856
G1 X88.422 Y184.174 E21.25979
G1 X87.563 Y183.797 E21.29099
G1 X86.74 Y183.346 E21.32221
G1 X85.96 Y182.824 E21.35342
G1 X85.256 Y182.258 E21.38347
G1 X84.554 Y181.583 E21.41586
G1 X83.939 Y180.874 E21.44707
G1 X83.409 Y180.143 E21.47711
G1 X82.909 Y179.307 E21.50951
G1 X82.501 Y178.462 E21.54071
G1 X82.17 Y177.584 E21.57192
G1 X81.918 Y176.68 E21.60314
G1 X81.746 Y175.751 E21.63456
G1 X81.648 Y174.572 E21.67391
G1 X81.635 Y173.954 E21.69447
G1 X81.636 Y99.827 E24.15994
G1 X81.646 Y99.144 E24.18266
G1 X81.701 Y98.207 E24.21388
G1 X81.84 Y97.279 E24.24509
G1 X82.06 Y96.367 E24.27629
G1 X82.36 Y95.477 E24.30753
G1 X82.737 Y94.618 E24.33873
G1 X83.188 Y93.796 E24.36992
G1 X83.711 Y93.016 E24.40115
G1 X84.278 Y92.312 E24.43122
G1 X84.953 Y91.611 E24.46358
G0 F9000 X85.216 Y91.913
G1 F3000 X85.897 Y91.32 E24.49362
G1 X86.629 Y90.79 E24.52368
G1 X87.404 Y90.327 E24.5537
G1 X88.217 Y89.934 E24.58374
G1 X89.062 Y89.614 E24.61379
G1 X89.931 Y89.371 E24.6438
G1 X90.819 Y89.205 E24.67385
G1 X91.958 Y89.109 E24.71187
G1 X92.565 Y89.096 E24.73206
G1 X166.528 Y89.096 E27.19208
G1 X167.372 Y89.107 E27.22015
G1 X168.274 Y89.16 E27.2502
G1 X169.167 Y89.292 E27.28023
G1 X170.045 Y89.503 E27.31026
G1 X170.901 Y89.791 E27.3403
G1 X171.728 Y90.153 E27.37033
G1 X172.52 Y90.588 E27.40038
G1 X173.271 Y91.09 E27.43043
G1 X173.974 Y91.657 E27.46046
G1 X174.624 Y92.284 E27.4905
G1 X175.216 Y92.966 E27.52054
G1 X175.746 Y93.697 E27.55057
G1 X176.208 Y94.473 E27.58061
G1 X176.601 Y95.286 E27.61064
G1 X176.919 Y96.131 E27.64067
G1 X177.162 Y97.001 E27.67072
G1 X177.327 Y97.889 E27.70076
G1 X177.422 Y99.019 E27.73847
G1 X177.435 Y99.626 E27.75867
G1 X177.434 Y173.686 E30.22191
G1 X177.425 Y174.413 E30.24609
G1 X177.374 Y175.315 E30.27614
G1 X177.243 Y176.209 E30.30619
G1 X177.034 Y177.087 E30.33621
G1 X176.748 Y177.944 E30.36626
G1 X176.387 Y178.772 E30.39631
G1 X175.955 Y179.564 E30.42631
G1 X175.454 Y180.316 E30.45637
G1 X174.888 Y181.02 E30.48641
G1 X174.263 Y181.671 E30.51643
G1 X173.582 Y182.265 E30.54648
G1 X172.851 Y182.796 E30.57653
G1 X172.077 Y183.26 E30.60655
G1 X171.264 Y183.654 E30.6366
G1 X170.42 Y183.974 E30.66662
G1 X169.55 Y184.219 E30.69668
G1 X168.663 Y184.385 E30.72669
G1 X167.512 Y184.483 E30.76511
G1 X166.905 Y184.496 E30.78531
G1 X92.81 Y184.495 E33.24972
G1 X92.112 Y184.486 E33.27293
G1 X91.211 Y184.435 E33.30295
G1 X90.317 Y184.303 E33.33301
G1 X89.439 Y184.094 E33.36303
G1 X88.582 Y183.807 E33.39308
G1 X87.755 Y183.446 E33.4231
G1 X86.962 Y183.013 E33.45315
G1 X86.211 Y182.512 E33.48317
G1 X85.507 Y181.946 E33.51322
G1 X84.856 Y181.32 E33.54326
G1 X84.263 Y180.639 E33.57329
G1 X83.733 Y179.908 E33.60332
G1 X83.269 Y179.133 E33.63337
G1 X82.875 Y178.32 E33.66341
G1 X82.555 Y177.476 E33.69344
G1 X82.311 Y176.606 E33.72349
G1 X82.145 Y175.718 E33.75354
G1 X82.048 Y174.563 E33.79209
G1 X82.035 Y173.954 E33.81235
G1 X82.036 Y99.832 E36.27765
G1 X82.045 Y99.167 E36.29977
G1 X82.097 Y98.265 E36.32982
G1 X82.229 Y97.372 E36.35985
G1 X82.439 Y96.494 E36.38987
G1 X82.726 Y95.637 E36.41993
G1 X83.088 Y94.81 E36.44996
G1 X83.521 Y94.018 E36.47998
G1 X84.023 Y93.267 E36.51003
G1 X84.59 Y92.563 E36.54009
G1 X85.216 Y91.913 E36.57011
G1 F1500 E30.07011
;MESH:Body1.3mf
G0 F9000 X111.73 Y119.916
G0 X114.739 Y123.929
;TYPE:WALL-INNER
G1 F1500 E36.57011
G1 F3000 X114.059 Y123.966 E36.59276
G1 X113.417 Y123.848 E36.61447
G1 X112.799 Y123.558 E36.63717
G1 X112.28 Y123.127 E36.65961
G1 X111.879 Y122.564 E36.6826
G1 X111.639 Y121.953 E36.70444
G1 X111.555 Y121.286 E36.72679
G1 X111.638 Y120.64 E36.74846
G1 X111.903 Y119.984 E36.77199
G1 X112.293 Y119.45 E36.79398
G1 X112.821 Y119.026 E36.81651
G1 X113.417 Y118.746 E36.83841
G1 X114.062 Y118.622 E36.86025
G1 X114.76 Y118.673 E36.88353
G1 X115.371 Y118.87 E36.90488
G1 X115.942 Y119.231 E36.92735
G1 X116.401 Y119.719 E36.94963
G1 X116.733 Y120.324 E36.97259
G1 X116.889 Y120.955 E36.99421
G1 X116.891 Y121.645 E37.01715
G1 X116.728 Y122.284 E37.03909
G1 X116.397 Y122.883 E37.06185
G1 X115.943 Y123.362 E37.0838
G1 X115.371 Y123.718 E37.10621
G1 X114.739 Y123.929 E37.12837
G1 F1500 E30.62837
G0 F9000 X116.558 Y122.968
G0 X142.734 Y122.677
G0 X145.055 Y123.969
G1 F1500 E37.12837
G1 F3000 X144.418 Y123.844 E37.14996
G1 X143.799 Y123.559 E37.17263
G1 X143.283 Y123.125 E37.19505
G1 X142.892 Y122.589 E37.21712
G1 X142.641 Y121.948 E37.24002
G1 X142.554 Y121.3 E37.26176
G1 X142.643 Y120.638 E37.28398
G1 X142.887 Y120.012 E37.30632
G1 X143.288 Y119.461 E37.32899
G1 X143.778 Y119.053 E37.3502
G1 X144.416 Y118.746 E37.37375
G1 X145.062 Y118.622 E37.39562
G1 X145.76 Y118.673 E37.4189
G1 X146.371 Y118.869 E37.44024
G1 X146.935 Y119.225 E37.46243
G1 X147.403 Y119.722 E37.48513
G1 X147.73 Y120.316 E37.50769
G1 X147.893 Y120.955 E37.52962
G1 X147.893 Y121.606 E37.55127
G1 X147.732 Y122.274 E37.57413
G1 X147.402 Y122.876 E37.59696
G1 X146.943 Y123.361 E37.61917
G1 X146.378 Y123.715 E37.64134
G1 X145.736 Y123.925 E37.66381
G1 X145.055 Y123.969 E37.68651
G1 F1500 E31.18651
G0 F9000 X145.037 Y124.068
G0 X143.699 Y123.712
G0 X139.572 Y128.636
G0 X131.379 Y149.289
G1 F1500 E37.68651
G1 F3000 X130.103 Y149.391 E37.72908
G1 X128.728 Y149.357 E37.77483
G1 X127.406 Y149.179 E37.8192
G1 X126.092 Y148.859 E37.86418
G1 X124.841 Y148.407 E37.90842
G1 X123.656 Y147.833 E37.95221
G1 X122.495 Y147.109 E37.99772
G1 X121.413 Y146.258 E38.04351
G1 X120.477 Y145.343 E38.08704
G1 X119.617 Y144.309 E38.13177
G1 X118.898 Y143.223 E38.17509
G1 X118.274 Y142.028 E38.21993
G1 X117.772 Y140.753 E38.26551
G1 X117.416 Y139.436 E38.31088
G1 X117.204 Y138.107 E38.35564
G1 X117.136 Y136.764 E38.40037
G1 X117.211 Y135.421 E38.44511
G1 X117.416 Y134.157 E38.4877
G1 X117.763 Y132.868 E38.5321
G1 X118.26 Y131.595 E38.57755
G1 X118.881 Y130.396 E38.62246
G1 X119.638 Y129.258 E38.66792
G1 X120.482 Y128.244 E38.7118
G1 X121.455 Y127.298 E38.75693
G1 X122.469 Y126.503 E38.79979
G1 X123.63 Y125.773 E38.8454
G1 X124.841 Y125.186 E38.89016
G1 X126.059 Y124.744 E38.93326
G1 X127.406 Y124.413 E38.97939
G1 X128.729 Y124.236 E39.02379
G1 X130.103 Y124.202 E39.0695
G1 X131.432 Y124.31 E39.11385
G1 X132.718 Y124.553 E39.15738
G1 X134.042 Y124.956 E39.20341
G1 X135.239 Y125.461 E39.24662
G1 X136.422 Y126.115 E39.29158
G1 X137.546 Y126.909 E39.33735
G1 X138.501 Y127.746 E39.37959
G1 X139.412 Y128.727 E39.42412
G1 X140.238 Y129.834 E39.47005
G1 X140.916 Y130.983 E39.51443
G1 X141.473 Y132.213 E39.55934
G1 X141.89 Y133.477 E39.60361
G1 X142.175 Y134.791 E39.64833
G1 X142.318 Y136.123 E39.69288
G1 X142.318 Y137.469 E39.73765
G1 X142.175 Y138.802 E39.78224
G1 X141.89 Y140.116 E39.82696
G1 X141.473 Y141.378 E39.87117
G1 X140.916 Y142.608 E39.91608
G1 X140.238 Y143.759 E39.96051
G1 X139.437 Y144.835 E40.00512
G1 X138.496 Y145.852 E40.05121
G1 X137.521 Y146.705 E40.09429
G1 X136.422 Y147.477 E40.13896
G1 X135.24 Y148.132 E40.18391
G1 X134.01 Y148.65 E40.2283
G1 X132.721 Y149.039 E40.27308
G1 X131.379 Y149.289 E40.31849
G1 F1500 E33.81849
G0 F9000 X134.071 Y148.82
G0 X142.375 Y152.276
G0 X145.059 Y154.969
G1 F1500 E40.31849
G1 F3000 X144.412 Y154.847 E40.34038
G1 X143.791 Y154.552 E40.36325
G1 X143.286 Y154.129 E40.38516
G1 X142.883 Y153.58 E40.40781
G1 X142.639 Y152.959 E40.43
G1 X142.554 Y152.29 E40.45243
G1 X142.641 Y151.644 E40.47411
G1 X142.888 Y151.002 E40.49699
G1 X143.289 Y150.454 E40.51958
G1 X143.794 Y150.043 E40.54123
G1 X144.42 Y149.749 E40.56424
G1 X145.053 Y149.623 E40.5857
G1 X145.736 Y149.668 E40.60847
G1 X146.383 Y149.875 E40.63106
G1 X146.943 Y150.231 E40.65313
G1 X147.404 Y150.722 E40.67553
G1 X147.73 Y151.317 E40.6981
G1 X147.893 Y151.955 E40.72
G1 X147.893 Y152.606 E40.74165
G1 X147.732 Y153.274 E40.76451
G1 X147.403 Y153.875 E40.7873
G1 X146.951 Y154.355 E40.80923
G1 X146.368 Y154.724 E40.83217
G1 X145.745 Y154.927 E40.85397
G1 X145.059 Y154.969 E40.87683
G1 F1500 E34.37683
G0 F9000 X145.16 Y155.066
G0 X145.769 Y155.106
G0 X145.767 Y173.515
G0 X166.635 Y173.696
G1 F1500 E40.87683
G1 F3000 X166.635 Y99.896 E43.33142
G1 X92.836 Y99.897 E45.78599
G1 X92.836 Y173.695 E48.24052
G1 X166.635 Y173.696 E50.69509
G1 F1500 E44.19509
G0 F9000 X114.192 Y173.515
G0 X114.072 Y155.153
G0 X114.745 Y154.927
G1 F1500 E50.69509
G1 F3000 X114.059 Y154.969 E50.71794
G1 X113.412 Y154.847 E50.73984
G1 X112.793 Y154.553 E50.76264
G1 X112.289 Y154.137 E50.78437
G1 X111.891 Y153.594 E50.80676
G1 X111.638 Y152.952 E50.82971
G1 X111.56 Y152.27 E50.85255
G1 X111.638 Y151.642 E50.87359
G1 X111.903 Y150.984 E50.89719
G1 X112.286 Y150.459 E50.9188
G1 X112.789 Y150.042 E50.94053
G1 X113.412 Y149.746 E50.96347
G1 X114.059 Y149.626 E50.98536
G1 X114.738 Y149.664 E51.00798
G1 X115.374 Y149.875 E51.03027
G1 X115.932 Y150.227 E51.05221
G1 X116.397 Y150.719 E51.07473
G1 X116.726 Y151.317 E51.09743
G1 X116.895 Y151.96 E51.11954
G1 X116.895 Y152.627 E51.14172
G1 X116.719 Y153.294 E51.16467
G1 X116.409 Y153.865 E51.18628
G1 X115.943 Y154.361 E51.20891
G1 X115.367 Y154.724 E51.23156
G1 X114.745 Y154.927 E51.25332
G0 F9000 X114.652 Y154.533
;TYPE:WALL-OUTER
G1 F3000 X114.102 Y154.567 E51.27165
G1 X113.523 Y154.458 E51.29124
G1 X113.025 Y154.222 E51.30957
G1 X112.582 Y153.859 E51.32862
G1 X112.237 Y153.386 E51.34809
G1 X112.028 Y152.845 E51.36738
G1 X111.96 Y152.287 E51.38608
G1 X112.03 Y151.74 E51.40442
G1 X112.236 Y151.208 E51.4234
G1 X112.571 Y150.745 E51.4424
G1 X113.029 Y150.368 E51.46213
G1 X113.518 Y150.138 E51.48011
G1 X114.08 Y150.026 E51.49917
G1 X114.655 Y150.06 E51.51833
G1 X115.206 Y150.238 E51.53758
G1 X115.682 Y150.539 E51.55632
G1 X116.076 Y150.958 E51.57545
G1 X116.341 Y151.434 E51.59357
G1 X116.495 Y152.037 E51.61426
G1 X116.495 Y152.555 E51.63149
G1 X116.354 Y153.128 E51.65112
G1 X116.074 Y153.64 E51.67053
G1 X115.668 Y154.062 E51.69001
G1 X115.211 Y154.351 E51.70799
G1 X114.652 Y154.533 E51.72754
G1 F1500 E45.22754
G0 F9000 X114.194 Y155.064
G0 X115.308 Y154.575
G0 X115.609 Y154.384
G0 X116.893 Y153.357
G0 X128.713 Y149.537
G0 X131.347 Y148.89
G1 F1500 E51.72754
G1 F3000 X130.049 Y148.992 E51.77085
G1 X128.75 Y148.957 E51.81407
G1 X127.467 Y148.783 E51.85713
G1 X126.196 Y148.472 E51.90065
G1 X124.996 Y148.038 E51.9431
G1 X123.815 Y147.464 E51.98677
G1 X122.716 Y146.775 E52.02991
G1 X121.686 Y145.965 E52.07349
G1 X120.769 Y145.069 E52.11614
G1 X119.939 Y144.071 E52.15931
G1 X119.221 Y142.984 E52.20264
G1 X118.624 Y141.834 E52.24573
G1 X118.152 Y140.629 E52.28878
G1 X117.811 Y139.372 E52.3321
G1 X117.604 Y138.086 E52.37542
G1 X117.536 Y136.785 E52.41875
G1 X117.606 Y135.485 E52.46205
G1 X117.813 Y134.212 E52.50495
G1 X118.152 Y132.963 E52.54799
G1 X118.629 Y131.749 E52.59137
G1 X119.226 Y130.599 E52.63447
G1 X119.939 Y129.522 E52.67743
G1 X120.783 Y128.508 E52.72131
G1 X121.702 Y127.613 E52.76398
G1 X122.733 Y126.806 E52.80752
G1 X123.834 Y126.117 E52.85072
G1 X125.005 Y125.551 E52.89398
G1 X126.216 Y125.114 E52.9368
G1 X127.488 Y124.805 E52.98034
G1 X128.761 Y124.635 E53.02305
G1 X130.071 Y124.601 E53.06664
G1 X131.365 Y124.704 E53.10981
G1 X132.635 Y124.945 E53.15281
G1 X133.887 Y125.325 E53.19633
G1 X135.075 Y125.826 E53.23921
G1 X136.219 Y126.46 E53.28271
