;FLAVOR:Marlin
;TIME:4363
;Filament used: 3.98794m
;Layer height: 0.2
;MINX:97.779
;MINY:105.764
;MINZ:0.2
;MAXX:171.277
;MAXY:179.259
;MAXZ:27.2
;Generated with Cura_SteamEngine 5.4.0
M140 S60
M105
M190 S60
M104 S200
M105
M109 S200
M82 ;absolute extrusion mode
M201 X500.00 Y500.00 Z100.00 E5000.00 ;Setup machine max acceleration
M203 X500.00 Y500.00 Z10.00 E50.00 ;Setup machine max feedrate
M204 P500.00 R1000.00 T500.00 ;Setup Print/Retract/Travel acceleration
M205 X8.00 Y8.00 Z0.40 E5.00 ;Setup Jerk
M220 S100 ;Reset Feedrate
M221 S100 ;Reset Flowrate

G28 ;Home

G92 E0 ;Reset Extruder
G1 Z2.0 F3000 ;Move Z Axis up
G1 X10.1 Y20 Z0.28 F5000.0 ;Move to start position
G1 X10.1 Y200.0 Z0.28 F1500.0 E15 ;Draw the first line
G1 X10.4 Y200.0 Z0.28 F5000.0 ;Move to side a little
G1 X10.4 Y20 Z0.28 F1500.0 E30 ;Draw the second line
G92 E0 ;Reset Extruder
G1 Z2.0 F3000 ;Move Z Axis up

G92 E0
G92 E0
G1 F1500 E-6.5
;LAYER_COUNT:136
;LAYER:0
M107
G0 F9000 X118.496 Y110.488 Z0.2
;TYPE:SKIRT
G1 F1500 E0
G1 F2400 X119.23 Y109.797 E0.03353
G1 X119.996 Y109.194 E0.06595
G1 X120.781 Y108.681 E0.09714
G1 X121.639 Y108.221 E0.12952
G1 X122.558 Y107.83 E0.16274
G1 X123.18 Y107.619 E0.18459
G1 X124.484 Y107.225 E0.22989
G1 X125.848 Y106.857 E0.27688
G1 X126.747 Y106.644 E0.30761
G1 X127.843 Y106.42 E0.34482
G1 X129.296 Y106.173 E0.39384
G1 X130.298 Y106.036 E0.42748
G1 X131.366 Y105.92 E0.46321
G1 X132.222 Y105.853 E0.49176
G1 X133.305 Y105.793 E0.52784
G1 X134.615 Y105.764 E0.57142
G1 X135.827 Y105.777 E0.61173
G1 X136.736 Y105.816 E0.642
G1 X138.039 Y105.908 E0.68544
G1 X139 Y106.006 E0.71757
G1 X140.189 Y106.163 E0.75746
G1 X141.209 Y106.329 E0.79183
G1 X142.028 Y106.483 E0.81955
G1 X143.28 Y106.755 E0.86216
G1 X144.544 Y107.076 E0.90554
G1 X145.431 Y107.333 E0.93625
G1 X146.393 Y107.639 E0.96983
G1 X147.595 Y108.06 E1.01219
G1 X148.537 Y108.423 E1.04577
G1 X149.71 Y108.917 E1.0881
G1 X150.75 Y109.395 E1.12617
G1 X151.629 Y109.83 E1.15879
G1 X152.487 Y110.285 E1.19109
G1 X153.579 Y110.903 E1.23282
G1 X154.38 Y111.39 E1.264
G1 X155.397 Y112.051 E1.30434
G1 X156.494 Y112.819 E1.34888
G1 X157.108 Y113.274 E1.3743
G1 X157.998 Y113.97 E1.41188
G1 X158.867 Y114.695 E1.44952
G1 X159.7 Y115.432 E1.48651
G1 X160.688 Y116.366 E1.53173
G1 X161.659 Y117.351 E1.57774
G1 X162.337 Y118.066 E1.61051
G1 X162.973 Y118.804 E1.64291
G1 X163.501 Y119.537 E1.67296
G1 X164.034 Y120.437 E1.70775
G1 X164.452 Y121.316 E1.74012
G1 X164.769 Y122.162 E1.77017
G1 X165.046 Y123.16 E1.80462
G1 X165.179 Y123.852 E1.82806
G1 X165.451 Y125.543 E1.88502
G1 X165.915 Y128.118 E1.97205
G1 X166.428 Y130.556 E2.05491
G1 X167.013 Y132.994 E2.1383
G1 X167.673 Y135.436 E2.22243
G1 X168.406 Y137.871 E2.30701
G1 X169.19 Y140.231 E2.38972
G1 X170.603 Y144.048 E2.5251
G1 X170.897 Y144.976 E2.55748
G1 X171.108 Y145.926 E2.58984
G1 X171.236 Y146.892 E2.62225
G1 X171.277 Y147.863 E2.65458
G1 X171.238 Y148.765 E2.68461
G1 X171.019 Y150.205 E2.73305
G1 X170.857 Y150.908 E2.75705
G1 X170.339 Y152.886 E2.82505
G1 X170.108 Y153.667 E2.85214
G1 X169.789 Y154.652 E2.88658
G1 X169.344 Y155.887 E2.93024
G1 X168.995 Y156.774 E2.96194
G1 X168.465 Y158.005 E3.00652
G1 X167.949 Y159.096 E3.04666
G1 X167.504 Y159.969 E3.07925
G1 X167.046 Y160.817 E3.11131
G1 X166.252 Y162.166 E3.16337
G1 X165.697 Y163.039 E3.19778
G1 X165.125 Y163.882 E3.23166
G1 X164.69 Y164.496 E3.25669
G1 X163.941 Y165.489 E3.29806
G1 X163.09 Y166.542 E3.34309
G1 X162.462 Y167.269 E3.37504
G1 X161.868 Y167.926 E3.4045
G1 X160.72 Y169.108 E3.4593
G1 X160.088 Y169.713 E3.4884
G1 X159.134 Y170.579 E3.53125
G1 X158.368 Y171.233 E3.56475
G1 X157.699 Y171.774 E3.59337
G1 X156.937 Y172.359 E3.62532
G1 X155.923 Y173.092 E3.66694
G1 X155.087 Y173.659 E3.70053
G1 X153.992 Y174.351 E3.74362
G1 X152.954 Y174.959 E3.78363
G1 X151.859 Y175.556 E3.82511
G1 X151.257 Y175.862 E3.84757
G1 X149.866 Y176.519 E3.89874
G1 X148.977 Y176.901 E3.93092
G1 X148.067 Y177.267 E3.96354
G1 X146.899 Y177.694 E4.0049
G1 X145.725 Y178.08 E4.04601
G1 X144.761 Y178.363 E4.07942
G1 X143.745 Y178.636 E4.11441
G1 X142.444 Y178.954 E4.15896
G1 X141.471 Y179.143 E4.19193
G1 X140.503 Y179.244 E4.2243
G1 X139.528 Y179.259 E4.25673
G1 X138.558 Y179.187 E4.28908
G1 X137.595 Y179.031 E4.32153
G1 X136.69 Y178.801 E4.35259
G1 X135.971 Y178.559 E4.37782
G1 X134.462 Y177.983 E4.43154
G1 X132.098 Y177.126 E4.51517
G1 X129.672 Y176.325 E4.60015
G1 X127.29 Y175.612 E4.68285
G1 X124.864 Y174.961 E4.76639
G1 X122.398 Y174.372 E4.85072
G1 X119.919 Y173.856 E4.93494
G1 X117.411 Y173.405 E5.01969
G1 X115.879 Y173.164 E5.07127
G1 X114.924 Y172.968 E5.1037
G1 X113.992 Y172.689 E5.13605
G1 X113.089 Y172.329 E5.16839
G1 X112.282 Y171.924 E5.19842
G1 X111.391 Y171.373 E5.23326
G1 X110.668 Y170.832 E5.2633
G1 X110.191 Y170.421 E5.28424
G1 X109.705 Y169.971 E5.30627
G1 X108.798 Y169.088 E5.34837
G1 X108.103 Y168.385 E5.38125
G1 X107.282 Y167.509 E5.42118
G1 X106.747 Y166.897 E5.44822
G1 X105.858 Y165.825 E5.49454
G1 X105.257 Y165.049 E5.52718
G1 X104.68 Y164.264 E5.55959
G1 X104.173 Y163.538 E5.58904
G1 X103.465 Y162.452 E5.63216
G1 X102.791 Y161.341 E5.67538
G1 X102.2 Y160.286 E5.7156
G1 X101.805 Y159.533 E5.74388
G1 X101.375 Y158.658 E5.7763
G1 X100.82 Y157.435 E5.82097
G1 X100.37 Y156.354 E5.85992
G1 X100.024 Y155.445 E5.89227
G1 X99.603 Y154.235 E5.93488
G1 X99.314 Y153.31 E5.96711
G1 X99.05 Y152.376 E5.99939
G1 X98.761 Y151.227 E6.0388
G1 X98.545 Y150.245 E6.07224
G1 X98.342 Y149.186 E6.10811
G1 X98.154 Y148.015 E6.14755
G1 X98.008 Y146.864 E6.18614
G1 X97.913 Y145.897 E6.21846
G1 X97.822 Y144.553 E6.26326
G1 X97.782 Y143.332 E6.3039
G1 X97.779 Y142.357 E6.33632
G1 X97.807 Y141.31 E6.37116
G1 X97.861 Y140.27 E6.4058
G1 X97.949 Y139.201 E6.44147
G1 X98.068 Y138.13 E6.47731
G1 X98.267 Y136.753 E6.52359
G1 X98.416 Y135.917 E6.55183
G1 X98.71 Y134.499 E6.6
G1 X98.938 Y133.57 E6.63181
G1 X99.221 Y132.524 E6.66786
G1 X99.586 Y131.284 E6.71085
G1 X99.909 Y130.348 E6.74378
G1 X100.308 Y129.458 E6.77622
G1 X100.784 Y128.609 E6.80859
G1 X101.332 Y127.804 E6.84098
G1 X101.903 Y127.104 E6.87103
G1 X102.627 Y126.362 E6.90551
G1 X103.19 Y125.869 E6.9304
G1 X104.256 Y125.001 E6.97612
G1 X106.21 Y123.362 E7.06095
G1 X108.089 Y121.692 E7.14456
G1 X109.943 Y119.949 E7.2292
G1 X111.732 Y118.169 E7.31313
G1 X113.445 Y116.366 E7.39585
G1 X115.146 Y114.468 E7.48062
G1 X116.788 Y112.531 E7.56508
G1 X117.872 Y111.191 E7.6224
G1 X118.496 Y110.488 E7.65367
G0 F9000 X118.795 Y110.754
G1 F2400 X119.478 Y110.111 E7.68487
G1 X120.215 Y109.529 E7.7161
G1 X120.97 Y109.034 E7.74613
G1 X121.828 Y108.574 E7.77851
G1 X122.687 Y108.209 E7.80955
G1 X123.296 Y108.002 E7.83095
G1 X124.588 Y107.611 E7.87584
G1 X125.94 Y107.246 E7.92242
G1 X126.827 Y107.036 E7.95274
G1 X127.91 Y106.814 E7.98951
G1 X129.35 Y106.569 E8.03809
G1 X130.341 Y106.434 E8.07136
G1 X131.398 Y106.319 E8.10672
G1 X132.244 Y106.252 E8.13495
G1 X133.314 Y106.193 E8.17059
G1 X134.611 Y106.164 E8.21374
G1 X135.81 Y106.177 E8.25362
G1 X136.708 Y106.215 E8.28351
G1 X137.998 Y106.306 E8.32652
G1 X138.948 Y106.403 E8.35829
G1 X140.125 Y106.558 E8.39777
G1 X141.135 Y106.722 E8.4318
G1 X141.943 Y106.874 E8.45915
G1 X143.182 Y107.143 E8.50132
G1 X144.433 Y107.46 E8.54424
G1 X145.31 Y107.714 E8.57461
G1 X146.261 Y108.016 E8.6078
G1 X147.451 Y108.433 E8.64974
G1 X148.382 Y108.792 E8.68292
G1 X149.543 Y109.281 E8.72482
G1 X150.573 Y109.754 E8.76252
G1 X151.442 Y110.184 E8.79477
G1 X152.29 Y110.633 E8.82668
G1 X153.371 Y111.245 E8.868
G1 X154.162 Y111.726 E8.89879
G1 X155.168 Y112.379 E8.93868
G1 X156.256 Y113.14 E8.98284
G1 X156.862 Y113.589 E9.00793
G1 X157.742 Y114.277 E9.04508
G1 X158.602 Y114.994 E9.08232
G1 X159.425 Y115.723 E9.11889
G1 X160.403 Y116.647 E9.16364
G1 X161.369 Y117.626 E9.20938
G1 X162.034 Y118.327 E9.24152
G1 X162.648 Y119.038 E9.27277
G1 X163.176 Y119.771 E9.30281
G1 X163.673 Y120.609 E9.33522
G1 X164.077 Y121.456 E9.36643
G1 X164.394 Y122.302 E9.39648
G1 X164.653 Y123.236 E9.42872
G1 X164.784 Y123.915 E9.45172
G1 X165.057 Y125.614 E9.50895
G1 X165.522 Y128.189 E9.59598
G1 X166.039 Y130.649 E9.67959
G1 X166.627 Y133.098 E9.76336
G1 X167.29 Y135.551 E9.84787
G1 X168.026 Y137.997 E9.93283
G1 X168.81 Y140.357 E10.01554
G1 X170.222 Y144.169 E10.15075
G1 X170.507 Y145.063 E10.18195
G1 X170.712 Y145.979 E10.21317
G1 X170.836 Y146.909 E10.24438
G1 X170.877 Y147.846 E10.27557
G1 X170.838 Y148.748 E10.3056
G1 X170.629 Y150.115 E10.3516
G1 X170.47 Y150.807 E10.37521
G1 X169.956 Y152.772 E10.44277
G1 X169.727 Y153.544 E10.46955
G1 X169.408 Y154.529 E10.50399
G1 X168.972 Y155.741 E10.54683
G1 X168.628 Y156.616 E10.5781
G1 X168.103 Y157.834 E10.62221
G1 X167.593 Y158.914 E10.66194
G1 X167.152 Y159.779 E10.69423
G1 X166.701 Y160.614 E10.7258
G1 X165.914 Y161.951 E10.7774
G1 X165.359 Y162.824 E10.8118
G1 X164.799 Y163.651 E10.84502
G1 X164.371 Y164.255 E10.86964
G1 X163.63 Y165.238 E10.91059
G1 X162.787 Y166.281 E10.95519
G1 X162.166 Y167.001 E10.98682
G1 X161.581 Y167.647 E11.0158
G1 X160.443 Y168.819 E11.07014
G1 X159.819 Y169.417 E11.09888
G1 X158.874 Y170.275 E11.14134
G1 X158.116 Y170.922 E11.17448
G1 X157.455 Y171.457 E11.20277
G1 X156.703 Y172.035 E11.23431
G1 X155.699 Y172.761 E11.27552
G1 X154.873 Y173.321 E11.30871
G1 X153.79 Y174.006 E11.35133
G1 X152.763 Y174.608 E11.39093
G1 X151.678 Y175.199 E11.43202
G1 X151.086 Y175.5 E11.45411
G1 X149.695 Y176.157 E11.50528
G1 X148.828 Y176.53 E11.53667
G1 X147.93 Y176.891 E11.56886
G1 X146.774 Y177.314 E11.6098
G1 X145.612 Y177.696 E11.65048
G1 X144.658 Y177.977 E11.68356
G1 X143.65 Y178.247 E11.71827
G1 X142.367 Y178.561 E11.7622
G1 X141.429 Y178.745 E11.79399
G1 X140.496 Y178.844 E11.8252
G1 X139.557 Y178.86 E11.85644
G1 X138.621 Y178.792 E11.88765
G1 X137.694 Y178.643 E11.91888
G1 X136.789 Y178.413 E11.94993
G1 X136.114 Y178.185 E11.97363
G1 X134.605 Y177.609 E12.02735
G1 X132.223 Y176.746 E12.11162
G1 X129.797 Y175.945 E12.19659
G1 X127.405 Y175.229 E12.27964
G1 X124.957 Y174.572 E12.36394
G1 X122.48 Y173.98 E12.44864
G1 X120.001 Y173.464 E12.53286
G1 X117.482 Y173.011 E12.61799
G1 X115.959 Y172.772 E12.66927
G1 X115.038 Y172.585 E12.70052
G1 X114.14 Y172.317 E12.73169
G1 X113.268 Y171.971 E12.76289
G1 X112.461 Y171.566 E12.79293
G1 X111.631 Y171.053 E12.82538
G1 X110.908 Y170.512 E12.85541
G1 X110.463 Y170.128 E12.87496
G1 X109.984 Y169.684 E12.89669
G1 X109.082 Y168.807 E12.93853
G1 X108.395 Y168.112 E12.97103
G1 X107.583 Y167.245 E13.01054
G1 X107.055 Y166.642 E13.0372
G1 X106.174 Y165.58 E13.08309
G1 X105.579 Y164.812 E13.11541
G1 X105.008 Y164.035 E13.14748
G1 X104.508 Y163.32 E13.1765
G1 X103.807 Y162.245 E13.21918
G1 X103.14 Y161.145 E13.26197
G1 X102.554 Y160.1 E13.30182
G1 X102.164 Y159.356 E13.32976
G1 X101.739 Y158.493 E13.36175
G1 X101.189 Y157.281 E13.40602
G1 X100.744 Y156.211 E13.44456
G1 X100.402 Y155.314 E13.47649
G1 X99.985 Y154.116 E13.51868
G1 X99.699 Y153.201 E13.55057
G1 X99.438 Y152.279 E13.58244
G1 X99.152 Y151.141 E13.62146
G1 X98.938 Y150.17 E13.65454
G1 X98.737 Y149.123 E13.68999
G1 X98.551 Y147.964 E13.72904
G1 X98.406 Y146.825 E13.76723
G1 X98.312 Y145.87 E13.79914
G1 X98.222 Y144.54 E13.84348
G1 X98.182 Y143.331 E13.88371
G1 X98.179 Y142.367 E13.91578
G1 X98.206 Y141.331 E13.95025
G1 X98.26 Y140.303 E13.98448
G1 X98.347 Y139.245 E14.01979
G1 X98.464 Y138.187 E14.0552
G1 X98.661 Y136.823 E14.10103
G1 X98.808 Y135.998 E14.1289
G1 X99.099 Y134.594 E14.17659
G1 X99.324 Y133.675 E14.20806
G1 X99.605 Y132.637 E14.24383
G1 X99.964 Y131.414 E14.28622
G1 X100.274 Y130.511 E14.31798
G1 X100.657 Y129.653 E14.34923
G1 X101.115 Y128.834 E14.38044
G1 X101.642 Y128.057 E14.41167
G1 X102.213 Y127.357 E14.44171
G1 X102.89 Y126.663 E14.47396
G1 X103.443 Y126.179 E14.4984
G1 X104.509 Y125.311 E14.54412
G1 X106.476 Y123.661 E14.62952
G1 X108.355 Y121.991 E14.71313
G1 X110.225 Y120.233 E14.79849
G1 X112.014 Y118.453 E14.88243
G1 X113.739 Y116.637 E14.96574
G1 X115.444 Y114.735 E15.05069
G1 X117.093 Y112.79 E15.13551
G1 X118.171 Y111.457 E15.19252
G1 X118.795 Y110.754 E15.22379
G0 F9000 X119.07 Y111.045
G1 F2400 X119.726 Y110.425 E15.25381
G1 X120.434 Y109.864 E15.28386
G1 X121.189 Y109.369 E15.31388
G1 X121.985 Y108.942 E15.34393
G1 X122.816 Y108.588 E15.37397
G1 X123.412 Y108.385 E15.39491
G1 X124.692 Y107.997 E15.4394
G1 X126.032 Y107.635 E15.48556
G1 X126.908 Y107.428 E15.5155
G1 X127.977 Y107.208 E15.5518
G1 X129.404 Y106.965 E15.59995
G1 X130.384 Y106.832 E15.63284
G1 X131.43 Y106.718 E15.66784
G1 X132.266 Y106.651 E15.69573
G1 X133.323 Y106.593 E15.73094
G1 X134.607 Y106.564 E15.77366
G1 X135.793 Y106.577 E15.81311
G1 X136.68 Y106.614 E15.84263
G1 X137.957 Y106.704 E15.88521
G1 X138.896 Y106.8 E15.91661
G1 X140.061 Y106.953 E15.95569
G1 X141.061 Y107.115 E15.98938
G1 X141.858 Y107.265 E16.01635
G1 X143.084 Y107.531 E16.05808
G1 X144.322 Y107.844 E16.10055
G1 X145.189 Y108.095 E16.13057
G1 X146.129 Y108.393 E16.16337
G1 X147.307 Y108.806 E16.20489
G1 X148.227 Y109.161 E16.23769
G1 X149.376 Y109.644 E16.27914
G1 X150.395 Y110.112 E16.31644
G1 X151.255 Y110.538 E16.34836
G1 X152.093 Y110.981 E16.37988
G1 X153.163 Y111.587 E16.42078
G1 X153.944 Y112.062 E16.45119
G1 X154.939 Y112.707 E16.49063
G1 X156.018 Y113.461 E16.53441
G1 X156.616 Y113.904 E16.55916
G1 X157.486 Y114.584 E16.59589
G1 X158.337 Y115.293 E16.63273
G1 X159.15 Y116.014 E16.66887
G1 X160.118 Y116.928 E16.71315
G1 X161.079 Y117.901 E16.75864
G1 X161.732 Y118.589 E16.79018
G1 X162.323 Y119.272 E16.82023
G1 X162.851 Y120.005 E16.85027
G1 X163.312 Y120.782 E16.88032
G1 X163.702 Y121.596 E16.91034
G1 X164.019 Y122.442 E16.94039
G1 X164.26 Y123.312 E16.97042
G1 X164.389 Y123.978 E16.99298
G1 X164.663 Y125.685 E17.05048
G1 X165.129 Y128.26 E17.13752
G1 X165.65 Y130.742 E17.22187
G1 X166.241 Y133.202 E17.30602
G1 X166.907 Y135.666 E17.39091
G1 X167.646 Y138.123 E17.47625
G1 X168.43 Y140.483 E17.55896
G1 X169.841 Y144.291 E17.69403
G1 X170.117 Y145.151 E17.72407
G1 X170.316 Y146.032 E17.75411
G1 X170.436 Y146.927 E17.78414
G1 X170.477 Y147.829 E17.81417
G1 X170.438 Y148.731 E17.8442
G1 X170.239 Y150.026 E17.88778
G1 X170.083 Y150.706 E17.91098
G1 X169.573 Y152.658 E17.97809
G1 X169.346 Y153.421 E18.00456
G1 X169.027 Y154.406 E18.039
G1 X168.6 Y155.595 E18.08102
G1 X168.261 Y156.458 E18.11186
G1 X167.741 Y157.663 E18.15551
G1 X167.237 Y158.732 E18.19482
G1 X166.8 Y159.589 E18.22681
G1 X166.356 Y160.411 E18.25789
G1 X165.576 Y161.737 E18.30905
G1 X165.028 Y162.6 E18.34306
G1 X164.473 Y163.42 E18.37599
G1 X164.052 Y164.014 E18.4002
G1 X163.319 Y164.987 E18.44072
G1 X162.484 Y166.02 E18.4849
G1 X161.869 Y166.733 E18.51622
G1 X161.294 Y167.368 E18.54471
G1 X160.166 Y168.53 E18.59857
G1 X159.55 Y169.121 E18.62697
G1 X158.614 Y169.971 E18.66902
G1 X157.864 Y170.611 E18.70181
G1 X157.211 Y171.14 E18.72976
G1 X156.469 Y171.711 E18.7609
G1 X155.474 Y172.43 E18.80173
G1 X154.659 Y172.983 E18.83449
G1 X153.588 Y173.661 E18.87665
G1 X152.572 Y174.257 E18.91583
G1 X151.497 Y174.842 E18.95654
G1 X150.915 Y175.138 E18.97825
G1 X149.524 Y175.795 E19.02942
G1 X148.679 Y176.159 E19.06002
G1 X147.792 Y176.515 E19.09181
G1 X146.649 Y176.934 E19.1323
G1 X145.499 Y177.312 E19.17256
G1 X144.555 Y177.591 E19.2053
G1 X143.555 Y177.858 E19.23973
G1 X142.272 Y178.172 E19.28366
G1 X141.386 Y178.347 E19.3137
G1 X140.488 Y178.444 E19.34374
G1 X139.585 Y178.461 E19.37378
G1 X138.684 Y178.397 E19.40382
G1 X137.792 Y178.255 E19.43386
G1 X136.917 Y178.034 E19.46388
G1 X136.257 Y177.811 E19.48705
G1 X134.748 Y177.235 E19.54077
G1 X132.348 Y176.366 E19.62567
G1 X129.922 Y175.565 E19.71064
G1 X127.52 Y174.846 E19.79403
G1 X125.05 Y174.183 E19.87909
G1 X122.562 Y173.588 E19.96418
G1 X120.083 Y173.072 E20.0484
G1 X117.553 Y172.617 E20.1339
G1 X116.038 Y172.38 E20.1849
G1 X115.152 Y172.202 E20.21496
G1 X114.287 Y171.945 E20.24497
G1 X113.447 Y171.613 E20.27501
G1 X112.64 Y171.208 E20.30504
G1 X111.871 Y170.733 E20.3351
G1 X111.148 Y170.192 E20.36514
G1 X110.735 Y169.834 E20.38332
G1 X110.263 Y169.397 E20.40471
G1 X109.366 Y168.526 E20.4463
G1 X108.687 Y167.839 E20.47842
G1 X107.884 Y166.981 E20.51751
G1 X107.363 Y166.387 E20.54379
