;FLAVOR:Marlin
;TIME:11060
;Filament used: 13.4427m
;Layer height: 0.2
;MINX:88.427
;MINY:78.242
;MINZ:0.2
;MAXX:185.427
;MAXY:175.242
;MAXZ:30
;Generated with Cura_SteamEngine 5.4.0
M140 S60
M105
M190 S60
M104 S200
M105
M109 S200
M82 ;absolute extrusion mode
M201 X500.00 Y500.00 Z100.00 E5000.00 ;Setup machine max acceleration
M203 X500.00 Y500.00 Z10.00 E50.00 ;Setup machine max feedrate
M204 P500.00 R1000.00 T500.00 ;Setup Print/Retract/Travel acceleration
M205 X8.00 Y8.00 Z0.40 E5.00 ;Setup Jerk
M220 S100 ;Reset Feedrate
M221 S100 ;Reset Flowrate

G28 ;Home

G92 E0 ;Reset Extruder
G1 Z2.0 F3000 ;Move Z Axis up
G1 X10.1 Y20 Z0.28 F5000.0 ;Move to start position
G1 X10.1 Y200.0 Z0.28 F1500.0 E15 ;Draw the first line
G1 X10.4 Y200.0 Z0.28 F5000.0 ;Move to side a little
G1 X10.4 Y20 Z0.28 F1500.0 E30 ;Draw the second line
G92 E0 ;Reset Extruder
G1 Z2.0 F3000 ;Move Z Axis up

G92 E0
G92 E0
G1 F1500 E-6.5
;LAYER_COUNT:150
;LAYER:0
M107
G0 F9000 X91.158 Y82.007 Z0.2
;TYPE:SKIRT
G1 F1500 E0
G1 F3000 X91.883 Y81.255 E0.03474
G1 X92.619 Y80.618 E0.06712
G1 X93.351 Y80.088 E0.09718
G1 X94.248 Y79.553 E0.13191
G1 X95.126 Y79.132 E0.1643
G1 X96.039 Y78.79 E0.19673
G1 X96.976 Y78.531 E0.22906
G1 X97.943 Y78.353 E0.26176
G1 X99.082 Y78.257 E0.29978
G1 X99.739 Y78.242 E0.32164
G1 X173.731 Y78.242 E2.78262
G1 X174.611 Y78.255 E2.81189
G1 X175.583 Y78.314 E2.84428
G1 X176.546 Y78.46 E2.87668
G1 X177.493 Y78.691 E2.9091
G1 X178.381 Y78.991 E2.94027
G1 X179.273 Y79.381 E2.97265
G1 X180.156 Y79.868 E3.00619
G1 X180.907 Y80.37 E3.03624
G1 X181.722 Y81.028 E3.07108
G1 X182.42 Y81.706 E3.10344
G1 X183.056 Y82.443 E3.13582
G1 X183.626 Y83.233 E3.16822
G1 X184.088 Y84.009 E3.19826
G1 X184.542 Y84.951 E3.23304
G1 X184.871 Y85.829 E3.26422
G1 X185.14 Y86.801 E3.29777
G1 X185.317 Y87.767 E3.33043
G1 X185.412 Y88.897 E3.36815
G1 X185.427 Y89.572 E3.3906
G1 X185.426 Y163.642 E5.85418
G1 X185.415 Y164.405 E5.87956
G1 X185.358 Y165.378 E5.91198
G1 X185.213 Y166.341 E5.94437
G1 X184.984 Y167.287 E5.97674
G1 X184.673 Y168.211 E6.00917
G1 X184.281 Y169.102 E6.04155
G1 X183.813 Y169.954 E6.07388
G1 X183.291 Y170.735 E6.10512
G1 X182.658 Y171.52 E6.13866
G1 X182.033 Y172.171 E6.16868
G1 X181.244 Y172.859 E6.2035
G1 X180.484 Y173.409 E6.2347
G1 X179.617 Y173.926 E6.26827
G1 X178.739 Y174.348 E6.30067
G1 X177.828 Y174.69 E6.33304
G1 X176.889 Y174.951 E6.36545
G1 X175.923 Y175.129 E6.39812
G1 X174.772 Y175.227 E6.43654
G1 X174.097 Y175.242 E6.459
G1 X99.991 Y175.241 E8.92378
G1 X99.258 Y175.23 E8.94816
G1 X98.286 Y175.173 E8.98054
G1 X97.323 Y175.027 E9.01294
G1 X96.377 Y174.798 E9.04531
G1 X95.453 Y174.486 E9.07775
G1 X94.563 Y174.094 E9.11009
G1 X93.74 Y173.643 E9.14131
G1 X92.901 Y173.082 E9.17488
G1 X92.197 Y172.516 E9.20492
G1 X91.444 Y171.791 E9.23969
G1 X90.807 Y171.055 E9.27206
G1 X90.277 Y170.324 E9.30209
G1 X89.741 Y169.427 E9.33685
G1 X89.319 Y168.549 E9.36925
G1 X88.977 Y167.637 E9.40164
G1 X88.717 Y166.699 E9.43402
G1 X88.539 Y165.73 E9.46679
G1 X88.441 Y164.551 E9.50614
G1 X88.427 Y163.9 E9.52779
G1 X88.428 Y89.767 E11.99347
G1 X88.439 Y89.067 E12.01675
G1 X88.497 Y88.094 E12.04917
G1 X88.643 Y87.131 E12.08157
G1 X88.873 Y86.185 E12.11395
G1 X89.186 Y85.262 E12.14636
G1 X89.578 Y84.372 E12.17871
G1 X90.048 Y83.519 E12.2111
G1 X90.591 Y82.711 E12.24348
G1 X91.158 Y82.007 E12.27355
G0 F9000 X91.47 Y82.258
G1 F3000 X92.145 Y81.557 E12.30591
G1 X92.854 Y80.942 E12.33713
G1 X93.586 Y80.412 E12.36719
G1 X94.422 Y79.913 E12.39957
G1 X95.267 Y79.506 E12.43076
G1 X96.146 Y79.175 E12.462
G1 X97.049 Y78.924 E12.49318
G1 X97.977 Y78.752 E12.52457
G1 X99.116 Y78.656 E12.56259
G1 X99.748 Y78.642 E12.58361
G1 X173.725 Y78.642 E15.0441
G1 X174.587 Y78.654 E15.07277
G1 X175.524 Y78.71 E15.10399
G1 X176.452 Y78.849 E15.1352
G1 X177.365 Y79.07 E15.16644
G1 X178.221 Y79.358 E15.19648
G1 X179.113 Y79.748 E15.22886
G1 X179.934 Y80.201 E15.26005
G1 X180.685 Y80.703 E15.29009
G1 X181.444 Y81.315 E15.32252
G1 X182.118 Y81.968 E15.35374
G1 X182.732 Y82.677 E15.38493
G1 X183.282 Y83.438 E15.41616
G1 X183.744 Y84.214 E15.4462
G1 X184.167 Y85.091 E15.47858
G1 X184.496 Y85.969 E15.50977
G1 X184.747 Y86.874 E15.541
G1 X184.918 Y87.801 E15.57236
G1 X185.013 Y88.931 E15.61007
G1 X185.027 Y89.572 E15.6314
G1 X185.026 Y163.637 E18.09481
G1 X185.016 Y164.382 E18.11959
G1 X184.962 Y165.319 E18.15081
G1 X184.824 Y166.248 E18.18205
G1 X184.605 Y167.16 E18.21324
G1 X184.307 Y168.05 E18.24446
G1 X183.93 Y168.91 E18.27569
G1 X183.48 Y169.732 E18.30686
G1 X182.958 Y170.513 E18.3381
G1 X182.369 Y171.243 E18.3693
G1 X181.744 Y171.894 E18.39931
G1 X181.009 Y172.535 E18.43175
G1 X180.249 Y173.085 E18.46295
G1 X179.443 Y173.566 E18.49417
G1 X178.598 Y173.974 E18.52538
G1 X177.72 Y174.305 E18.55659
G1 X176.816 Y174.558 E18.58781
G1 X175.889 Y174.73 E18.61917
G1 X174.738 Y174.828 E18.65759
G1 X174.097 Y174.842 E18.67892
G1 X99.997 Y174.841 E21.14349
G1 X99.281 Y174.831 E21.16731
G1 X98.345 Y174.777 E21.19849
G1 X97.416 Y174.638 E21.22974
G1 X96.504 Y174.419 E21.26093
G1 X95.614 Y174.12 E21.29216
G1 X94.755 Y173.743 E21.32336
G1 X93.932 Y173.292 E21.35457
G1 X93.152 Y172.77 E21.38579
G1 X92.448 Y172.204 E21.41583
G1 X91.746 Y171.529 E21.44823
G1 X91.131 Y170.82 E21.47944
G1 X90.601 Y170.089 E21.50947
G1 X90.101 Y169.253 E21.54187
G1 X89.693 Y168.408 E21.57308
G1 X89.362 Y167.53 E21.60429
G1 X89.11 Y166.626 E21.6355
G1 X88.938 Y165.697 E21.66693
G1 X88.84 Y164.518 E21.70628
G1 X88.827 Y163.9 E21.72684
G1 X88.828 Y89.773 E24.19231
G1 X88.838 Y89.09 E24.21503
G1 X88.893 Y88.153 E24.24625
G1 X89.032 Y87.225 E24.27746
G1 X89.252 Y86.313 E24.30866
G1 X89.552 Y85.423 E24.3399
G1 X89.929 Y84.564 E24.3711
G1 X90.38 Y83.742 E24.40228
G1 X90.903 Y82.962 E24.43352
G1 X91.47 Y82.258 E24.46358
G0 F9000 X91.782 Y82.509
G1 F3000 X92.408 Y81.859 E24.4936
G1 X93.089 Y81.266 E24.52363
G1 X93.821 Y80.736 E24.55369
G1 X94.596 Y80.273 E24.58372
G1 X95.409 Y79.88 E24.61375
G1 X96.254 Y79.56 E24.6438
G1 X97.123 Y79.317 E24.67382
G1 X98.011 Y79.151 E24.70386
G1 X99.15 Y79.055 E24.74188
G1 X99.757 Y79.042 E24.76207
G1 X173.72 Y79.042 E27.22209
G1 X174.564 Y79.053 E27.25017
G1 X175.466 Y79.106 E27.28022
G1 X176.359 Y79.238 E27.31024
G1 X177.237 Y79.449 E27.34028
G1 X178.093 Y79.737 E27.37032
G1 X178.92 Y80.099 E27.40034
G1 X179.712 Y80.534 E27.4304
G1 X180.463 Y81.036 E27.46044
G1 X181.166 Y81.603 E27.49048
G1 X181.816 Y82.23 E27.52052
G1 X182.408 Y82.912 E27.55055
G1 X182.938 Y83.643 E27.58059
G1 X183.4 Y84.419 E27.61062
G1 X183.793 Y85.232 E27.64066
G1 X184.111 Y86.077 E27.67069
G1 X184.354 Y86.947 E27.70073
G1 X184.519 Y87.835 E27.73077
G1 X184.614 Y88.965 E27.76849
G1 X184.627 Y89.572 E27.78868
G1 X184.626 Y163.632 E30.25193
G1 X184.617 Y164.359 E30.27611
G1 X184.566 Y165.261 E30.30616
G1 X184.435 Y166.155 E30.33621
G1 X184.226 Y167.033 E30.36623
G1 X183.94 Y167.89 E30.39628
G1 X183.579 Y168.718 E30.42632
G1 X183.147 Y169.51 E30.45633
G1 X182.646 Y170.262 E30.48638
G1 X182.08 Y170.966 E30.51642
G1 X181.455 Y171.617 E30.54644
G1 X180.774 Y172.211 E30.5765
G1 X180.043 Y172.742 E30.60655
G1 X179.269 Y173.206 E30.63656
G1 X178.456 Y173.6 E30.66661
G1 X177.612 Y173.92 E30.69663
G1 X176.742 Y174.165 E30.72669
G1 X175.855 Y174.331 E30.75671
G1 X174.704 Y174.429 E30.79513
G1 X174.097 Y174.442 E30.81532
G1 X100.002 Y174.441 E33.27973
G1 X99.304 Y174.432 E33.30295
G1 X98.403 Y174.381 E33.33296
G1 X97.509 Y174.249 E33.36302
G1 X96.631 Y174.04 E33.39304
G1 X95.774 Y173.753 E33.4231
G1 X94.947 Y173.392 E33.45311
G1 X94.154 Y172.959 E33.48316
G1 X93.403 Y172.458 E33.51319
G1 X92.699 Y171.892 E33.54323
G1 X92.048 Y171.266 E33.57327
G1 X91.455 Y170.585 E33.60331
G1 X90.925 Y169.854 E33.63334
G1 X90.461 Y169.079 E33.66338
G1 X90.067 Y168.266 E33.69343
G1 X89.747 Y167.422 E33.72345
G1 X89.503 Y166.552 E33.7535
G1 X89.337 Y165.664 E33.78355
G1 X89.24 Y164.509 E33.8221
G1 X89.227 Y163.9 E33.84236
G1 X89.228 Y89.778 E36.30767
G1 X89.237 Y89.113 E36.32979
G1 X89.289 Y88.211 E36.35984
G1 X89.421 Y87.318 E36.38986
G1 X89.631 Y86.44 E36.41989
G1 X89.918 Y85.583 E36.44995
G1 X90.28 Y84.756 E36.47998
G1 X90.713 Y83.964 E36.51
G1 X91.215 Y83.213 E36.54004
G1 X91.782 Y82.509 E36.57011
G1 F1500 E30.07011
;MESH:Body1.3mf
G0 F9000 X119.333 Y109.292
G0 X121.93 Y113.874
;TYPE:WALL-INNER
G1 F1500 E36.57011
G1 F3000 X121.251 Y113.912 E36.59273
G1 X120.611 Y113.793 E36.61438
G1 X119.978 Y113.495 E36.63765
G1 X119.475 Y113.078 E36.65938
G1 X119.07 Y112.51 E36.68258
G1 X118.83 Y111.897 E36.70448
G1 X118.748 Y111.232 E36.72676
G1 X118.829 Y110.586 E36.74842
G1 X119.07 Y109.974 E36.77029
G1 X119.482 Y109.399 E36.79382
G1 X119.997 Y108.976 E36.81599
G1 X120.609 Y108.691 E36.83844
G1 X121.252 Y108.568 E36.86021
G1 X121.938 Y108.612 E36.88308
G1 X122.545 Y108.811 E36.90432
G1 X123.136 Y109.178 E36.92746
G1 X123.603 Y109.675 E36.95015
G1 X123.91 Y110.243 E36.97162
G1 X124.087 Y110.911 E36.9946
G1 X124.086 Y111.583 E37.01696
G1 X123.917 Y112.223 E37.03897
G1 X123.606 Y112.804 E37.06089
G1 X123.139 Y113.305 E37.08367
G1 X122.565 Y113.666 E37.10622
G1 X121.93 Y113.874 E37.12845
G1 F1500 E30.62845
G0 F9000 X121.964 Y113.97
G0 X122.642 Y113.829
G0 X126.691 Y119.088
G0 X137.294 Y139.337
G1 F1500 E37.12845
G1 F3000 X135.919 Y139.303 E37.17419
G1 X134.597 Y139.125 E37.21856
G1 X133.284 Y138.805 E37.26351
G1 X132.033 Y138.353 E37.30775
G1 X130.847 Y137.779 E37.35157
G1 X129.68 Y137.051 E37.39732
G1 X128.652 Y136.245 E37.44077
G1 X127.669 Y135.289 E37.48638
G1 X126.79 Y134.228 E37.5322
G1 X126.073 Y133.143 E37.57546
G1 X125.465 Y131.974 E37.61928
G1 X124.963 Y130.7 E37.66483
G1 X124.61 Y129.408 E37.70937
G1 X124.399 Y128.086 E37.7539
G1 X124.328 Y126.71 E37.79973
G1 X124.396 Y125.431 E37.84233
G1 X124.61 Y124.076 E37.88795
G1 X124.963 Y122.784 E37.9325
G1 X125.451 Y121.54 E37.97695
G1 X126.073 Y120.341 E38.02187
G1 X126.829 Y119.204 E38.06728
G1 X127.674 Y118.189 E38.11121
G1 X128.627 Y117.26 E38.15548
G1 X129.68 Y116.433 E38.20001
G1 X130.821 Y115.719 E38.24478
G1 X132.033 Y115.131 E38.28958
G1 X133.284 Y114.679 E38.33382
G1 X134.597 Y114.359 E38.37877
G1 X135.919 Y114.181 E38.42314
G1 X137.294 Y114.147 E38.46889
G1 X138.571 Y114.249 E38.51149
G1 X139.91 Y114.499 E38.5568
G1 X141.235 Y114.902 E38.60286
G1 X142.405 Y115.394 E38.64508
G1 X143.613 Y116.061 E38.69097
G1 X144.732 Y116.851 E38.73653
G1 X145.719 Y117.718 E38.78023
G1 X146.624 Y118.695 E38.82452
G1 X147.433 Y119.782 E38.86959
G1 X148.09 Y120.897 E38.91263
G1 X148.666 Y122.162 E38.95886
G1 X149.081 Y123.421 E39.00295
G1 X149.367 Y124.737 E39.04775
G1 X149.51 Y126.068 E39.09227
G1 X149.51 Y127.416 E39.1371
G1 X149.367 Y128.747 E39.18163
G1 X149.081 Y130.063 E39.22642
G1 X148.666 Y131.322 E39.27051
G1 X148.09 Y132.587 E39.31674
G1 X147.433 Y133.702 E39.35979
G1 X146.603 Y134.812 E39.40588
G1 X145.692 Y135.793 E39.45041
G1 X144.712 Y136.651 E39.49373
G1 X143.613 Y137.423 E39.5384
G1 X142.433 Y138.077 E39.58328
G1 X141.235 Y138.582 E39.62652
G1 X139.91 Y138.985 E39.67258
G1 X138.571 Y139.235 E39.71788
G1 X137.294 Y139.337 E39.76049
G1 F1500 E33.26049
G0 F9000 X137.128 Y139.436
G0 X139.914 Y139.169
G0 X149.653 Y142.942
G0 X152.249 Y144.915
G1 F1500 E39.76049
G1 F3000 X151.61 Y144.793 E39.78213
G1 X150.996 Y144.508 E39.80464
G1 X150.479 Y144.077 E39.82703
G1 X150.074 Y143.526 E39.84978
G1 X149.83 Y142.904 E39.872
G1 X149.747 Y142.237 E39.89435
G1 X149.832 Y141.59 E39.91606
G1 X150.08 Y140.947 E39.93898
G1 X150.475 Y140.407 E39.96123
G1 X150.984 Y139.989 E39.98314
G1 X151.583 Y139.701 E40.00525
G1 X152.245 Y139.569 E40.0277
G1 X152.927 Y139.614 E40.05043
G1 X153.561 Y139.813 E40.07253
G1 X154.141 Y140.183 E40.09541
G1 X154.592 Y140.666 E40.11739
G1 X154.921 Y141.26 E40.13998
G1 X155.085 Y141.899 E40.16192
G1 X155.085 Y142.552 E40.18364
G1 X154.923 Y143.22 E40.2065
G1 X154.595 Y143.821 E40.22927
G1 X154.142 Y144.302 E40.25125
G1 X153.569 Y144.667 E40.27384
G1 X152.903 Y144.874 E40.29704
G1 X152.249 Y144.915 E40.31884
G1 F1500 E33.81884
G0 F9000 X152.352 Y145.012
G0 X153.639 Y144.836
G0 X153.639 Y163.442
G0 X173.827 Y163.642
G1 F1500 E40.31884
G1 F3000 X173.827 Y89.842 E42.77343
G1 X100.027 Y89.842 E45.22803
G1 X100.027 Y163.642 E47.68263
G1 X173.827 Y163.642 E50.13723
G1 F1500 E43.63723
G0 F9000 X173.627 Y114.013
G0 X154.252 Y113.447
G0 X152.244 Y113.915
G1 F1500 E50.13723
G1 F3000 X151.613 Y113.79 E50.15862
G1 X150.989 Y113.504 E50.18145
G1 X150.473 Y113.075 E50.20377
G1 X150.083 Y112.534 E50.22595
G1 X149.832 Y111.894 E50.24882
G1 X149.746 Y111.246 E50.27056
G1 X149.834 Y110.584 E50.29277
G1 X150.073 Y109.96 E50.315
G1 X150.479 Y109.407 E50.33781
G1 X150.997 Y108.976 E50.36023
G1 X151.609 Y108.691 E50.38268
G1 X152.252 Y108.568 E50.40445
G1 X152.938 Y108.612 E50.42732
G1 X153.545 Y108.811 E50.44856
G1 X154.129 Y109.172 E50.4714
G1 X154.592 Y109.666 E50.49392
G1 X154.921 Y110.26 E50.5165
G1 X155.085 Y110.899 E50.53845
G1 X155.085 Y111.552 E50.56016
G1 X154.923 Y112.22 E50.58303
G1 X154.595 Y112.822 E50.60583
G1 X154.133 Y113.308 E50.62813
G1 X153.57 Y113.667 E50.65034
G1 X152.925 Y113.875 E50.67288
G1 X152.244 Y113.915 E50.69557
G1 F1500 E44.19557
G0 F9000 X152.227 Y114.013
G0 X150.891 Y113.657
G0 X124.079 Y141.168
G0 X121.903 Y144.874
G1 F1500 E50.69557
G1 F3000 X121.249 Y144.915 E50.71736
G1 X120.61 Y144.793 E50.739
G1 X119.997 Y144.508 E50.76148
G1 X119.468 Y144.071 E50.78431
G1 X119.07 Y143.51 E50.80718
G1 X118.83 Y142.897 E50.82908
G1 X118.748 Y142.232 E50.85137
G1 X118.829 Y141.586 E50.87302
G1 X119.07 Y140.974 E50.8949
G1 X119.475 Y140.406 E50.9181
G1 X119.978 Y139.989 E50.93983
G1 X120.587 Y139.699 E50.96226
G1 X121.251 Y139.572 E50.98475
G1 X121.931 Y139.61 E51.0074
G1 X122.565 Y139.82 E51.02962
G1 X123.139 Y140.179 E51.05213
G1 X123.588 Y140.655 E51.0739
G1 X123.917 Y141.261 E51.09683
G1 X124.086 Y141.901 E51.11885
G1 X124.087 Y142.573 E51.1412
G1 X123.91 Y143.241 E51.16418
G1 X123.601 Y143.811 E51.18575
G1 X123.137 Y144.306 E51.20831
G1 X122.569 Y144.667 E51.2307
G1 X121.903 Y144.874 E51.25389
G0 F9000 X121.861 Y144.475
;TYPE:WALL-OUTER
G1 F3000 X121.294 Y144.513 E51.2728
G1 X120.733 Y144.408 E51.29178
G1 X120.212 Y144.166 E51.31088
G1 X119.775 Y143.807 E51.3297
G1 X119.428 Y143.332 E51.34926
G1 X119.219 Y142.791 E51.36855
G1 X119.153 Y142.216 E51.3878
G1 X119.221 Y141.686 E51.40557
G1 X119.428 Y141.152 E51.42462
G1 X119.762 Y140.691 E51.44356
G1 X120.201 Y140.325 E51.46257
G1 X120.719 Y140.08 E51.48162
G1 X121.272 Y139.972 E51.50036
G1 X121.846 Y140.006 E51.51949
G1 X122.397 Y140.183 E51.53874
G1 X122.876 Y140.487 E51.55761
G1 X123.283 Y140.924 E51.57747
G1 X123.547 Y141.414 E51.59598
G1 X123.686 Y141.973 E51.61514
G1 X123.687 Y142.501 E51.6327
G1 X123.545 Y143.075 E51.65237
G1 X123.266 Y143.586 E51.67173
G1 X122.869 Y144.003 E51.69088
G1 X122.406 Y144.299 E51.70916
G1 X121.861 Y144.475 E51.72821
G1 F1500 E45.22821
G0 F9000 X121.952 Y144.761
G0 X122.497 Y144.521
G0 X123.032 Y144.182
G0 X123.276 Y143.922
G0 X124.268 Y142.602
G0 X133.189 Y138.963
G0 X137.24 Y138.938
G1 F1500 E51.72821
G1 F3000 X135.941 Y138.903 E51.77143
G1 X134.658 Y138.729 E51.81449
G1 X133.388 Y138.418 E51.85798
G1 X132.187 Y137.984 E51.90045
G1 X131.006 Y137.41 E51.94413
G1 X129.901 Y136.717 E51.98751
G1 X128.883 Y135.916 E52.03059
G1 X127.961 Y135.015 E52.07347
G1 X127.13 Y134.016 E52.11669
G1 X126.417 Y132.939 E52.15965
G1 X125.815 Y131.78 E52.20309
G1 X125.343 Y130.575 E52.24613
G1 X125 Y129.315 E52.28957
G1 X124.796 Y128.033 E52.33274
G1 X124.728 Y126.731 E52.3761
G1 X124.798 Y125.431 E52.41941
G1 X125.002 Y124.159 E52.46225
G1 X125.343 Y122.909 E52.50535
G1 X125.815 Y121.704 E52.54839
G1 X126.417 Y120.545 E52.59183
G1 X127.13 Y119.468 E52.63479
G1 X127.975 Y118.453 E52.67872
G1 X128.899 Y117.554 E52.72159
G1 X129.918 Y116.755 E52.76466
G1 X131.025 Y116.064 E52.80807
G1 X132.197 Y115.496 E52.85138
G1 X133.408 Y115.06 E52.89419
G1 X134.679 Y114.751 E52.9377
G1 X135.951 Y114.58 E52.98038
G1 X137.262 Y114.546 E53.024
G1 X138.561 Y114.651 E53.06735
G1 X139.827 Y114.891 E53.11021
G1 X141.08 Y115.271 E53.15376
G1 X142.249 Y115.762 E53.19593
G1 X143.41 Y116.406 E53.24009
G1 X144.46 Y117.145 E53.28279
