;FLAVOR:Marlin
;TIME:4384
;Filament used: 2.94421m
;Layer height: 0.2
;MINX:108.801
;MINY:112.325
;MINZ:0.2
;MAXX:157.795
;MAXY:161.319
;MAXZ:27.2
;Generated with Cura_SteamEngine 5.4.0
M104 S228
M105
M109 S228
M82 ;absolute extrusion mode
M201 X500.00 Y500.00 Z100.00 E5000.00 ;Setup machine max acceleration
M203 X500.00 Y500.00 Z10.00 E50.00 ;Setup machine max feedrate
M204 P500.00 R1000.00 T500.00 ;Setup Print/Retract/Travel acceleration
M205 X8.00 Y8.00 Z0.40 E5.00 ;Setup Jerk
M220 S100 ;Reset Feedrate
M221 S100 ;Reset Flowrate

G28 ;Home

G92 E0 ;Reset Extruder
G1 Z2.0 F3000 ;Move Z Axis up
G1 X10.1 Y20 Z0.28 F5000.0 ;Move to start position
G1 X10.1 Y200.0 Z0.28 F1500.0 E15 ;Draw the first line
G1 X10.4 Y200.0 Z0.28 F5000.0 ;Move to side a little
G1 X10.4 Y20 Z0.28 F1500.0 E30 ;Draw the second line
G92 E0 ;Reset Extruder
G1 Z2.0 F3000 ;Move Z Axis up

G92 E0
G92 E0
G1 F1500 E-6.5
;LAYER_COUNT:136
;LAYER:0
M107
G0 F6000 X118.94 Y122.109 Z0.2
;TYPE:SKIRT
G1 F1500 E0
G1 F1200 X119.696 Y121.407 E0.03431
G1 X120.426 Y120.792 E0.06606
G1 X121.185 Y120.208 E0.09791
G1 X121.97 Y119.659 E0.12977
G1 X122.699 Y119.193 E0.15855
G1 X123.252 Y118.87 E0.17985
G1 X123.825 Y118.554 E0.20162
G1 X124.37 Y118.279 E0.22192
G1 X125.27 Y117.863 E0.2549
G1 X125.612 Y117.716 E0.26728
G1 X126.524 Y117.374 E0.29967
G1 X127.462 Y117.114 E0.33205
G1 X128.42 Y116.938 E0.36444
G1 X129.39 Y116.847 E0.39685
G1 X130.293 Y116.84 E0.42688
G1 X131.263 Y116.915 E0.45924
G1 X132.291 Y117.091 E0.49393
G1 X133.17 Y117.322 E0.52416
G1 X133.809 Y117.518 E0.54639
G1 X135.263 Y117.988 E0.59721
G1 X137.711 Y118.707 E0.68207
G1 X140.139 Y119.344 E0.76556
G1 X142.627 Y119.925 E0.85054
G1 X143.741 Y120.161 E0.88841
G1 X144.684 Y120.407 E0.92083
G1 X145.6 Y120.736 E0.9532
G1 X146.42 Y121.112 E0.9832
G1 X147.329 Y121.632 E1.01803
G1 X148.125 Y122.19 E1.05037
G1 X148.871 Y122.817 E1.08278
G1 X149.535 Y123.482 E1.11403
G1 X150.239 Y124.331 E1.15072
G1 X150.659 Y124.901 E1.17427
G1 X150.949 Y125.316 E1.19111
G1 X151.351 Y125.937 E1.21571
G1 X151.823 Y126.722 E1.24618
G1 X152.261 Y127.529 E1.27672
G1 X152.688 Y128.414 E1.3094
G1 X153.062 Y129.283 E1.34086
G1 X153.394 Y130.16 E1.37205
G1 X153.675 Y131.011 E1.40186
G1 X153.857 Y131.654 E1.42409
G1 X154.016 Y132.267 E1.44515
G1 X154.14 Y132.836 E1.46452
G1 X154.266 Y133.493 E1.48677
G1 X154.37 Y134.128 E1.50817
G1 X154.455 Y134.833 E1.53179
G1 X154.537 Y135.747 E1.56231
G1 X154.577 Y136.62 E1.59138
G1 X154.581 Y137.324 E1.61479
G1 X154.567 Y137.985 E1.63678
G1 X154.535 Y138.568 E1.6562
G1 X154.483 Y139.18 E1.67663
G1 X154.404 Y139.894 E1.70052
G1 X154.246 Y140.853 E1.73285
G1 X154.013 Y141.764 E1.76413
G1 X153.677 Y142.716 E1.7977
G1 X153.272 Y143.602 E1.83011
G1 X152.792 Y144.448 E1.86246
G1 X152.28 Y145.192 E1.8925
G1 X151.636 Y145.971 E1.92611
G1 X150.882 Y146.728 E1.96165
G1 X149.301 Y148.165 E2.03271
G1 X147.479 Y149.904 E2.11648
G1 X145.714 Y151.689 E2.19997
G1 X143.953 Y153.571 E2.2857
G1 X143.223 Y154.382 E2.32199
G1 X142.539 Y155.076 E2.3544
G1 X141.824 Y155.684 E2.38562
G1 X141 Y156.268 E2.41921
G1 X140.158 Y156.755 E2.45156
G1 X139.276 Y157.168 E2.48395
G1 X138.428 Y157.479 E2.51399
G1 X137.408 Y157.752 E2.54911
G1 X136.191 Y157.948 E2.59011
G1 X135.333 Y158.035 E2.6188
G1 X134.463 Y158.089 E2.64779
G1 X133.546 Y158.107 E2.67829
G1 X132.566 Y158.081 E2.7109
G1 X131.572 Y158.008 E2.74405
G1 X130.602 Y157.892 E2.77654
G1 X129.728 Y157.746 E2.80601
G1 X128.778 Y157.544 E2.83832
G1 X127.84 Y157.3 E2.87055
G1 X127.012 Y157.048 E2.89934
G1 X126.413 Y156.838 E2.92045
G1 X125.814 Y156.612 E2.94174
G1 X125.149 Y156.331 E2.96576
G1 X124.331 Y155.95 E2.99577
G1 X123.463 Y155.496 E3.02835
G1 X122.646 Y155.02 E3.0598
G1 X121.9 Y154.544 E3.08923
G1 X121.334 Y154.148 E3.11221
G1 X120.778 Y153.739 E3.13516
G1 X120.026 Y153.119 E3.16758
G1 X119.333 Y152.437 E3.19992
G1 X118.724 Y151.723 E3.23113
G1 X118.14 Y150.899 E3.26472
G1 X117.65 Y150.058 E3.2971
G1 X117.235 Y149.176 E3.32952
G1 X116.912 Y148.296 E3.3607
G1 X116.666 Y147.396 E3.39173
G1 X116.467 Y146.519 E3.42164
G1 X116.204 Y145.282 E3.4637
G1 X115.611 Y142.835 E3.54744
G1 X114.955 Y140.431 E3.63033
G1 X114.204 Y137.948 E3.7166
G1 X113.835 Y136.812 E3.75633
G1 X113.595 Y135.942 E3.78635
G1 X113.408 Y134.914 E3.8211
G1 X113.321 Y133.945 E3.85346
G1 X113.318 Y133.006 E3.88469
G1 X113.406 Y132.001 E3.91825
G1 X113.577 Y131.041 E3.95068
G1 X113.833 Y130.099 E3.98315
G1 X114.193 Y129.131 E4.0175
G1 X114.496 Y128.436 E4.04271
G1 X114.681 Y128.04 E4.05725
G1 X114.967 Y127.471 E4.07843
G1 X115.283 Y126.887 E4.10052
G1 X115.604 Y126.327 E4.12199
G1 X115.981 Y125.731 E4.14544
G1 X116.514 Y124.944 E4.17706
G1 X117.034 Y124.241 E4.20614
G1 X117.418 Y123.764 E4.22651
G1 X117.863 Y123.239 E4.2494
G1 X118.33 Y122.731 E4.27235
G1 X118.94 Y122.109 E4.30132
G0 F6000 X119.226 Y122.389
G1 F1200 X119.954 Y121.713 E4.33437
G1 X120.67 Y121.109 E4.36552
G1 X121.414 Y120.536 E4.39676
G1 X122.186 Y119.996 E4.42809
G1 X122.901 Y119.538 E4.45633
G1 X123.445 Y119.22 E4.47729
G1 X124.005 Y118.911 E4.49856
G1 X124.538 Y118.642 E4.51842
G1 X125.428 Y118.23 E4.55104
G1 X125.753 Y118.09 E4.56281
G1 X126.632 Y117.759 E4.59405
G1 X127.535 Y117.507 E4.62523
G1 X128.458 Y117.336 E4.65645
G1 X129.393 Y117.247 E4.68769
G1 X130.296 Y117.24 E4.71773
G1 X131.231 Y117.314 E4.74892
G1 X132.19 Y117.478 E4.78128
G1 X133.052 Y117.704 E4.81092
G1 X133.686 Y117.899 E4.83298
G1 X135.142 Y118.37 E4.88388
G1 X137.602 Y119.092 E4.96915
G1 X140.048 Y119.734 E5.05326
G1 X142.536 Y120.314 E5.13823
G1 X143.64 Y120.548 E5.17577
G1 X144.549 Y120.784 E5.207
G1 X145.433 Y121.1 E5.23823
G1 X146.253 Y121.476 E5.26823
G1 X147.1 Y121.96 E5.30068
G1 X147.868 Y122.497 E5.33184
G1 X148.588 Y123.1 E5.36308
G1 X149.227 Y123.738 E5.39311
G1 X149.917 Y124.569 E5.42904
G1 X150.331 Y125.13 E5.45223
G1 X150.613 Y125.533 E5.46859
G1 X151.008 Y126.143 E5.49276
G1 X151.471 Y126.913 E5.52264
G1 X151.909 Y127.72 E5.55318
G1 X152.321 Y128.572 E5.58466
G1 X152.688 Y129.425 E5.61554
G1 X153.014 Y130.286 E5.64616
G1 X153.29 Y131.12 E5.67538
G1 X153.47 Y131.755 E5.69734
G1 X153.625 Y132.352 E5.71785
G1 X153.747 Y132.911 E5.73688
G1 X153.871 Y133.558 E5.75879
G1 X153.973 Y134.176 E5.77962
G1 X154.057 Y134.868 E5.80281
G1 X154.137 Y135.766 E5.83279
G1 X154.177 Y136.622 E5.8613
G1 X154.181 Y137.316 E5.88438
G1 X154.168 Y137.963 E5.9059
G1 X154.136 Y138.534 E5.92492
G1 X154.085 Y139.136 E5.94502
G1 X154.009 Y139.83 E5.96824
G1 X153.858 Y140.755 E5.99941
G1 X153.636 Y141.631 E6.02947
G1 X153.313 Y142.55 E6.06187
G1 X152.924 Y143.405 E6.09311
G1 X152.462 Y144.221 E6.1243
G1 X151.95 Y144.965 E6.15434
G1 X151.352 Y145.689 E6.18557
G1 X150.613 Y146.432 E6.22042
G1 X149.032 Y147.869 E6.29148
G1 X147.203 Y149.615 E6.37559
G1 X145.422 Y151.416 E6.45983
G1 X143.661 Y153.298 E6.54555
G1 X142.938 Y154.102 E6.58152
G1 X142.28 Y154.771 E6.61273
G1 X141.565 Y155.379 E6.64394
G1 X140.799 Y155.922 E6.67517
G1 X139.988 Y156.393 E6.70637
G1 X139.138 Y156.792 E6.7376
G1 X138.29 Y157.103 E6.76764
G1 X137.344 Y157.357 E6.80022
G1 X136.15 Y157.55 E6.84045
G1 X135.308 Y157.636 E6.8686
G1 X134.455 Y157.689 E6.89702
G1 X133.556 Y157.707 E6.92693
G1 X132.595 Y157.682 E6.9589
G1 X131.62 Y157.611 E6.99142
G1 X130.668 Y157.497 E7.02331
G1 X129.794 Y157.351 E7.05278
G1 X128.879 Y157.157 E7.08389
G1 X127.956 Y156.917 E7.11561
G1 X127.144 Y156.67 E7.14384
G1 X126.554 Y156.464 E7.16462
G1 X125.97 Y156.244 E7.18538
G1 X125.318 Y155.968 E7.20893
G1 X124.5 Y155.587 E7.23894
G1 X123.664 Y155.15 E7.27032
G1 X122.861 Y154.683 E7.30121
G1 X122.129 Y154.216 E7.33009
G1 X121.571 Y153.826 E7.35273
G1 X121.032 Y153.43 E7.37498
G1 X120.306 Y152.834 E7.40622
G1 X119.637 Y152.177 E7.43741
G1 X119.028 Y151.463 E7.46862
G1 X118.485 Y150.697 E7.49985
G1 X118.012 Y149.887 E7.53105
G1 X117.611 Y149.038 E7.56228
G1 X117.288 Y148.158 E7.59346
G1 X117.056 Y147.307 E7.62279
G1 X116.858 Y146.436 E7.6525
G1 X116.593 Y145.188 E7.69494
G1 X116 Y142.741 E7.77868
G1 X115.341 Y140.326 E7.86194
G1 X114.587 Y137.832 E7.9486
G1 X114.221 Y136.706 E7.98798
G1 X113.981 Y135.836 E8.01799
G1 X113.806 Y134.878 E8.05038
G1 X113.721 Y133.944 E8.08158
G1 X113.718 Y133.005 E8.11281
G1 X113.8 Y132.07 E8.14403
G1 X113.963 Y131.145 E8.17527
G1 X114.208 Y130.238 E8.20652
G1 X114.56 Y129.291 E8.24012
G1 X114.859 Y128.605 E8.26501
G1 X115.039 Y128.219 E8.27917
G1 X115.319 Y127.661 E8.29994
G1 X115.63 Y127.086 E8.32168
G1 X115.942 Y126.541 E8.34257
G1 X116.312 Y125.955 E8.36562
G1 X116.835 Y125.182 E8.39666
G1 X117.346 Y124.492 E8.42522
G1 X117.73 Y124.015 E8.44558
G1 X118.157 Y123.51 E8.46758
G1 X118.616 Y123.011 E8.49013
G1 X119.226 Y122.389 E8.51911
G0 F6000 X119.512 Y122.669
G1 F1200 X120.212 Y122.019 E8.55088
G1 X120.914 Y121.426 E8.58144
G1 X121.644 Y120.864 E8.61208
G1 X122.402 Y120.333 E8.64287
G1 X123.103 Y119.883 E8.67057
G1 X123.638 Y119.57 E8.69119
G1 X124.185 Y119.268 E8.71197
G1 X124.706 Y119.005 E8.73138
G1 X125.586 Y118.597 E8.76364
G1 X125.895 Y118.464 E8.77483
G1 X126.74 Y118.144 E8.80488
G1 X127.609 Y117.9 E8.83491
G1 X128.497 Y117.734 E8.86495
G1 X129.396 Y117.647 E8.89499
G1 X130.299 Y117.64 E8.92503
G1 X131.199 Y117.713 E8.95506
G1 X132.089 Y117.865 E8.98509
G1 X132.934 Y118.086 E9.01414
G1 X133.563 Y118.28 E9.03603
G1 X135.021 Y118.752 E9.087
G1 X137.493 Y119.477 E9.17269
G1 X139.957 Y120.124 E9.25742
G1 X142.445 Y120.703 E9.34238
G1 X143.54 Y120.935 E9.37961
G1 X144.415 Y121.161 E9.40967
G1 X145.266 Y121.464 E9.43971
G1 X146.086 Y121.84 E9.46971
G1 X146.871 Y122.288 E9.49978
G1 X147.612 Y122.804 E9.52981
G1 X148.305 Y123.383 E9.55984
G1 X148.944 Y124.021 E9.58988
G1 X149.595 Y124.806 E9.6238
G1 X150.003 Y125.36 E9.64668
G1 X150.277 Y125.751 E9.66256
G1 X150.665 Y126.349 E9.68627
G1 X151.119 Y127.104 E9.71557
G1 X151.557 Y127.911 E9.74611
G1 X151.954 Y128.73 E9.77638
G1 X152.314 Y129.567 E9.80669
G1 X152.634 Y130.412 E9.83674
G1 X152.905 Y131.23 E9.8654
G1 X153.083 Y131.855 E9.88702
G1 X153.234 Y132.437 E9.90701
G1 X153.354 Y132.986 E9.9257
G1 X153.476 Y133.624 E9.94731
G1 X153.576 Y134.225 E9.96757
G1 X153.659 Y134.903 E9.99029
G1 X153.737 Y135.785 E10.01974
G1 X153.777 Y136.624 E10.04768
G1 X153.781 Y137.308 E10.07043
G1 X153.769 Y137.94 E10.09145
G1 X153.737 Y138.5 E10.11011
G1 X153.687 Y139.093 E10.1299
G1 X153.614 Y139.766 E10.15242
G1 X153.47 Y140.657 E10.18244
G1 X153.248 Y141.533 E10.21249
G1 X152.949 Y142.385 E10.24253
G1 X152.576 Y143.208 E10.27258
G1 X152.132 Y143.994 E10.3026
G1 X151.62 Y144.738 E10.33264
G1 X151.044 Y145.434 E10.36269
G1 X150.344 Y146.136 E10.39566
G1 X148.763 Y147.573 E10.46672
G1 X146.927 Y149.326 E10.55115
G1 X145.13 Y151.143 E10.63615
G1 X143.363 Y153.031 E10.72216
G1 X142.653 Y153.822 E10.75751
G1 X142.02 Y154.467 E10.78757
G1 X141.333 Y155.053 E10.8176
G1 X140.597 Y155.576 E10.84763
G1 X139.817 Y156.031 E10.87767
G1 X139 Y156.416 E10.90771
G1 X138.152 Y156.727 E10.93775
G1 X137.28 Y156.962 E10.96779
G1 X136.109 Y157.152 E11.00724
G1 X135.283 Y157.237 E11.03486
G1 X134.447 Y157.289 E11.06272
G1 X133.566 Y157.307 E11.09203
G1 X132.624 Y157.283 E11.12337
G1 X131.668 Y157.214 E11.15525
G1 X130.733 Y157.102 E11.18657
G1 X129.877 Y156.96 E11.21543
G1 X128.98 Y156.77 E11.24593
G1 X128.072 Y156.534 E11.27713
G1 X127.276 Y156.292 E11.3048
G1 X126.686 Y156.086 E11.32559
G1 X126.126 Y155.876 E11.34548
G1 X125.487 Y155.605 E11.36856
G1 X124.685 Y155.232 E11.39798
G1 X123.865 Y154.804 E11.42875
G1 X123.076 Y154.346 E11.45909
G1 X122.358 Y153.888 E11.48742
G1 X121.808 Y153.504 E11.50973
G1 X121.285 Y153.12 E11.53131
G1 X120.586 Y152.548 E11.56135
G1 X119.941 Y151.917 E11.59136
G1 X119.354 Y151.231 E11.62139
G1 X118.83 Y150.495 E11.65144
G1 X118.373 Y149.716 E11.68148
G1 X117.986 Y148.9 E11.71151
G1 X117.674 Y148.053 E11.74154
G1 X117.446 Y147.218 E11.77033
G1 X117.249 Y146.353 E11.79983
G1 X116.982 Y145.094 E11.84264
G1 X116.389 Y142.647 E11.92638
G1 X115.727 Y140.221 E12.01002
G1 X114.969 Y137.716 E12.09707
G1 X114.607 Y136.6 E12.13609
G1 X114.367 Y135.73 E12.16611
G1 X114.204 Y134.841 E12.19617
G1 X114.121 Y133.942 E12.2262
G1 X114.117 Y133.039 E12.25623
G1 X114.194 Y132.139 E12.28627
G1 X114.349 Y131.249 E12.31632
G1 X114.583 Y130.377 E12.34635
G1 X114.935 Y129.43 E12.37995
G1 X115.222 Y128.774 E12.40377
G1 X115.397 Y128.398 E12.41756
G1 X115.671 Y127.851 E12.43791
G1 X115.977 Y127.285 E12.45931
G1 X116.281 Y126.754 E12.47966
G1 X116.643 Y126.179 E12.50226
G1 X117.157 Y125.42 E12.53275
G1 X117.658 Y124.743 E12.56076
G1 X118.042 Y124.266 E12.58113
G1 X118.452 Y123.781 E12.60225
G1 X118.902 Y123.291 E12.62438
G1 X119.512 Y122.669 E12.65335
G1 F1500 E6.15335
;MESH:Wheel.3mf
G0 F6000 X130.218 Y136.542
G0 X131.931 Y139.872
;TYPE:WALL-INNER
G1 F1500 E12.65335
G1 F1200 X131.699 Y139.762 E12.66189
G1 X131.242 Y139.367 E12.68198
G1 X130.87 Y138.894 E12.702
G1 X130.607 Y138.39 E12.72091
G1 X130.423 Y137.811 E12.74111
G1 X130.345 Y137.174 E12.76246
G1 X130.397 Y136.572 E12.78256
G1 X130.568 Y135.952 E12.80395
G1 X130.817 Y135.437 E12.82297
G1 X131.16 Y134.975 E12.84211
G1 X131.611 Y134.553 E12.86265
G1 X132.126 Y134.222 E12.88302
G1 X132.704 Y133.997 E12.90365
G1 X133.297 Y133.885 E12.92372
G1 X133.92 Y133.89 E12.94444
G1 X134.478 Y133.995 E12.96332
G1 X135.061 Y134.217 E12.98407
G1 X135.573 Y134.539 E13.00419
G1 X136.018 Y134.946 E13.02425
G1 X136.378 Y135.43 E13.04431
G1 X136.644 Y135.985 E13.06478
G1 X136.8 Y136.559 E13.08456
G1 X136.853 Y137.166 E13.10483
G1 X136.787 Y137.774 E13.12517
G1 X136.608 Y138.356 E13.14542
G1 X136.333 Y138.886 E13.16528
G1 X135.943 Y139.375 E13.18609
G1 X135.504 Y139.759 E13.20549
G1 X135.217 Y139.871 E13.21573
G1 X131.931 Y139.872 E13.32503
G1 F1500 E6.82503
G0 F6000 X131.248 Y139.504
G0 X131.764 Y139.671
G0 X134.608 Y140.07
G0 X135.279 Y144.553
G0 X134.642 Y146.455
G1 F1500 E13.32503
G1 F1200 X134.916 Y145.752 E13.35012
G1 X135.436 Y144.681 E13.38972
G1 X136.048 Y143.656 E13.42942
G1 X136.73 Y142.699 E13.46851
G1 X137.491 Y141.802 E13.50763
G1 X138.306 Y140.99 E13.5459
G1 X139.17 Y140.26 E13.58352
G1 X140.116 Y139.582 E13.62223
G1 X141.157 Y138.961 E13.66255
G1 X142.211 Y138.448 E13.70154
G1 X142.93 Y138.167 E13.72721
G1 X142.982 Y137.666 E13.74396
G1 X142.992 Y136.79 E13.7731
G1 X142.927 Y135.968 E13.80053
G1 X142.777 Y135.095 E13.82999
G1 X142.564 Y134.299 E13.85739
G1 X142.263 Y133.48 E13.88642
G1 X141.897 Y132.71 E13.91477
G1 X141.47 Y131.989 E13.94264
G1 X141.157 Y131.555 E13.96044
G1 X140.365 Y131.675 E13.98708
G1 X139.25 Y131.754 E14.02426
G1 X138.031 Y131.738 E14.06481
G1 X136.908 Y131.631 E14.10233
G1 X135.746 Y131.422 E14.1416
G1 X134.623 Y131.124 E14.18024
G1 X133.518 Y130.728 E14.21928
G1 X132.415 Y130.225 E14.2596
G1 X131.444 Y129.683 E14.29659
G1 X130.476 Y129.031 E14.33541
G1 X129.838 Y128.521 E14.36257
G1 X129.374 Y128.73 E14.3795
G1 X128.628 Y129.148 E14.40794
G1 X127.915 Y129.639 E14.43673
G1 X127.271 Y130.174 E14.46458
G1 X126.661 Y130.785 E14.4933
G1 X126.113 Y131.442 E14.52175
G1 X125.628 Y132.147 E14.55021
G1 X125.216 Y132.877 E14.57809
G1 X124.997 Y133.363 E14.59582
G1 X125.493 Y133.981 E14.62218
G1 X126.151 Y134.958 E14.66136
G1 X126.712 Y135.962 E14.69961
G1 X127.205 Y137.048 E14.73928
G1 X127.584 Y138.096 E14.77634
G1 X127.891 Y139.241 E14.81577
G1 X128.108 Y140.435 E14.85614
G1 X128.213 Y141.532 E14.89279
G1 X128.231 Y142.711 E14.93201
G1 X128.146 Y143.926 E14.97252
G1 X128.029 Y144.681 E14.99793
G1 X128.456 Y144.988 E15.01542
G1 X129.178 Y145.418 E15.04337
G1 X129.948 Y145.783 E15.07171
G1 X130.764 Y146.084 E15.10064
G1 X131.564 Y146.3 E15.1282
G1 X132.435 Y146.45 E15.1576
G1 X133.262 Y146.517 E15.18519
G1 X134.13 Y146.508 E15.21406
G1 X134.642 Y146.455 E15.23118
G0 F6000 X134.926 Y146.828
;TYPE:WALL-OUTER
G1 F1200 X135.289 Y145.897 E15.26442
G1 X135.795 Y144.86 E15.3028
G1 X136.374 Y143.888 E15.34043
G1 X137.036 Y142.957 E15.37842
G1 X137.774 Y142.085 E15.41642
G1 X138.564 Y141.296 E15.45355
G1 X139.441 Y140.556 E15.49172
G1 X140.362 Y139.899 E15.52935
G1 X141.367 Y139.303 E15.56821
G1 X142.357 Y138.821 E15.60483
G1 X143.304 Y138.451 E15.63865
G1 X143.382 Y137.689 E15.66413
G1 X143.392 Y136.776 E15.69449
