;FLAVOR:Marlin
;TIME:4384
;Filament used: 4.01395m
;Layer height: 0.2
;MINX:103.413
;MINY:89.774
;MINZ:0.2
;MAXX:176.91
;MAXY:163.267
;MAXZ:27.2
;Generated with Cura_SteamEngine 5.4.0
M140 S60
M105
M190 S60
M104 S200
M105
M109 S200
M82 ;absolute extrusion mode
M201 X500.00 Y500.00 Z100.00 E5000.00 ;Setup machine max acceleration
M203 X500.00 Y500.00 Z10.00 E50.00 ;Setup machine max feedrate
M204 P500.00 R1000.00 T500.00 ;Setup Print/Retract/Travel acceleration
M205 X8.00 Y8.00 Z0.40 E5.00 ;Setup Jerk
M220 S100 ;Reset Feedrate
M221 S100 ;Reset Flowrate

G28 ;Home

G92 E0 ;Reset Extruder
G1 Z2.0 F3000 ;Move Z Axis up
G1 X10.1 Y20 Z0.28 F5000.0 ;Move to start position
G1 X10.1 Y200.0 Z0.28 F1500.0 E15 ;Draw the first line
G1 X10.4 Y200.0 Z0.28 F5000.0 ;Move to side a little
G1 X10.4 Y20 Z0.28 F1500.0 E30 ;Draw the second line
G92 E0 ;Reset Extruder
G1 Z2.0 F3000 ;Move Z Axis up

G92 E0
G92 E0
G1 F1500 E-6.5
;LAYER_COUNT:136
;LAYER:0
M107
G0 F9000 X108.244 Y110.387 Z0.2
;TYPE:SKIRT
G1 F1500 E0
G1 F2400 X108.762 Y109.931 E0.02295
G1 X111.518 Y107.653 E0.14188
G1 X113.399 Y105.999 E0.22519
G1 X115.226 Y104.298 E0.30821
G1 X117.013 Y102.539 E0.39161
G1 X118.771 Y100.706 E0.47609
G1 X120.475 Y98.828 E0.56043
G1 X122.112 Y96.916 E0.64414
G1 X123.514 Y95.192 E0.71805
G1 X124.175 Y94.452 E0.75105
G1 X124.887 Y93.787 E0.78346
G1 X125.625 Y93.208 E0.81466
G1 X126.471 Y92.658 E0.84822
G1 X127.332 Y92.203 E0.88061
G1 X128.218 Y91.829 E0.91259
G1 X128.811 Y91.628 E0.93342
G1 X130.047 Y91.253 E0.97638
G1 X131.063 Y90.973 E1.01143
G1 X132.395 Y90.651 E1.05701
G1 X133.479 Y90.429 E1.09381
G1 X134.919 Y90.185 E1.14239
G1 X135.931 Y90.046 E1.17637
G1 X136.987 Y89.931 E1.2117
G1 X137.861 Y89.863 E1.24085
G1 X139.285 Y89.791 E1.28828
G1 X140.22 Y89.774 E1.31938
G1 X141.06 Y89.779 E1.34732
G1 X142.015 Y89.809 E1.3791
G1 X143.345 Y89.892 E1.42342
G1 X144.291 Y89.978 E1.45501
G1 X145.578 Y90.139 E1.49815
G1 X146.555 Y90.29 E1.53103
G1 X147.616 Y90.485 E1.56691
G1 X148.612 Y90.696 E1.60078
G1 X149.882 Y91.008 E1.64427
G1 X150.756 Y91.25 E1.67444
G1 X152.022 Y91.646 E1.71855
G1 X152.933 Y91.959 E1.75059
G1 X154.178 Y92.435 E1.79493
G1 X155.326 Y92.92 E1.83638
G1 X156.363 Y93.397 E1.87434
G1 X157.046 Y93.732 E1.89964
G1 X158.265 Y94.374 E1.94547
G1 X159.163 Y94.886 E1.97985
G1 X160.292 Y95.577 E2.02387
G1 X161.072 Y96.088 E2.05489
G1 X161.9 Y96.663 E2.08842
G1 X162.931 Y97.426 E2.13108
G1 X163.887 Y98.184 E2.17165
G1 X164.512 Y98.713 E2.19889
G1 X165.539 Y99.63 E2.24468
G1 X166.332 Y100.386 E2.28112
G1 X167.349 Y101.419 E2.32934
G1 X167.998 Y102.107 E2.36079
G1 X168.586 Y102.792 E2.39082
G1 X169.194 Y103.644 E2.42563
G1 X169.685 Y104.484 E2.45799
G1 X170.1 Y105.365 E2.49039
G1 X170.436 Y106.279 E2.52277
G1 X170.688 Y107.209 E2.55482
G1 X170.813 Y107.859 E2.57684
G1 X171.056 Y109.366 E2.62761
G1 X171.508 Y111.905 E2.71338
G1 X172.017 Y114.358 E2.79671
G1 X172.601 Y116.823 E2.88096
G1 X173.251 Y119.253 E2.96463
G1 X173.967 Y121.653 E3.04793
G1 X174.753 Y124.044 E3.13164
G1 X175.619 Y126.447 E3.2166
G1 X176.189 Y127.93 E3.26944
G1 X176.496 Y128.855 E3.30185
G1 X176.719 Y129.803 E3.33424
G1 X176.85 Y130.696 E3.36426
G1 X176.91 Y131.739 E3.39901
G1 X176.876 Y132.713 E3.43143
G1 X176.764 Y133.638 E3.46242
G1 X176.636 Y134.292 E3.48458
G1 X176.531 Y134.75 E3.50021
G1 X175.957 Y136.953 E3.57593
G1 X175.696 Y137.823 E3.60614
G1 X175.389 Y138.76 E3.63893
G1 X175 Y139.843 E3.67721
G1 X174.499 Y141.099 E3.72218
G1 X174.096 Y142.019 E3.75559
G1 X173.692 Y142.88 E3.78722
G1 X173.007 Y144.226 E3.83745
G1 X172.511 Y145.127 E3.87166
G1 X172.039 Y145.928 E3.90259
G1 X171.414 Y146.923 E3.94167
G1 X170.718 Y147.955 E3.98307
G1 X170.102 Y148.807 E4.01804
G1 X169.382 Y149.747 E4.05742
G1 X168.773 Y150.493 E4.08945
G1 X168.104 Y151.269 E4.12352
G1 X167.485 Y151.953 E4.15421
G1 X166.353 Y153.119 E4.20826
G1 X165.717 Y153.728 E4.23755
G1 X164.724 Y154.629 E4.28214
G1 X164.036 Y155.212 E4.31214
G1 X163.104 Y155.963 E4.35195
G1 X162.298 Y156.572 E4.38555
G1 X161.596 Y157.076 E4.41429
G1 X160.765 Y157.641 E4.44771
G1 X159.393 Y158.503 E4.5016
G1 X158.562 Y158.985 E4.53356
G1 X157.815 Y159.394 E4.56188
G1 X156.582 Y160.023 E4.60792
G1 X155.73 Y160.424 E4.63924
G1 X154.915 Y160.783 E4.66886
G1 X153.388 Y161.395 E4.72357
G1 X152.555 Y161.695 E4.75302
G1 X151.313 Y162.102 E4.79649
G1 X150.252 Y162.412 E4.83326
G1 X148.746 Y162.804 E4.88502
G1 X147.987 Y162.984 E4.91096
G1 X147.031 Y163.163 E4.94331
G1 X146.061 Y163.258 E4.97573
G1 X145.086 Y163.267 E5.00816
G1 X144.117 Y163.189 E5.04049
G1 X143.226 Y163.041 E5.07053
G1 X142.226 Y162.782 E5.10489
G1 X141.608 Y162.571 E5.12661
G1 X140.075 Y161.986 E5.18118
G1 X137.707 Y161.128 E5.26495
G1 X135.32 Y160.34 E5.34856
G1 X132.885 Y159.611 E5.4331
G1 X130.496 Y158.971 E5.51536
G1 X128.007 Y158.378 E5.60046
G1 X125.553 Y157.866 E5.68384
G1 X123.048 Y157.417 E5.76848
G1 X121.526 Y157.177 E5.81973
G1 X120.607 Y156.988 E5.85094
G1 X119.641 Y156.7 E5.88446
G1 X118.769 Y156.353 E5.91568
G1 X117.867 Y155.898 E5.94928
G1 X117.042 Y155.383 E5.98163
G1 X116.296 Y154.823 E6.01265
G1 X115.786 Y154.378 E6.03516
G1 X114.743 Y153.404 E6.08263
G1 X113.785 Y152.448 E6.12764
G1 X113.095 Y151.713 E6.16117
G1 X112.39 Y150.917 E6.19654
G1 X111.485 Y149.826 E6.24369
G1 X110.856 Y149.015 E6.27782
G1 X110.196 Y148.112 E6.31502
G1 X109.671 Y147.347 E6.34588
G1 X108.942 Y146.219 E6.39055
G1 X108.494 Y145.472 E6.41952
G1 X107.974 Y144.555 E6.45458
G1 X107.552 Y143.763 E6.48443
G1 X106.888 Y142.412 E6.5345
G1 X106.451 Y141.439 E6.56998
G1 X106.065 Y140.515 E6.60328
G1 X105.674 Y139.499 E6.63949
G1 X105.227 Y138.214 E6.68474
G1 X104.944 Y137.306 E6.71638
G1 X104.717 Y136.502 E6.74416
G1 X104.459 Y135.497 E6.77867
G1 X104.185 Y134.28 E6.82016
G1 X103.932 Y132.938 E6.86559
G1 X103.756 Y131.791 E6.90418
G1 X103.638 Y130.838 E6.93612
G1 X103.519 Y129.577 E6.97825
G1 X103.458 Y128.606 E7.01061
G1 X103.416 Y127.337 E7.05284
G1 X103.413 Y126.364 E7.0852
G1 X103.44 Y125.316 E7.12007
G1 X103.494 Y124.297 E7.15401
G1 X103.587 Y123.194 E7.19082
G1 X103.747 Y121.791 E7.23779
G1 X103.902 Y120.765 E7.2723
G1 X103.995 Y120.219 E7.29072
G1 X104.346 Y118.493 E7.34931
G1 X104.555 Y117.639 E7.37855
G1 X104.856 Y116.528 E7.41683
G1 X105.229 Y115.267 E7.46057
G1 X105.549 Y114.348 E7.49294
G1 X105.947 Y113.46 E7.5253
G1 X106.423 Y112.611 E7.55767
G1 X106.973 Y111.805 E7.59013
G1 X107.592 Y111.053 E7.62252
G1 X108.244 Y110.387 E7.65352
G0 F9000 X108.509 Y110.687
G1 F2400 X109.017 Y110.239 E7.67605
G1 X111.773 Y107.961 E7.79498
G1 X113.663 Y106.299 E7.87869
G1 X115.507 Y104.583 E7.96247
G1 X117.294 Y102.824 E8.04586
G1 X119.06 Y100.983 E8.13071
G1 X120.771 Y99.097 E8.21541
G1 X122.416 Y97.176 E8.29953
G1 X123.824 Y95.444 E8.37377
G1 X124.449 Y94.744 E8.40498
G1 X125.134 Y94.102 E8.4362
G1 X125.872 Y93.523 E8.4674
G1 X126.659 Y93.011 E8.49863
G1 X127.488 Y92.571 E8.52985
G1 X128.347 Y92.208 E8.56086
G1 X128.927 Y92.011 E8.58124
G1 X130.153 Y91.639 E8.62385
G1 X131.157 Y91.362 E8.65849
G1 X132.475 Y91.043 E8.70359
G1 X133.546 Y90.823 E8.73996
G1 X134.973 Y90.581 E8.7881
G1 X135.974 Y90.444 E8.8217
G1 X137.018 Y90.33 E8.85663
G1 X137.881 Y90.262 E8.88542
G1 X139.292 Y90.191 E8.93241
G1 X140.218 Y90.174 E8.96322
G1 X141.048 Y90.179 E8.99082
G1 X141.99 Y90.208 E9.02217
G1 X143.309 Y90.29 E9.06612
G1 X144.242 Y90.375 E9.09728
G1 X145.517 Y90.534 E9.14002
G1 X146.483 Y90.683 E9.17253
G1 X147.533 Y90.876 E9.20804
G1 X148.517 Y91.084 E9.24149
G1 X149.775 Y91.393 E9.28457
G1 X150.637 Y91.632 E9.31433
G1 X151.892 Y92.024 E9.35806
G1 X152.79 Y92.333 E9.38964
G1 X154.023 Y92.804 E9.43354
G1 X155.159 Y93.283 E9.47455
G1 X156.187 Y93.756 E9.51218
G1 X156.86 Y94.086 E9.53711
G1 X158.067 Y94.721 E9.58248
G1 X158.954 Y95.227 E9.61644
G1 X160.073 Y95.912 E9.66008
G1 X160.844 Y96.417 E9.69073
G1 X161.662 Y96.985 E9.72386
G1 X162.693 Y97.748 E9.76652
G1 X163.629 Y98.49 E9.80624
G1 X164.246 Y99.011 E9.8331
G1 X165.263 Y99.919 E9.87845
G1 X166.047 Y100.667 E9.91449
G1 X167.058 Y101.694 E9.96242
G1 X167.694 Y102.368 E9.99324
G1 X168.282 Y103.053 E10.02327
G1 X168.849 Y103.846 E10.05569
G1 X169.323 Y104.655 E10.08688
G1 X169.725 Y105.504 E10.11812
G1 X170.05 Y106.384 E10.14932
G1 X170.295 Y107.285 E10.18038
G1 X170.418 Y107.923 E10.20199
G1 X170.662 Y109.436 E10.25296
G1 X171.116 Y111.986 E10.33911
G1 X171.625 Y114.439 E10.42243
G1 X172.215 Y116.926 E10.50745
G1 X172.868 Y119.367 E10.59149
G1 X173.587 Y121.778 E10.67517
G1 X174.377 Y124.18 E10.75927
G1 X175.246 Y126.591 E10.84451
G1 X175.81 Y128.057 E10.89675
G1 X176.107 Y128.947 E10.92796
G1 X176.323 Y129.861 E10.9592
G1 X176.454 Y130.754 E10.98922
G1 X176.51 Y131.726 E11.0216
G1 X176.479 Y132.665 E11.05285
G1 X176.367 Y133.59 E11.08384
G1 X176.246 Y134.203 E11.10462
G1 X176.144 Y134.649 E11.11984
G1 X175.574 Y136.838 E11.19507
G1 X175.316 Y137.699 E11.22497
G1 X175.013 Y138.625 E11.25737
G1 X174.628 Y139.695 E11.29519
G1 X174.127 Y140.951 E11.34017
G1 X173.734 Y141.849 E11.37277
G1 X173.336 Y142.699 E11.40399
G1 X172.657 Y144.033 E11.45377
G1 X172.166 Y144.924 E11.48761
G1 X171.7 Y145.715 E11.51815
G1 X171.082 Y146.699 E11.55679
G1 X170.386 Y147.731 E11.59819
G1 X169.784 Y148.564 E11.63238
G1 X169.072 Y149.494 E11.67133
G1 X168.47 Y150.232 E11.70301
G1 X167.807 Y151.001 E11.73678
G1 X167.198 Y151.674 E11.76697
G1 X166.076 Y152.83 E11.82055
G1 X165.448 Y153.432 E11.84948
G1 X164.465 Y154.324 E11.89363
G1 X163.785 Y154.901 E11.9233
G1 X162.863 Y155.644 E11.96268
G1 X162.065 Y156.247 E11.99595
G1 X161.371 Y156.745 E12.02436
G1 X160.552 Y157.302 E12.0573
G1 X159.192 Y158.157 E12.11073
G1 X158.37 Y158.634 E12.14234
G1 X157.633 Y159.038 E12.17029
G1 X156.412 Y159.661 E12.21588
G1 X155.569 Y160.058 E12.24688
G1 X154.766 Y160.412 E12.27606
G1 X153.253 Y161.019 E12.33029
G1 X152.43 Y161.315 E12.35938
G1 X151.201 Y161.718 E12.40239
G1 X150.151 Y162.025 E12.43878
G1 X148.654 Y162.415 E12.49023
G1 X147.913 Y162.591 E12.51556
G1 X146.991 Y162.765 E12.54677
G1 X146.057 Y162.858 E12.57799
G1 X145.118 Y162.868 E12.60922
G1 X144.183 Y162.794 E12.64042
G1 X143.292 Y162.646 E12.67046
G1 X142.355 Y162.403 E12.70265
G1 X141.751 Y162.197 E12.72388
G1 X140.218 Y161.612 E12.77845
G1 X137.832 Y160.748 E12.86285
G1 X135.445 Y159.96 E12.94646
G1 X133 Y159.228 E13.03135
G1 X130.589 Y158.582 E13.11437
G1 X128.089 Y157.986 E13.19985
G1 X125.635 Y157.474 E13.28323
G1 X123.119 Y157.023 E13.36824
G1 X121.607 Y156.785 E13.41915
G1 X120.688 Y156.596 E13.45036
G1 X119.789 Y156.328 E13.48156
G1 X118.917 Y155.981 E13.51277
G1 X118.078 Y155.558 E13.54402
G1 X117.282 Y155.063 E13.5752
G1 X116.536 Y154.503 E13.60622
G1 X116.059 Y154.086 E13.6273
G1 X115.026 Y153.121 E13.67431
G1 X114.077 Y152.174 E13.71891
G1 X113.387 Y151.439 E13.75244
G1 X112.698 Y150.662 E13.78698
G1 X111.801 Y149.581 E13.8337
G1 X111.179 Y148.779 E13.86745
G1 X110.526 Y147.886 E13.90425
G1 X110.007 Y147.13 E13.93475
G1 X109.285 Y146.013 E13.97899
G1 X108.842 Y145.275 E14.00761
G1 X108.327 Y144.367 E14.04233
G1 X107.911 Y143.587 E14.07174
G1 X107.253 Y142.248 E14.12136
G1 X106.82 Y141.285 E14.15648
G1 X106.438 Y140.371 E14.18942
G1 X106.052 Y139.368 E14.22517
G1 X105.609 Y138.095 E14.27
G1 X105.329 Y137.197 E14.30129
G1 X105.104 Y136.403 E14.32873
G1 X104.849 Y135.409 E14.36287
G1 X104.578 Y134.206 E14.40388
G1 X104.327 Y132.877 E14.44886
G1 X104.153 Y131.742 E14.48706
G1 X104.036 Y130.8 E14.51863
G1 X103.918 Y129.552 E14.56032
G1 X103.858 Y128.593 E14.59228
G1 X103.816 Y127.336 E14.63411
G1 X103.813 Y126.374 E14.66611
G1 X103.839 Y125.337 E14.70061
G1 X103.893 Y124.33 E14.73415
G1 X103.984 Y123.239 E14.77056
G1 X104.143 Y121.85 E14.81706
G1 X104.296 Y120.832 E14.8513
G1 X104.387 Y120.299 E14.86929
G1 X104.735 Y118.588 E14.92736
G1 X104.941 Y117.744 E14.95626
G1 X105.24 Y116.641 E14.99426
G1 X105.607 Y115.398 E15.03737
G1 X105.914 Y114.511 E15.06859
G1 X106.296 Y113.655 E15.09977
G1 X106.754 Y112.836 E15.13098
G1 X107.282 Y112.059 E15.16222
G1 X107.878 Y111.333 E15.19346
G1 X108.509 Y110.687 E15.2235
G0 F9000 X108.795 Y110.967
G1 F2400 X109.272 Y110.547 E15.24464
G1 X112.028 Y108.269 E15.36356
G1 X113.927 Y106.599 E15.44767
G1 X115.788 Y104.868 E15.53221
G1 X117.575 Y103.109 E15.61561
G1 X119.349 Y101.26 E15.70083
G1 X121.067 Y99.366 E15.78588
G1 X122.72 Y97.436 E15.8704
G1 X124.123 Y95.71 E15.94438
G1 X124.723 Y95.035 E15.97442
G1 X125.381 Y94.416 E16.00446
G1 X126.091 Y93.858 E16.0345
G1 X126.847 Y93.364 E16.06454
G1 X127.644 Y92.939 E16.09458
G1 X128.476 Y92.587 E16.12462
G1 X129.043 Y92.394 E16.14455
G1 X130.259 Y92.025 E16.18681
G1 X131.251 Y91.751 E16.22104
G1 X132.556 Y91.435 E16.2657
G1 X133.613 Y91.217 E16.3016
G1 X135.027 Y90.977 E16.3493
G1 X136.017 Y90.842 E16.38253
G1 X137.05 Y90.729 E16.41709
G1 X137.901 Y90.661 E16.44549
G1 X139.299 Y90.591 E16.49204
G1 X140.216 Y90.574 E16.52255
G1 X141.036 Y90.579 E16.54982
G1 X141.965 Y90.607 E16.58073
G1 X143.273 Y90.688 E16.62432
G1 X144.193 Y90.772 E16.65505
G1 X145.456 Y90.929 E16.69738
G1 X146.411 Y91.076 E16.72952
G1 X147.45 Y91.267 E16.76465
G1 X148.421 Y91.472 E16.79766
G1 X149.668 Y91.779 E16.84037
G1 X150.518 Y92.014 E16.86971
G1 X151.762 Y92.402 E16.91305
G1 X152.647 Y92.707 E16.94418
G1 X153.868 Y93.173 E16.98765
G1 X154.992 Y93.646 E17.02821
G1 X156.011 Y94.115 E17.06552
G1 X156.674 Y94.44 E17.09008
G1 X157.869 Y95.069 E17.13499
G1 X158.745 Y95.568 E17.16852
G1 X159.854 Y96.246 E17.21176
G1 X160.616 Y96.746 E17.24207
G1 X161.424 Y97.307 E17.27479
G1 X162.444 Y98.061 E17.31697
G1 X163.371 Y98.796 E17.35632
G1 X163.98 Y99.31 E17.38283
G1 X164.987 Y100.208 E17.4277
G1 X165.762 Y100.947 E17.46332
G1 X166.767 Y101.969 E17.51099
G1 X167.39 Y102.629 E17.54118
G1 X167.978 Y103.314 E17.57121
G1 X168.504 Y104.049 E17.60127
G1 X168.962 Y104.827 E17.6313
G1 X169.35 Y105.643 E17.66135
G1 X169.664 Y106.489 E17.69136
G1 X169.902 Y107.361 E17.72143
G1 X170.023 Y107.987 E17.74263
G1 X170.268 Y109.506 E17.79381
G1 X170.724 Y112.067 E17.88033
G1 X171.233 Y114.52 E17.96365
G1 X171.829 Y117.029 E18.04942
G1 X172.485 Y119.481 E18.13384
G1 X173.207 Y121.903 E18.2179
G1 X174.001 Y124.316 E18.30239
G1 X174.873 Y126.735 E18.38792
G1 X175.431 Y128.184 E18.43956
G1 X175.718 Y129.04 E18.46959
G1 X175.927 Y129.919 E18.49964
G1 X176.058 Y130.812 E18.52966
G1 X176.11 Y131.714 E18.55971
G1 X176.082 Y132.617 E18.58976
G1 X175.974 Y133.513 E18.61978
G1 X175.856 Y134.114 E18.64015
G1 X175.757 Y134.548 E18.65495
G1 X175.191 Y136.723 E18.7297
G1 X174.936 Y137.575 E18.75928
G1 X174.637 Y138.489 E18.79127
G1 X174.256 Y139.547 E18.82867
G1 X173.76 Y140.791 E18.87321
G1 X173.372 Y141.679 E18.90544
G1 X172.979 Y142.518 E18.93626
G1 X172.307 Y143.84 E18.98558
G1 X171.821 Y144.721 E19.01905
G1 X171.361 Y145.502 E19.04919
G1 X170.75 Y146.475 E19.08741
G1 X170.054 Y147.507 E19.12881
G1 X169.467 Y148.321 E19.16219
G1 X168.762 Y149.241 E19.20074
G1 X168.167 Y149.971 E19.23206
G1 X167.51 Y150.733 E19.26553
G1 X166.911 Y151.395 E19.29522
G1 X165.799 Y152.541 E19.34833
G1 X165.179 Y153.136 E19.37691
G1 X164.206 Y154.019 E19.42061
G1 X163.534 Y154.59 E19.44994
G1 X162.622 Y155.325 E19.4889
G1 X161.832 Y155.922 E19.52184
G1 X161.146 Y156.414 E19.54991
G1 X160.339 Y156.963 E19.58238
G1 X158.991 Y157.811 E19.63534
G1 X158.177 Y158.283 E19.66664
G1 X157.451 Y158.682 E19.69419
G1 X156.241 Y159.299 E19.73937
G1 X155.408 Y159.692 E19.77
G1 X154.617 Y160.041 E19.79876
G1 X153.118 Y160.643 E19.85249
G1 X152.305 Y160.935 E19.88122
G1 X151.089 Y161.334 E19.92378
G1 X150.05 Y161.638 E19.95979
G1 X148.562 Y162.026 E20.01094
G1 X147.838 Y162.198 E20.03569
G1 X146.951 Y162.367 E20.06572
G1 X146.052 Y162.458 E20.09577
G1 X145.149 Y162.469 E20.12581
G1 X144.249 Y162.399 E20.15583
G1 X143.358 Y162.251 E20.18587
G1 X142.484 Y162.024 E20.21591
G1 X141.894 Y161.823 E20.23664
G1 X140.361 Y161.238 E20.29121
G1 X137.957 Y160.368 E20.37625
G1 X135.57 Y159.58 E20.45985
G1 X133.115 Y158.845 E20.54509
G1 X130.682 Y158.193 E20.62886
G1 X128.171 Y157.594 E20.71472
G1 X125.717 Y157.082 E20.7981
G1 X123.19 Y156.629 E20.88349
G1 X121.687 Y156.393 E20.93409
G1 X120.802 Y156.213 E20.96413
G1 X119.936 Y155.956 E20.99417
