;FLAVOR:Marlin
;TIME:10443
;Filament used: 13.0884m
;Layer height: 0.2
;MINX:101.287
;MINY:81.866
;MINZ:0.2
;MAXX:198.287
;MAXY:178.866
;MAXZ:30
;Generated with Cura_SteamEngine 5.4.0
M140 S60
M105
M190 S60
M104 S200
M105
M109 S200
M82 ;absolute extrusion mode
M201 X500.00 Y500.00 Z100.00 E5000.00 ;Setup machine max acceleration
M203 X500.00 Y500.00 Z10.00 E50.00 ;Setup machine max feedrate
M204 P500.00 R1000.00 T500.00 ;Setup Print/Retract/Travel acceleration
M205 X8.00 Y8.00 Z0.40 E5.00 ;Setup Jerk
M220 S100 ;Reset Feedrate
M221 S100 ;Reset Flowrate

G28 ;Home

G92 E0 ;Reset Extruder
G1 Z2.0 F3000 ;Move Z Axis up
G1 X10.1 Y20 Z0.28 F5000.0 ;Move to start position
G1 X10.1 Y200.0 Z0.28 F1500.0 E15 ;Draw the first line
G1 X10.4 Y200.0 Z0.28 F5000.0 ;Move to side a little
G1 X10.4 Y20 Z0.28 F1500.0 E30 ;Draw the second line
G92 E0 ;Reset Extruder
G1 Z2.0 F3000 ;Move Z Axis up

G92 E0
G92 E0
G1 F1500 E-6.5
;LAYER_COUNT:150
;LAYER:0
M107
G0 F9000 X104.018 Y85.631 Z0.2
;TYPE:SKIRT
G1 F1500 E0
G1 F3000 X104.743 Y84.879 E0.03474
G1 X105.479 Y84.242 E0.06712
G1 X106.211 Y83.712 E0.09718
G1 X107.108 Y83.177 E0.13191
G1 X107.986 Y82.756 E0.1643
G1 X108.899 Y82.414 E0.19673
G1 X109.836 Y82.155 E0.22906
G1 X110.803 Y81.977 E0.26176
G1 X111.942 Y81.881 E0.29978
G1 X112.599 Y81.866 E0.32164
G1 X186.591 Y81.866 E2.78262
G1 X187.471 Y81.879 E2.81189
G1 X188.443 Y81.938 E2.84428
G1 X189.406 Y82.084 E2.87668
G1 X190.353 Y82.315 E2.9091
G1 X191.241 Y82.615 E2.94027
G1 X192.133 Y83.005 E2.97265
G1 X193.016 Y83.492 E3.00619
G1 X193.767 Y83.994 E3.03624
G1 X194.582 Y84.652 E3.07108
G1 X195.28 Y85.33 E3.10344
G1 X195.916 Y86.067 E3.13582
G1 X196.486 Y86.857 E3.16822
G1 X196.948 Y87.633 E3.19826
G1 X197.402 Y88.575 E3.23304
G1 X197.731 Y89.453 E3.26422
G1 X198 Y90.425 E3.29777
G1 X198.177 Y91.391 E3.33043
G1 X198.272 Y92.521 E3.36815
G1 X198.287 Y93.196 E3.3906
G1 X198.286 Y167.266 E5.85418
G1 X198.275 Y168.029 E5.87956
G1 X198.218 Y169.002 E5.91198
G1 X198.073 Y169.965 E5.94437
G1 X197.844 Y170.911 E5.97674
G1 X197.533 Y171.835 E6.00917
G1 X197.141 Y172.726 E6.04155
G1 X196.673 Y173.578 E6.07388
G1 X196.151 Y174.359 E6.10512
G1 X195.518 Y175.144 E6.13866
G1 X194.893 Y175.795 E6.16868
G1 X194.104 Y176.483 E6.2035
G1 X193.344 Y177.033 E6.2347
G1 X192.477 Y177.55 E6.26827
G1 X191.599 Y177.972 E6.30067
G1 X190.688 Y178.314 E6.33304
G1 X189.749 Y178.575 E6.36545
G1 X188.783 Y178.753 E6.39812
G1 X187.632 Y178.851 E6.43654
G1 X186.957 Y178.866 E6.459
G1 X112.851 Y178.865 E8.92378
G1 X112.118 Y178.854 E8.94816
G1 X111.146 Y178.797 E8.98054
G1 X110.183 Y178.651 E9.01294
G1 X109.237 Y178.422 E9.04531
G1 X108.313 Y178.11 E9.07775
G1 X107.423 Y177.718 E9.11009
G1 X106.6 Y177.267 E9.14131
G1 X105.761 Y176.706 E9.17488
G1 X105.057 Y176.14 E9.20492
G1 X104.304 Y175.415 E9.23969
G1 X103.667 Y174.679 E9.27206
G1 X103.137 Y173.948 E9.30209
G1 X102.601 Y173.051 E9.33685
G1 X102.179 Y172.173 E9.36925
G1 X101.837 Y171.261 E9.40164
G1 X101.577 Y170.323 E9.43402
G1 X101.399 Y169.354 E9.46679
G1 X101.301 Y168.175 E9.50614
G1 X101.287 Y167.524 E9.52779
G1 X101.288 Y93.391 E11.99347
G1 X101.299 Y92.691 E12.01675
G1 X101.357 Y91.718 E12.04917
G1 X101.503 Y90.755 E12.08157
G1 X101.733 Y89.809 E12.11395
G1 X102.046 Y88.886 E12.14636
G1 X102.438 Y87.996 E12.17871
G1 X102.908 Y87.143 E12.2111
G1 X103.451 Y86.335 E12.24348
G1 X104.018 Y85.631 E12.27355
G0 F9000 X104.33 Y85.882
G1 F3000 X105.005 Y85.181 E12.30591
G1 X105.714 Y84.566 E12.33713
G1 X106.446 Y84.036 E12.36719
G1 X107.282 Y83.537 E12.39957
G1 X108.127 Y83.13 E12.43076
G1 X109.006 Y82.799 E12.462
G1 X109.909 Y82.548 E12.49318
G1 X110.837 Y82.376 E12.52457
G1 X111.976 Y82.28 E12.56259
G1 X112.608 Y82.266 E12.58361
G1 X186.585 Y82.266 E15.0441
G1 X187.447 Y82.278 E15.07277
G1 X188.384 Y82.334 E15.10399
G1 X189.312 Y82.473 E15.1352
G1 X190.225 Y82.694 E15.16644
G1 X191.081 Y82.982 E15.19648
G1 X191.973 Y83.372 E15.22886
G1 X192.794 Y83.825 E15.26005
G1 X193.545 Y84.327 E15.29009
G1 X194.304 Y84.939 E15.32252
G1 X194.978 Y85.592 E15.35374
G1 X195.592 Y86.301 E15.38493
G1 X196.142 Y87.062 E15.41616
G1 X196.604 Y87.838 E15.4462
G1 X197.027 Y88.715 E15.47858
G1 X197.356 Y89.593 E15.50977
G1 X197.607 Y90.498 E15.541
G1 X197.778 Y91.425 E15.57236
G1 X197.873 Y92.555 E15.61007
G1 X197.887 Y93.196 E15.6314
G1 X197.886 Y167.261 E18.09481
G1 X197.876 Y168.006 E18.11959
G1 X197.822 Y168.943 E18.15081
G1 X197.684 Y169.872 E18.18205
G1 X197.465 Y170.784 E18.21324
G1 X197.167 Y171.674 E18.24446
G1 X196.79 Y172.534 E18.27569
G1 X196.34 Y173.356 E18.30686
G1 X195.818 Y174.137 E18.3381
G1 X195.229 Y174.867 E18.3693
G1 X194.604 Y175.518 E18.39931
G1 X193.869 Y176.159 E18.43175
G1 X193.109 Y176.709 E18.46295
G1 X192.303 Y177.19 E18.49417
G1 X191.458 Y177.598 E18.52538
G1 X190.58 Y177.929 E18.55659
G1 X189.676 Y178.182 E18.58781
G1 X188.749 Y178.354 E18.61917
G1 X187.598 Y178.452 E18.65759
G1 X186.957 Y178.466 E18.67892
G1 X112.857 Y178.465 E21.14349
G1 X112.141 Y178.455 E21.16731
G1 X111.205 Y178.401 E21.19849
G1 X110.276 Y178.262 E21.22974
G1 X109.364 Y178.043 E21.26093
G1 X108.474 Y177.744 E21.29216
G1 X107.615 Y177.367 E21.32336
G1 X106.792 Y176.916 E21.35457
G1 X106.012 Y176.394 E21.38579
G1 X105.308 Y175.828 E21.41583
G1 X104.606 Y175.153 E21.44823
G1 X103.991 Y174.444 E21.47944
G1 X103.461 Y173.713 E21.50947
G1 X102.961 Y172.877 E21.54187
G1 X102.553 Y172.032 E21.57308
G1 X102.222 Y171.154 E21.60429
G1 X101.97 Y170.25 E21.6355
G1 X101.798 Y169.321 E21.66693
G1 X101.7 Y168.142 E21.70628
G1 X101.687 Y167.524 E21.72684
G1 X101.688 Y93.397 E24.19231
G1 X101.698 Y92.714 E24.21503
G1 X101.753 Y91.777 E24.24625
G1 X101.892 Y90.849 E24.27746
G1 X102.112 Y89.937 E24.30866
G1 X102.412 Y89.047 E24.3399
G1 X102.789 Y88.188 E24.3711
G1 X103.24 Y87.366 E24.40228
G1 X103.763 Y86.586 E24.43352
G1 X104.33 Y85.882 E24.46358
G0 F9000 X104.642 Y86.133
G1 F3000 X105.268 Y85.483 E24.4936
G1 X105.949 Y84.89 E24.52363
G1 X106.681 Y84.36 E24.55369
G1 X107.456 Y83.897 E24.58372
G1 X108.269 Y83.504 E24.61375
G1 X109.114 Y83.184 E24.6438
G1 X109.983 Y82.941 E24.67382
G1 X110.871 Y82.775 E24.70386
G1 X112.01 Y82.679 E24.74188
G1 X112.617 Y82.666 E24.76207
G1 X186.58 Y82.666 E27.22209
G1 X187.424 Y82.677 E27.25017
G1 X188.326 Y82.73 E27.28022
G1 X189.219 Y82.862 E27.31024
G1 X190.097 Y83.073 E27.34028
G1 X190.953 Y83.361 E27.37032
G1 X191.78 Y83.723 E27.40034
G1 X192.572 Y84.158 E27.4304
G1 X193.323 Y84.66 E27.46044
G1 X194.026 Y85.227 E27.49048
G1 X194.676 Y85.854 E27.52052
G1 X195.268 Y86.536 E27.55055
G1 X195.798 Y87.267 E27.58059
G1 X196.26 Y88.043 E27.61062
G1 X196.653 Y88.856 E27.64066
G1 X196.971 Y89.701 E27.67069
G1 X197.214 Y90.571 E27.70073
G1 X197.379 Y91.459 E27.73077
G1 X197.474 Y92.589 E27.76849
G1 X197.487 Y93.196 E27.78868
G1 X197.486 Y167.256 E30.25193
G1 X197.477 Y167.983 E30.27611
G1 X197.426 Y168.885 E30.30616
G1 X197.295 Y169.779 E30.33621
G1 X197.086 Y170.657 E30.36623
G1 X196.8 Y171.514 E30.39628
G1 X196.439 Y172.342 E30.42632
G1 X196.007 Y173.134 E30.45633
G1 X195.506 Y173.886 E30.48638
G1 X194.94 Y174.59 E30.51642
G1 X194.315 Y175.241 E30.54644
G1 X193.634 Y175.835 E30.5765
G1 X192.903 Y176.366 E30.60655
G1 X192.129 Y176.83 E30.63656
G1 X191.316 Y177.224 E30.66661
G1 X190.472 Y177.544 E30.69663
G1 X189.602 Y177.789 E30.72669
G1 X188.715 Y177.955 E30.75671
G1 X187.564 Y178.053 E30.79513
G1 X186.957 Y178.066 E30.81532
G1 X112.862 Y178.065 E33.27973
G1 X112.164 Y178.056 E33.30295
G1 X111.263 Y178.005 E33.33296
G1 X110.369 Y177.873 E33.36302
G1 X109.491 Y177.664 E33.39304
G1 X108.634 Y177.377 E33.4231
G1 X107.807 Y177.016 E33.45311
G1 X107.014 Y176.583 E33.48316
G1 X106.263 Y176.082 E33.51319
G1 X105.559 Y175.516 E33.54323
G1 X104.908 Y174.89 E33.57327
G1 X104.315 Y174.209 E33.60331
G1 X103.785 Y173.478 E33.63334
G1 X103.321 Y172.703 E33.66338
G1 X102.927 Y171.89 E33.69343
G1 X102.607 Y171.046 E33.72345
G1 X102.363 Y170.176 E33.7535
G1 X102.197 Y169.288 E33.78355
G1 X102.1 Y168.133 E33.8221
G1 X102.087 Y167.524 E33.84236
G1 X102.088 Y93.402 E36.30767
G1 X102.097 Y92.737 E36.32979
G1 X102.149 Y91.835 E36.35984
G1 X102.281 Y90.942 E36.38986
G1 X102.491 Y90.064 E36.41989
G1 X102.778 Y89.207 E36.44995
G1 X103.14 Y88.38 E36.47998
G1 X103.573 Y87.588 E36.51
G1 X104.075 Y86.837 E36.54004
G1 X104.642 Y86.133 E36.57011
G1 F1500 E30.07011
;MESH:Body1.3mf
G0 F9000 X132.21 Y112.897
G0 X134.789 Y117.498
;TYPE:WALL-INNER
G1 F1500 E36.57011
G1 F3000 X134.108 Y117.536 E36.59279
G1 X133.471 Y117.417 E36.61435
G1 X132.838 Y117.119 E36.63762
G1 X132.337 Y116.703 E36.65927
G1 X131.954 Y116.178 E36.68089
G1 X131.69 Y115.523 E36.70438
G1 X131.608 Y114.856 E36.72673
G1 X131.689 Y114.21 E36.74838
G1 X131.942 Y113.568 E36.77133
G1 X132.342 Y113.022 E36.79385
G1 X132.875 Y112.593 E36.8166
G1 X133.466 Y112.315 E36.83833
G1 X134.11 Y112.192 E36.86013
G1 X134.797 Y112.235 E36.88303
G1 X135.419 Y112.439 E36.9048
G1 X135.994 Y112.801 E36.9274
G1 X136.452 Y113.286 E36.94959
G1 X136.78 Y113.881 E36.97218
G1 X136.946 Y114.537 E36.99469
G1 X136.945 Y115.206 E37.01694
G1 X136.777 Y115.846 E37.03895
G1 X136.456 Y116.441 E37.06143
G1 X136 Y116.925 E37.08355
G1 X135.425 Y117.287 E37.10615
G1 X134.789 Y117.498 E37.12844
G1 F1500 E30.62844
G0 F9000 X135.107 Y117.5
G0 X135.508 Y117.455
G0 X139.551 Y122.711
G0 X148.78 Y142.926
G1 F1500 E37.12844
G1 F3000 X147.457 Y142.749 E37.17283
G1 X146.11 Y142.418 E37.21897
G1 X144.892 Y141.976 E37.26206
G1 X143.707 Y141.403 E37.30584
G1 X142.546 Y140.678 E37.35137
G1 X141.507 Y139.864 E37.39527
G1 X140.528 Y138.912 E37.44069
G1 X139.65 Y137.852 E37.48646
G1 X138.932 Y136.766 E37.52977
G1 X138.325 Y135.597 E37.57358
G1 X137.823 Y134.324 E37.61909
G1 X137.47 Y133.031 E37.66367
G1 X137.259 Y131.709 E37.7082
G1 X137.188 Y130.334 E37.75399
G1 X137.256 Y129.054 E37.79662
G1 X137.47 Y127.7 E37.84222
G1 X137.823 Y126.408 E37.88676
G1 X138.311 Y125.164 E37.93121
G1 X138.918 Y123.991 E37.97514
G1 X139.689 Y122.827 E38.02157
G1 X140.529 Y121.819 E38.06521
G1 X141.493 Y120.88 E38.10997
G1 X142.54 Y120.057 E38.15427
G1 X143.681 Y119.343 E38.19904
G1 X144.893 Y118.755 E38.24384
G1 X146.111 Y118.314 E38.28692
G1 X147.457 Y117.982 E38.33303
G1 X148.78 Y117.805 E38.37743
G1 X150.154 Y117.771 E38.42314
G1 X151.43 Y117.873 E38.46572
G1 X152.773 Y118.123 E38.51115
G1 X154.033 Y118.503 E38.55493
G1 X155.264 Y119.018 E38.59931
G1 X156.473 Y119.685 E38.64523
G1 X157.572 Y120.457 E38.6899
G1 X158.552 Y121.315 E38.73323
G1 X159.485 Y122.322 E38.77888
G1 X160.289 Y123.403 E38.82369
G1 X160.967 Y124.554 E38.86812
G1 X161.512 Y125.751 E38.91187
G1 X161.941 Y127.047 E38.95727
G1 X162.227 Y128.361 E39.002
G1 X162.37 Y129.692 E39.04652
G1 X162.37 Y131.039 E39.09133
G1 X162.227 Y132.37 E39.13585
G1 X161.941 Y133.687 E39.18067
G1 X161.526 Y134.946 E39.22477
G1 X160.967 Y136.179 E39.26979
G1 X160.289 Y137.328 E39.31417
G1 X159.485 Y138.41 E39.359
G1 X158.575 Y139.395 E39.4036
G1 X157.547 Y140.292 E39.44898
G1 X156.473 Y141.046 E39.49263
G1 X155.262 Y141.714 E39.53863
G1 X154.035 Y142.227 E39.58286
G1 X152.77 Y142.609 E39.62681
G1 X151.43 Y142.859 E39.67215
G1 X150.154 Y142.96 E39.71472
G1 X148.78 Y142.926 E39.76043
G1 F1500 E33.26043
G0 F9000 X147.444 Y142.93
G0 X137.128 Y146.222
G0 X134.106 Y148.539
G1 F1500 E39.76043
G1 F3000 X133.469 Y148.417 E39.78201
G1 X132.857 Y148.132 E39.80446
G1 X132.33 Y147.696 E39.82721
G1 X131.954 Y147.178 E39.8485
G1 X131.69 Y146.523 E39.87199
G1 X131.608 Y145.856 E39.89434
G1 X131.689 Y145.211 E39.91596
G1 X131.941 Y144.569 E39.9389
G1 X132.336 Y144.028 E39.96118
G1 X132.842 Y143.614 E39.98292
G1 X133.468 Y143.314 E40.00601
G1 X134.109 Y143.196 E40.02769
G1 X134.792 Y143.233 E40.05044
G1 X135.422 Y143.444 E40.07254
G1 X136.006 Y143.81 E40.09546
G1 X136.462 Y144.305 E40.11785
G1 X136.777 Y144.887 E40.13986
G1 X136.946 Y145.53 E40.16197
G1 X136.946 Y146.197 E40.18415
G1 X136.77 Y146.863 E40.20706
G1 X136.462 Y147.43 E40.22853
G1 X135.991 Y147.933 E40.25145
G1 X135.421 Y148.292 E40.27385
G1 X134.795 Y148.496 E40.29575
G1 X134.106 Y148.539 E40.31871
G1 F1500 E33.81871
G0 F9000 X134.21 Y148.636
G0 X133.395 Y148.583
G0 X133.395 Y167.066
G0 X112.887 Y167.266
G1 F1500 E40.31871
G1 F3000 X186.687 Y167.266 E42.77331
G1 X186.687 Y93.466 E45.22791
G1 X112.887 Y93.466 E47.6825
G1 X112.887 Y167.266 E50.1371
G1 F1500 E43.6371
G0 F9000 X164.192 Y167.066
G0 X165.119 Y148.723
G0 X164.469 Y148.417
G1 F1500 E50.1371
G1 F3000 X163.857 Y148.132 E50.15956
G1 X163.331 Y147.698 E50.18224
G1 X162.938 Y147.15 E50.20467
G1 X162.69 Y146.529 E50.22691
G1 X162.607 Y145.861 E50.2493
G1 X162.692 Y145.214 E50.271
G1 X162.943 Y144.573 E50.2939
G1 X163.333 Y144.038 E50.31592
G1 X163.847 Y143.611 E50.33814
G1 X164.471 Y143.317 E50.36108
G1 X165.132 Y143.195 E50.38344
G1 X165.786 Y143.232 E50.40523
G1 X166.428 Y143.447 E50.42775
G1 X166.995 Y143.802 E50.45
G1 X167.451 Y144.29 E50.47221
G1 X167.781 Y144.884 E50.49481
G1 X167.943 Y145.522 E50.5167
G1 X167.937 Y146.229 E50.54022
G1 X167.764 Y146.877 E50.56253
G1 X167.455 Y147.439 E50.58386
G1 X166.998 Y147.927 E50.60609
G1 X166.421 Y148.292 E50.6288
G1 X165.795 Y148.496 E50.6507
G1 X165.106 Y148.539 E50.67366
G1 X164.469 Y148.417 E50.69523
G1 F1500 E44.19523
G0 F9000 X164.192 Y148.401
G0 X163.451 Y147.589
G0 X163.08 Y147.078
G0 X162.848 Y146.491
G0 X162.769 Y145.866
G0 X162.848 Y145.241
G0 X163.08 Y144.653
G0 X163.451 Y144.142
G0 X163.726 Y143.916
G0 X165.085 Y143.012
G0 X165.086 Y117.72
G0 X165.103 Y117.539
G1 F1500 E50.69523
G1 F3000 X164.454 Y117.412 E50.71723
G1 X163.842 Y117.122 E50.73975
G1 X163.334 Y116.7 E50.76172
G1 X162.942 Y116.158 E50.78397
G1 X162.692 Y115.518 E50.80682
G1 X162.606 Y114.87 E50.82856
G1 X162.694 Y114.208 E50.85077
G1 X162.933 Y113.584 E50.873
G1 X163.337 Y113.033 E50.89572
G1 X163.875 Y112.593 E50.91884
G1 X164.466 Y112.315 E50.94056
G1 X165.11 Y112.192 E50.96237
G1 X165.797 Y112.235 E50.98526
G1 X166.419 Y112.439 E51.00704
G1 X167.001 Y112.807 E51.02994
G1 X167.451 Y113.29 E51.05189
G1 X167.781 Y113.884 E51.07449
G1 X167.943 Y114.522 E51.09639
G1 X167.937 Y115.229 E51.1199
G1 X167.764 Y115.877 E51.14221
G1 X167.455 Y116.44 E51.16357
G1 X166.993 Y116.932 E51.18602
G1 X166.43 Y117.287 E51.20816
G1 X165.786 Y117.494 E51.23066
G1 X165.103 Y117.539 E51.25342
G0 F9000 X165.148 Y117.137
;TYPE:WALL-OUTER
G1 F3000 X164.599 Y117.034 E51.272
G1 X164.072 Y116.79 E51.29132
G1 X163.648 Y116.443 E51.30954
G1 X163.282 Y115.944 E51.33012
G1 X163.078 Y115.406 E51.34926
G1 X163.009 Y114.861 E51.36753
G1 X163.09 Y114.278 E51.38711
G1 X163.291 Y113.771 E51.40525
G1 X163.62 Y113.317 E51.42389
G1 X164.076 Y112.939 E51.44359
G1 X164.576 Y112.704 E51.46197
G1 X165.122 Y112.597 E51.48048
G1 X165.709 Y112.63 E51.50003
G1 X166.262 Y112.811 E51.51938
G1 X166.732 Y113.109 E51.53789
G1 X167.12 Y113.516 E51.55659
G1 X167.405 Y114.035 E51.57629
G1 X167.543 Y114.573 E51.59476
G1 X167.543 Y115.16 E51.61429
G1 X167.405 Y115.697 E51.63273
G1 X167.128 Y116.203 E51.65191
G1 X166.745 Y116.612 E51.67055
G1 X166.258 Y116.923 E51.68977
G1 X165.711 Y117.101 E51.7089
G1 X165.148 Y117.137 E51.72766
G1 F1500 E45.22766
G0 F9000 X165.052 Y117.631
G0 X164.385 Y117.58
G0 X159.624 Y122.208
G0 X148.801 Y142.526
G1 F1500 E51.72766
G1 F3000 X147.518 Y142.353 E51.77072
G1 X146.246 Y142.042 E51.81428
G1 X145.037 Y141.603 E51.85706
G1 X143.866 Y141.034 E51.90036
G1 X142.767 Y140.344 E51.94352
G1 X141.738 Y139.535 E51.98705
G1 X140.82 Y138.638 E52.02974
G1 X139.99 Y137.64 E52.07292
G1 X139.272 Y136.554 E52.11622
G1 X138.675 Y135.403 E52.15934
G1 X138.203 Y134.199 E52.20236
G1 X137.86 Y132.938 E52.24582
G1 X137.656 Y131.656 E52.289
G1 X137.588 Y130.355 E52.33233
G1 X137.658 Y129.054 E52.37566
G1 X137.862 Y127.783 E52.41848
G1 X138.203 Y126.533 E52.46157
G1 X138.675 Y125.328 E52.50461
G1 X139.277 Y124.169 E52.54805
G1 X139.99 Y123.091 E52.59104
G1 X140.83 Y122.083 E52.63468
G1 X141.765 Y121.174 E52.67805
G1 X142.778 Y120.379 E52.72088
G1 X143.885 Y119.688 E52.76429
G1 X145.057 Y119.12 E52.8076
G1 X146.267 Y118.684 E52.85038
G1 X147.539 Y118.374 E52.89393
G1 X148.812 Y118.204 E52.93664
G1 X150.122 Y118.17 E52.98023
