;FLAVOR:Marlin
;TIME:4822
;Filament used: 3.03293m
;Layer height: 0.2
;MINX:105.212
;MINY:104.024
;MINZ:0.2
;MAXX:154.208
;MAXY:153.018
;MAXZ:27.2
;Generated with Cura_SteamEngine 5.4.0
M140 S60
M105
M190 S60
M104 S200
M105
M109 S200
M82 ;absolute extrusion mode
M201 X500.00 Y500.00 Z100.00 E5000.00 ;Setup machine max acceleration
M203 X500.00 Y500.00 Z10.00 E50.00 ;Setup machine max feedrate
M204 P500.00 R1000.00 T500.00 ;Setup Print/Retract/Travel acceleration
M205 X8.00 Y8.00 Z0.40 E5.00 ;Setup Jerk
M220 S100 ;Reset Feedrate
M221 S100 ;Reset Flowrate

G28 ;Home

G92 E0 ;Reset Extruder
G1 Z2.0 F3000 ;Move Z Axis up
G1 X10.1 Y20 Z0.28 F5000.0 ;Move to start position
G1 X10.1 Y200.0 Z0.28 F1500.0 E15 ;Draw the first line
G1 X10.4 Y200.0 Z0.28 F5000.0 ;Move to side a little
G1 X10.4 Y20 Z0.28 F1500.0 E30 ;Draw the second line
G92 E0 ;Reset Extruder
G1 Z2.0 F3000 ;Move Z Axis up

G92 E0
G92 E0
G1 F1500 E-6.5
;LAYER_COUNT:136
;LAYER:0
M107
G0 F6000 X115.353 Y113.808 Z0.2
;TYPE:SKIRT
G1 F1500 E0
G1 F1200 X116.109 Y113.106 E0.03431
G1 X116.839 Y112.491 E0.06606
G1 X117.598 Y111.907 E0.09791
G1 X118.383 Y111.358 E0.12977
G1 X119.119 Y110.888 E0.15882
G1 X119.672 Y110.565 E0.18012
G1 X120.238 Y110.253 E0.20162
G1 X120.808 Y109.965 E0.22286
G1 X121.986 Y109.43 E0.26589
G1 X122.896 Y109.085 E0.29826
G1 X123.835 Y108.821 E0.3307
G1 X124.791 Y108.642 E0.36305
G1 X125.759 Y108.547 E0.3954
G1 X126.662 Y108.536 E0.42544
G1 X127.705 Y108.616 E0.46023
G1 X128.596 Y108.764 E0.49027
G1 X129.593 Y109.023 E0.52453
G1 X130.233 Y109.22 E0.5468
G1 X131.677 Y109.687 E0.59728
G1 X134.125 Y110.406 E0.68214
G1 X136.553 Y111.043 E0.76563
G1 X139.032 Y111.622 E0.8503
G1 X140.149 Y111.858 E0.88827
G1 X141.09 Y112.104 E0.92062
G1 X142.007 Y112.432 E0.95301
G1 X142.828 Y112.808 E0.98305
G1 X143.734 Y113.326 E1.01776
G1 X144.476 Y113.841 E1.0478
G1 X145.279 Y114.512 E1.0826
G1 X145.969 Y115.203 E1.11508
G1 X146.624 Y115.993 E1.14921
G1 X147.067 Y116.592 E1.17399
G1 X147.331 Y116.967 E1.18925
G1 X147.738 Y117.592 E1.21405
G1 X148.211 Y118.374 E1.24445
G1 X148.66 Y119.202 E1.27578
G1 X149.109 Y120.129 E1.31004
G1 X149.473 Y120.976 E1.3407
G1 X149.816 Y121.89 E1.37317
G1 X150.115 Y122.805 E1.40519
G1 X150.352 Y123.668 E1.43495
G1 X150.564 Y124.592 E1.46648
G1 X150.739 Y125.552 E1.49894
G1 X150.873 Y126.565 E1.53292
G1 X150.952 Y127.454 E1.56261
G1 X150.991 Y128.315 E1.59128
G1 X150.995 Y128.987 E1.61363
G1 X150.983 Y129.614 E1.63448
G1 X150.948 Y130.266 E1.6562
G1 X150.893 Y130.901 E1.6774
G1 X150.815 Y131.596 E1.70066
G1 X150.657 Y132.556 E1.73302
G1 X150.424 Y133.466 E1.76426
G1 X150.088 Y134.418 E1.79784
G1 X149.682 Y135.304 E1.83026
G1 X149.2 Y136.151 E1.86267
G1 X148.645 Y136.951 E1.89505
G1 X148.023 Y137.697 E1.92736
G1 X147.384 Y138.343 E1.95758
G1 X146.877 Y138.815 E1.98062
G1 X145.785 Y139.799 E2.02951
G1 X143.978 Y141.521 E2.11253
G1 X142.194 Y143.32 E2.1968
G1 X140.424 Y145.208 E2.28287
G1 X139.627 Y146.091 E2.32244
G1 X138.942 Y146.784 E2.35485
G1 X138.254 Y147.369 E2.38488
G1 X137.403 Y147.973 E2.41959
G1 X136.623 Y148.428 E2.44963
G1 X135.676 Y148.872 E2.48441
G1 X134.761 Y149.203 E2.51678
G1 X133.851 Y149.445 E2.5481
G1 X132.794 Y149.627 E2.58377
G1 X132.033 Y149.712 E2.60924
G1 X131.592 Y149.75 E2.62396
G1 X130.86 Y149.788 E2.64834
G1 X129.94 Y149.805 E2.67894
G1 X129.073 Y149.785 E2.70779
G1 X128.4 Y149.743 E2.73021
G1 X127.75 Y149.686 E2.75192
G1 X127.152 Y149.61 E2.77197
G1 X126.516 Y149.513 E2.79336
G1 X125.905 Y149.403 E2.81401
G1 X125.171 Y149.239 E2.83903
G1 X124.295 Y149.011 E2.86913
G1 X123.385 Y148.731 E2.9008
G1 X122.473 Y148.403 E2.93304
G1 X121.57 Y148.032 E2.96551
G1 X120.713 Y147.632 E2.99696
G1 X119.86 Y147.186 E3.02898
G1 X119.049 Y146.713 E3.0602
G1 X118.309 Y146.241 E3.0894
G1 X117.767 Y145.862 E3.11139
G1 X117.201 Y145.446 E3.13476
G1 X116.447 Y144.827 E3.1672
G1 X115.753 Y144.144 E3.19959
G1 X115.144 Y143.431 E3.23078
G1 X114.558 Y142.608 E3.26438
G1 X114.068 Y141.768 E3.29672
G1 X113.666 Y140.919 E3.32797
G1 X113.318 Y139.972 E3.36153
G1 X113.078 Y139.089 E3.39196
G1 X112.902 Y138.311 E3.41849
G1 X112.619 Y136.985 E3.46359
G1 X112.014 Y134.494 E3.54885
G1 X111.349 Y132.057 E3.63286
G1 X110.618 Y129.65 E3.71653
G1 X110.251 Y128.524 E3.75592
G1 X110.01 Y127.653 E3.78598
G1 X109.823 Y126.626 E3.8207
G1 X109.734 Y125.655 E3.85313
G1 X109.732 Y124.682 E3.88549
G1 X109.817 Y123.711 E3.91791
G1 X109.988 Y122.752 E3.95031
G1 X110.243 Y121.809 E3.9828
G1 X110.606 Y120.831 E4.0175
G1 X110.886 Y120.187 E4.04086
G1 X111.089 Y119.749 E4.05691
G1 X111.431 Y119.075 E4.08205
G1 X111.871 Y118.277 E4.11236
G1 X112.319 Y117.543 E4.14096
G1 X112.725 Y116.931 E4.16539
G1 X113.099 Y116.398 E4.18704
G1 X113.441 Y115.948 E4.20584
G1 X113.826 Y115.469 E4.22628
G1 X114.276 Y114.938 E4.24943
G1 X114.743 Y114.43 E4.27238
G1 X115.353 Y113.808 E4.30136
G0 F6000 X115.639 Y114.088
G1 F1200 X116.367 Y113.412 E4.3344
G1 X117.083 Y112.808 E4.36556
G1 X117.827 Y112.235 E4.39679
G1 X118.599 Y111.695 E4.42813
G1 X119.321 Y111.233 E4.45664
G1 X119.865 Y110.915 E4.47759
G1 X120.418 Y110.61 E4.4986
G1 X120.974 Y110.329 E4.51932
G1 X122.129 Y109.804 E4.56152
G1 X123.005 Y109.47 E4.5927
G1 X123.909 Y109.214 E4.62395
G1 X124.831 Y109.04 E4.65516
G1 X125.764 Y108.947 E4.68634
G1 X126.667 Y108.936 E4.71638
G1 X127.639 Y109.011 E4.7488
G1 X128.53 Y109.159 E4.77884
G1 X129.475 Y109.405 E4.81132
G1 X130.11 Y109.601 E4.83342
G1 X131.556 Y110.069 E4.88397
G1 X134.016 Y110.791 E4.96925
G1 X136.462 Y111.433 E5.05336
G1 X138.941 Y112.011 E5.13802
G1 X140.048 Y112.245 E5.17565
G1 X140.956 Y112.481 E5.20686
G1 X141.84 Y112.796 E5.23807
G1 X142.661 Y113.172 E5.2681
G1 X143.506 Y113.655 E5.30047
G1 X144.248 Y114.17 E5.33052
G1 X144.996 Y114.795 E5.36294
G1 X145.661 Y115.459 E5.39419
G1 X146.302 Y116.231 E5.42757
G1 X146.74 Y116.823 E5.45206
G1 X146.996 Y117.186 E5.46683
G1 X147.396 Y117.799 E5.49118
G1 X147.859 Y118.565 E5.52095
G1 X148.308 Y119.393 E5.55228
G1 X148.741 Y120.287 E5.58531
G1 X149.105 Y121.134 E5.61598
G1 X149.436 Y122.014 E5.64725
G1 X149.729 Y122.911 E5.67863
G1 X149.962 Y123.757 E5.70782
G1 X150.17 Y124.664 E5.73877
G1 X150.345 Y125.624 E5.77122
G1 X150.475 Y126.6 E5.80397
G1 X150.552 Y127.472 E5.83309
G1 X150.591 Y128.317 E5.86122
G1 X150.595 Y128.98 E5.88328
G1 X150.584 Y129.592 E5.90363
G1 X150.549 Y130.231 E5.92492
G1 X150.494 Y130.866 E5.94612
G1 X150.42 Y131.532 E5.96841
G1 X150.269 Y132.458 E5.99961
G1 X150.047 Y133.333 E6.02964
G1 X149.724 Y134.252 E6.06204
G1 X149.334 Y135.107 E6.09329
G1 X148.871 Y135.923 E6.1245
G1 X148.337 Y136.695 E6.15572
G1 X147.738 Y137.416 E6.18689
G1 X147.112 Y138.05 E6.21653
G1 X146.609 Y138.518 E6.23938
G1 X145.509 Y139.509 E6.28862
G1 X143.702 Y141.231 E6.37164
G1 X141.91 Y143.038 E6.45629
G1 X140.132 Y144.934 E6.54274
G1 X139.342 Y145.81 E6.58197
G1 X138.683 Y146.479 E6.61321
G1 X137.995 Y147.064 E6.64324
G1 X137.201 Y147.627 E6.67562
G1 X136.421 Y148.082 E6.70565
G1 X135.539 Y148.496 E6.73806
G1 X134.658 Y148.816 E6.76923
G1 X133.748 Y149.058 E6.80055
G1 X132.749 Y149.229 E6.83426
G1 X131.999 Y149.313 E6.85936
G1 X131.558 Y149.351 E6.87408
G1 X130.852 Y149.388 E6.8976
G1 X129.949 Y149.405 E6.92764
G1 X129.098 Y149.386 E6.95595
G1 X128.435 Y149.344 E6.97804
G1 X127.8 Y149.289 E6.99924
G1 X127.213 Y149.215 E7.01892
G1 X126.587 Y149.119 E7.03999
G1 X125.976 Y149.009 E7.06064
G1 X125.272 Y148.852 E7.08463
G1 X124.413 Y148.629 E7.11414
G1 X123.52 Y148.354 E7.14522
G1 X122.625 Y148.033 E7.17685
G1 X121.739 Y147.669 E7.2087
G1 X120.898 Y147.277 E7.23956
G1 X120.061 Y146.84 E7.27097
G1 X119.264 Y146.376 E7.30164
G1 X118.538 Y145.913 E7.33028
G1 X118.004 Y145.54 E7.35195
G1 X117.454 Y145.136 E7.37464
G1 X116.727 Y144.541 E7.40589
G1 X116.057 Y143.884 E7.4371
G1 X115.469 Y143.198 E7.46715
G1 X114.903 Y142.406 E7.49953
G1 X114.43 Y141.597 E7.5307
G1 X114.028 Y140.748 E7.56194
G1 X113.704 Y139.867 E7.59316
G1 X113.468 Y139.001 E7.62302
G1 X113.293 Y138.228 E7.64938
G1 X113.008 Y136.891 E7.69485
G1 X112.403 Y134.4 E7.7801
G1 X111.735 Y131.952 E7.8645
G1 X111.001 Y129.534 E7.94855
G1 X110.637 Y128.417 E7.98762
G1 X110.396 Y127.546 E8.01768
G1 X110.221 Y126.589 E8.05004
G1 X110.134 Y125.654 E8.08127
G1 X110.131 Y124.716 E8.11247
G1 X110.211 Y123.78 E8.14372
G1 X110.374 Y122.856 E8.17492
G1 X110.618 Y121.948 E8.20619
G1 X110.973 Y120.99 E8.24017
G1 X111.249 Y120.355 E8.2632
G1 X111.446 Y119.93 E8.27878
G1 X111.781 Y119.268 E8.30346
G1 X112.213 Y118.485 E8.3332
G1 X112.652 Y117.764 E8.36128
G1 X113.052 Y117.161 E8.38535
G1 X113.418 Y116.64 E8.40652
G1 X113.753 Y116.199 E8.42494
G1 X114.138 Y115.72 E8.44538
G1 X114.57 Y115.209 E8.46764
G1 X115.029 Y114.71 E8.49019
G1 X115.639 Y114.088 E8.51917
G0 F6000 X115.925 Y114.368
G1 F1200 X116.625 Y113.718 E8.55094
G1 X117.327 Y113.125 E8.5815
G1 X118.057 Y112.563 E8.61214
G1 X118.815 Y112.032 E8.64293
G1 X119.523 Y111.578 E8.6709
G1 X120.059 Y111.265 E8.69154
G1 X120.598 Y110.967 E8.71203
G1 X121.14 Y110.693 E8.73223
G1 X122.272 Y110.178 E8.77359
G1 X123.115 Y109.855 E8.80362
G1 X123.984 Y109.607 E8.83367
G1 X124.871 Y109.438 E8.86371
G1 X125.769 Y109.347 E8.89373
G1 X126.672 Y109.336 E8.92376
G1 X127.573 Y109.406 E8.95382
G1 X128.464 Y109.554 E8.98386
G1 X129.357 Y109.787 E9.01456
G1 X129.987 Y109.982 E9.03649
G1 X131.435 Y110.451 E9.08712
G1 X133.907 Y111.176 E9.1728
G1 X136.371 Y111.823 E9.25753
G1 X138.85 Y112.4 E9.34219
G1 X139.948 Y112.632 E9.37951
G1 X140.822 Y112.858 E9.40954
G1 X141.673 Y113.16 E9.43957
G1 X142.494 Y113.536 E9.4696
G1 X143.278 Y113.984 E9.49964
G1 X144.02 Y114.499 E9.52968
G1 X144.714 Y115.078 E9.55974
G1 X145.353 Y115.715 E9.58975
G1 X145.994 Y116.487 E9.62312
G1 X146.413 Y117.053 E9.64655
G1 X146.661 Y117.405 E9.66087
G1 X147.054 Y118.006 E9.68475
G1 X147.507 Y118.756 E9.71389
G1 X147.956 Y119.584 E9.74522
G1 X148.373 Y120.445 E9.77704
G1 X148.737 Y121.292 E9.8077
G1 X149.056 Y122.138 E9.83777
G1 X149.343 Y123.018 E9.86856
G1 X149.572 Y123.846 E9.89713
G1 X149.776 Y124.736 E9.9275
G1 X149.951 Y125.696 E9.95996
G1 X150.077 Y126.635 E9.99147
G1 X150.152 Y127.491 E10.02005
G1 X150.191 Y128.319 E10.04762
G1 X150.195 Y128.973 E10.06937
G1 X150.185 Y129.57 E10.08923
G1 X150.15 Y130.197 E10.11012
G1 X150.096 Y130.822 E10.13098
G1 X150.025 Y131.468 E10.1526
G1 X149.881 Y132.36 E10.18265
G1 X149.659 Y133.235 E10.21268
G1 X149.36 Y134.087 E10.24271
G1 X148.986 Y134.91 E10.27277
G1 X148.542 Y135.696 E10.3028
G1 X148.029 Y136.44 E10.33286
G1 X147.453 Y137.135 E10.36288
G1 X146.84 Y137.757 E10.39193
G1 X146.341 Y138.221 E10.41459
G1 X145.233 Y139.219 E10.46419
G1 X143.426 Y140.941 E10.54721
G1 X141.626 Y142.756 E10.63223
G1 X139.84 Y144.66 E10.71905
G1 X139.057 Y145.53 E10.75798
G1 X138.424 Y146.174 E10.78802
G1 X137.736 Y146.759 E10.81806
G1 X136.999 Y147.281 E10.84809
G1 X136.219 Y147.736 E10.87813
G1 X135.402 Y148.12 E10.90815
G1 X134.554 Y148.43 E10.93818
G1 X133.681 Y148.664 E10.96824
G1 X132.704 Y148.831 E11.00121
G1 X131.965 Y148.914 E11.02594
G1 X131.524 Y148.952 E11.04067
G1 X130.844 Y148.988 E11.06332
G1 X129.958 Y149.005 E11.09279
G1 X129.123 Y148.987 E11.12057
G1 X128.47 Y148.946 E11.14233
G1 X127.85 Y148.892 E11.16303
G1 X127.274 Y148.82 E11.18234
G1 X126.658 Y148.725 E11.20307
G1 X126.047 Y148.615 E11.22372
G1 X125.372 Y148.465 E11.24671
G1 X124.531 Y148.247 E11.27561
G1 X123.655 Y147.977 E11.3061
G1 X122.777 Y147.663 E11.33711
G1 X121.908 Y147.306 E11.36836
G1 X121.083 Y146.922 E11.39863
G1 X120.262 Y146.494 E11.42942
G1 X119.479 Y146.039 E11.45954
G1 X118.767 Y145.585 E11.48763
G1 X118.241 Y145.218 E11.50896
G1 X117.707 Y144.826 E11.53099
G1 X117.007 Y144.255 E11.56104
G1 X116.361 Y143.624 E11.59107
G1 X115.773 Y142.938 E11.62112
G1 X115.248 Y142.203 E11.65116
G1 X114.791 Y141.425 E11.68117
G1 X114.403 Y140.609 E11.71123
G1 X114.09 Y139.762 E11.74126
G1 X113.858 Y138.913 E11.77053
G1 X113.684 Y138.145 E11.79672
G1 X113.397 Y136.797 E11.84256
G1 X112.792 Y134.306 E11.92782
G1 X112.121 Y131.847 E12.0126
G1 X111.384 Y129.418 E12.09703
G1 X111.023 Y128.31 E12.13579
G1 X110.782 Y127.439 E12.16584
G1 X110.619 Y126.551 E12.19587
G1 X110.534 Y125.652 E12.22591
G1 X110.53 Y124.749 E12.25594
G1 X110.605 Y123.849 E12.28598
G1 X110.76 Y122.959 E12.31603
G1 X110.993 Y122.087 E12.34605
G1 X111.34 Y121.149 E12.37931
G1 X111.612 Y120.523 E12.40201
G1 X111.803 Y120.11 E12.41715
G1 X112.131 Y119.461 E12.44133
G1 X112.555 Y118.693 E12.47051
G1 X112.985 Y117.985 E12.49806
G1 X113.379 Y117.391 E12.52177
G1 X113.736 Y116.882 E12.54245
G1 X114.065 Y116.45 E12.56051
G1 X114.45 Y115.971 E12.58095
G1 X114.865 Y115.48 E12.60233
G1 X115.315 Y114.99 E12.62446
G1 X115.925 Y114.368 E12.65343
G1 F1500 E6.15343
;MESH:Wheel.3mf
G0 F6000 X126.631 Y128.241
G0 X128.343 Y131.57
;TYPE:WALL-INNER
G1 F1500 E12.65343
G1 F1200 X128.112 Y131.46 E12.66194
G1 X127.656 Y131.066 E12.68199
G1 X127.282 Y130.591 E12.70209
G1 X127.021 Y130.089 E12.72091
G1 X126.828 Y129.481 E12.74213
G1 X126.759 Y128.873 E12.76248
G1 X126.81 Y128.271 E12.78258
G1 X126.965 Y127.686 E12.8027
G1 X127.229 Y127.136 E12.823
G1 X127.572 Y126.675 E12.84211
G1 X128.025 Y126.251 E12.86274
G1 X128.548 Y125.917 E12.88338
G1 X129.117 Y125.695 E12.9037
G1 X129.707 Y125.584 E12.92367
G1 X130.32 Y125.584 E12.94405
G1 X130.889 Y125.692 E12.96332
G1 X131.47 Y125.915 E12.98402
G1 X131.986 Y126.238 E13.00426
G1 X132.431 Y126.645 E13.02432
G1 X132.791 Y127.129 E13.04438
G1 X133.057 Y127.684 E13.06485
G1 X133.213 Y128.258 E13.08464
G1 X133.266 Y128.864 E13.10487
G1 X133.201 Y129.471 E13.12517
G1 X133.019 Y130.06 E13.14568
G1 X132.745 Y130.587 E13.16543
G1 X132.359 Y131.073 E13.18608
G1 X131.916 Y131.457 E13.20558
G1 X131.632 Y131.568 E13.21572
G1 X128.343 Y131.57 E13.32511
G1 F1500 E6.82511
G0 F6000 X127.681 Y131.22
G0 X128.181 Y131.373
G0 X131.02 Y131.767
G0 X131.671 Y136.29
G0 X131.056 Y138.153
G1 F1500 E13.32511
G1 F1200 X131.332 Y137.446 E13.35035
G1 X131.848 Y136.384 E13.38962
G1 X132.458 Y135.359 E13.4293
G1 X133.119 Y134.431 E13.46719
G1 X133.876 Y133.531 E13.50631
G1 X134.682 Y132.723 E13.54427
G1 X135.588 Y131.953 E13.58381
G1 X136.573 Y131.251 E13.62404
G1 X137.557 Y130.665 E13.66213
G1 X138.629 Y130.144 E13.70178
G1 X139.344 Y129.866 E13.72729
G1 X139.396 Y129.364 E13.74408
G1 X139.406 Y128.489 E13.77318
G1 X139.34 Y127.666 E13.80064
G1 X139.191 Y126.794 E13.83007
G1 X138.977 Y125.998 E13.85748
G1 X138.676 Y125.179 E13.8865
G1 X138.311 Y124.408 E13.91487
G1 X137.883 Y123.687 E13.94276
G1 X137.57 Y123.253 E13.96056
G1 X136.778 Y123.373 E13.9872
G1 X135.664 Y123.452 E14.02435
G1 X134.494 Y123.44 E14.06326
G1 X133.321 Y123.33 E14.10245
G1 X132.158 Y123.121 E14.14175
G1 X131.036 Y122.823 E14.18036
G1 X129.932 Y122.427 E14.21937
G1 X128.873 Y121.946 E14.25806
G1 X127.866 Y121.385 E14.2964
G1 X126.882 Y120.723 E14.33584
G1 X126.252 Y120.22 E14.36266
G1 X125.788 Y120.429 E14.37958
G1 X125.041 Y120.848 E14.40807
G1 X124.328 Y121.338 E14.43684
G1 X123.684 Y121.873 E14.46469
G1 X123.074 Y122.484 E14.49341
G1 X122.529 Y123.138 E14.52172
G1 X122.041 Y123.846 E14.55032
G1 X121.629 Y124.575 E14.57817
G1 X121.41 Y125.061 E14.5959
G1 X121.876 Y125.64 E14.62062
G1 X122.565 Y126.658 E14.66151
G1 X123.136 Y127.681 E14.70047
G1 X123.597 Y128.693 E14.73746
G1 X123.997 Y129.796 E14.77648
G1 X124.3 Y130.92 E14.8152
G1 X124.521 Y132.134 E14.85624
G1 X124.626 Y133.23 E14.89286
G1 X124.645 Y134.41 E14.93212
G1 X124.56 Y135.625 E14.97263
G1 X124.442 Y136.38 E14.99804
G1 X124.864 Y136.684 E15.01534
G1 X125.591 Y137.115 E15.04345
G1 X126.362 Y137.482 E15.07185
G1 X127.177 Y137.783 E15.10075
G1 X127.977 Y137.998 E15.1283
G1 X128.85 Y138.149 E15.15777
G1 X129.676 Y138.215 E15.18533
G1 X130.544 Y138.206 E15.2142
G1 X131.056 Y138.153 E15.23132
G0 F6000 X131.34 Y138.527
;TYPE:WALL-OUTER
G1 F1200 X131.705 Y137.591 E15.26473
G1 X132.206 Y136.563 E15.30277
G1 X132.784 Y135.591 E15.34038
G1 X133.445 Y134.663 E15.37828
G1 X134.183 Y133.788 E15.41635
G1 X134.977 Y132.995 E15.45367
G1 X135.859 Y132.249 E15.49209
G1 X136.778 Y131.595 E15.52961
G1 X137.746 Y131.018 E15.56709
G1 X138.775 Y130.517 E15.60516
G1 X139.717 Y130.15 E15.63878
