;FLAVOR:Marlin
;TIME:4610
;Filament used: 4.10935m
;Layer height: 0.2
;MINX:93.851
;MINY:97.799
;MINZ:0.2
;MAXX:167.35
;MAXY:171.29
;MAXZ:27.2
;Generated with Cura_SteamEngine 5.4.0
M140 S60
M105
M190 S60
M104 S200
M105
M109 S200
M82 ;absolute extrusion mode
M201 X500.00 Y500.00 Z100.00 E5000.00 ;Setup machine max acceleration
M203 X500.00 Y500.00 Z10.00 E50.00 ;Setup machine max feedrate
M204 P500.00 R1000.00 T500.00 ;Setup Print/Retract/Travel acceleration
M205 X8.00 Y8.00 Z0.40 E5.00 ;Setup Jerk
M220 S100 ;Reset Feedrate
M221 S100 ;Reset Flowrate

G28 ;Home

G92 E0 ;Reset Extruder
G1 Z2.0 F3000 ;Move Z Axis up
G1 X10.1 Y20 Z0.28 F5000.0 ;Move to start position
G1 X10.1 Y200.0 Z0.28 F1500.0 E15 ;Draw the first line
G1 X10.4 Y200.0 Z0.28 F5000.0 ;Move to side a little
G1 X10.4 Y20 Z0.28 F1500.0 E30 ;Draw the second line
G92 E0 ;Reset Extruder
G1 Z2.0 F3000 ;Move Z Axis up

G92 E0
G92 E0
G1 F1500 E-6.5
;LAYER_COUNT:136
;LAYER:0
M107
G0 F9000 X114.575 Y102.517 Z0.2
;TYPE:SKIRT
G1 F1500 E0
G1 F3000 X115.31 Y101.826 E0.03355
G1 X116.076 Y101.224 E0.06596
G1 X116.892 Y100.693 E0.09834
G1 X117.753 Y100.237 E0.13074
G1 X118.64 Y99.861 E0.16279
G1 X119.257 Y99.652 E0.18445
G1 X120.557 Y99.26 E0.22961
G1 X121.892 Y98.9 E0.2756
G1 X122.958 Y98.649 E0.31203
G1 X123.934 Y98.451 E0.34515
G1 X125.325 Y98.214 E0.39208
G1 X126.121 Y98.102 E0.41882
G1 X127.22 Y97.977 E0.45561
G1 X127.957 Y97.911 E0.48022
G1 X129.392 Y97.828 E0.52803
G1 X130.676 Y97.799 E0.57074
G1 X131.603 Y97.806 E0.60158
G1 X132.495 Y97.836 E0.63126
G1 X133.717 Y97.912 E0.67198
G1 X134.743 Y98.005 E0.70625
G1 X136.075 Y98.172 E0.7509
G1 X137.325 Y98.371 E0.793
G1 X138.47 Y98.594 E0.83179
G1 X139.389 Y98.798 E0.8631
G1 X140.597 Y99.108 E0.90458
G1 X141.508 Y99.37 E0.93611
G1 X142.414 Y99.655 E0.9677
G1 X143.648 Y100.088 E1.0112
G1 X144.576 Y100.446 E1.04428
G1 X145.802 Y100.963 E1.08853
G1 X146.867 Y101.453 E1.12753
G1 X147.643 Y101.837 E1.15632
G1 X148.563 Y102.324 E1.19095
G1 X149.689 Y102.962 E1.23399
G1 X150.448 Y103.424 E1.26354
G1 X151.485 Y104.098 E1.30468
G1 X152.546 Y104.84 E1.34774
G1 X153.417 Y105.49 E1.38389
G1 X153.907 Y105.875 E1.40461
G1 X154.941 Y106.732 E1.44928
G1 X155.779 Y107.475 E1.48653
G1 X156.703 Y108.346 E1.52877
G1 X157.482 Y109.132 E1.56557
G1 X158.374 Y110.068 E1.60858
G1 X159.013 Y110.804 E1.641
G1 X159.563 Y111.564 E1.6722
G1 X160.08 Y112.43 E1.70574
G1 X160.503 Y113.308 E1.73816
G1 X160.846 Y114.219 E1.77054
G1 X161.107 Y115.152 E1.80276
G1 X161.252 Y115.9 E1.8281
G1 X161.412 Y116.906 E1.86198
G1 X161.868 Y119.527 E1.95046
G1 X162.367 Y121.985 E2.03389
G1 X162.938 Y124.443 E2.11782
G1 X163.579 Y126.88 E2.20163
G1 X164.287 Y129.295 E2.28533
G1 X165.073 Y131.724 E2.37025
G1 X165.903 Y134.06 E2.4527
G1 X166.623 Y135.933 E2.51944
G1 X166.936 Y136.876 E2.55249
G1 X167.159 Y137.823 E2.58485
G1 X167.291 Y138.716 E2.61487
G1 X167.35 Y139.759 E2.64962
G1 X167.316 Y140.733 E2.68203
G1 X167.2 Y141.685 E2.71393
G1 X167.093 Y142.238 E2.73266
G1 X166.96 Y142.815 E2.75236
G1 X166.654 Y144.023 E2.7938
G1 X166.381 Y145.024 E2.82831
G1 X166.034 Y146.163 E2.86792
G1 X165.725 Y147.08 E2.9001
G1 X165.42 Y147.91 E2.92951
G1 X165.064 Y148.815 E2.96186
G1 X164.53 Y150.054 E3.00673
G1 X163.998 Y151.178 E3.04809
G1 X163.579 Y152 E3.07878
G1 X163.143 Y152.806 E3.10926
G1 X162.338 Y154.178 E3.16216
G1 X161.839 Y154.964 E3.19313
G1 X161.316 Y155.745 E3.22439
G1 X160.546 Y156.822 E3.26843
G1 X159.965 Y157.586 E3.30035
G1 X159.123 Y158.624 E3.3448
G1 X158.402 Y159.453 E3.38135
G1 X157.683 Y160.234 E3.41665
G1 X156.854 Y161.079 E3.45603
G1 X156.133 Y161.773 E3.48931
G1 X155.194 Y162.626 E3.5315
G1 X154.453 Y163.256 E3.56385
G1 X153.468 Y164.047 E3.60587
G1 X152.737 Y164.595 E3.63626
G1 X151.667 Y165.353 E3.67987
G1 X151.111 Y165.726 E3.70214
G1 X149.898 Y166.487 E3.74977
G1 X149.036 Y166.991 E3.78298
G1 X148.218 Y167.44 E3.81401
G1 X147.271 Y167.926 E3.84942
G1 X146.198 Y168.437 E3.88895
G1 X145.073 Y168.927 E3.92976
G1 X143.844 Y169.416 E3.97375
G1 X143.242 Y169.635 E3.99506
G1 X142.14 Y170.004 E4.03371
G1 X141.082 Y170.329 E4.07052
G1 X140.677 Y170.443 E4.08452
G1 X139.345 Y170.789 E4.13029
G1 X138.405 Y171.012 E4.16242
G1 X137.447 Y171.19 E4.19483
G1 X136.478 Y171.283 E4.22721
G1 X135.506 Y171.29 E4.25954
G1 X134.605 Y171.219 E4.2896
G1 X133.575 Y171.045 E4.32434
G1 X132.701 Y170.816 E4.35439
G1 X132.004 Y170.578 E4.37889
G1 X130.603 Y170.045 E4.42874
G1 X128.17 Y169.163 E4.51482
G1 X125.772 Y168.371 E4.59881
G1 X123.321 Y167.637 E4.68391
G1 X120.944 Y166.998 E4.76578
G1 X118.488 Y166.414 E4.84974
G1 X115.992 Y165.892 E4.93456
G1 X113.518 Y165.448 E5.01816
G1 X111.952 Y165.202 E5.07088
G1 X110.999 Y165.006 E5.10324
G1 X110.065 Y164.727 E5.13566
G1 X109.162 Y164.367 E5.16799
G1 X108.323 Y163.945 E5.19923
G1 X107.466 Y163.412 E5.2328
G1 X106.697 Y162.836 E5.26475
G1 X106.255 Y162.454 E5.28418
G1 X105.791 Y162.021 E5.30529
G1 X104.898 Y161.15 E5.34678
G1 X104.145 Y160.389 E5.38239
G1 X103.405 Y159.599 E5.41839
G1 X102.845 Y158.963 E5.44658
G1 X102.125 Y158.102 E5.48391
G1 X101.259 Y156.997 E5.5306
G1 X100.672 Y156.191 E5.56377
G1 X100.15 Y155.435 E5.59432
G1 X99.463 Y154.375 E5.63634
G1 X98.94 Y153.51 E5.66996
G1 X98.259 Y152.303 E5.71605
G1 X97.852 Y151.519 E5.74543
G1 X97.427 Y150.651 E5.77757
G1 X96.892 Y149.471 E5.82067
G1 X96.44 Y148.384 E5.85982
G1 X96.081 Y147.439 E5.89344
G1 X95.658 Y146.221 E5.93633
G1 X95.394 Y145.369 E5.96599
G1 X95.038 Y144.091 E6.01012
G1 X94.826 Y143.229 E6.03964
G1 X94.537 Y141.88 E6.08553
G1 X94.373 Y140.985 E6.11579
G1 X94.246 Y140.179 E6.14293
G1 X94.11 Y139.164 E6.17699
G1 X93.991 Y138.013 E6.21548
G1 X93.915 Y136.991 E6.24957
G1 X93.854 Y135.389 E6.30289
G1 X93.851 Y134.388 E6.33618
G1 X93.878 Y133.34 E6.37105
G1 X93.932 Y132.319 E6.40505
G1 X94.057 Y130.881 E6.45306
G1 X94.186 Y129.806 E6.48907
G1 X94.3 Y129.037 E6.51493
G1 X94.5 Y127.883 E6.55388
G1 X94.709 Y126.863 E6.58852
G1 X94.994 Y125.66 E6.62963
G1 X95.294 Y124.552 E6.66781
G1 X95.659 Y123.309 E6.7109
G1 X95.951 Y122.454 E6.74095
G1 X96.377 Y121.498 E6.77576
G1 X96.852 Y120.648 E6.80815
G1 X97.4 Y119.843 E6.84054
G1 X98.017 Y119.091 E6.87289
G1 X98.67 Y118.422 E6.90398
G1 X99.256 Y117.909 E6.92989
G1 X100.182 Y117.154 E6.96963
G1 X102.241 Y115.433 E7.05888
G1 X104.105 Y113.778 E7.14179
G1 X105.935 Y112.061 E7.22525
G1 X107.727 Y110.283 E7.30921
G1 X109.471 Y108.451 E7.39334
G1 X111.151 Y106.581 E7.47695
G1 X112.809 Y104.628 E7.56216
G1 X113.94 Y103.232 E7.62192
G1 X114.575 Y102.517 E7.65372
G0 F9000 X114.874 Y102.783
G1 F3000 X115.557 Y102.14 E7.68492
G1 X116.295 Y101.559 E7.71616
G1 X117.08 Y101.046 E7.74735
G1 X117.909 Y100.605 E7.77858
G1 X118.768 Y100.24 E7.80962
G1 X119.373 Y100.035 E7.83087
G1 X120.661 Y99.646 E7.87562
G1 X121.984 Y99.289 E7.9212
G1 X123.038 Y99.041 E7.95721
G1 X124.001 Y98.845 E7.9899
G1 X125.381 Y98.61 E8.03646
G1 X126.166 Y98.499 E8.06283
G1 X127.256 Y98.375 E8.09931
G1 X127.98 Y98.31 E8.12349
G1 X129.401 Y98.228 E8.17083
G1 X130.673 Y98.199 E8.21315
G1 X131.59 Y98.206 E8.24365
G1 X132.47 Y98.235 E8.27294
G1 X133.692 Y98.311 E8.31366
G1 X134.693 Y98.402 E8.34709
G1 X136.012 Y98.567 E8.3913
G1 X137.249 Y98.764 E8.43296
G1 X138.383 Y98.984 E8.47138
G1 X139.29 Y99.186 E8.50229
G1 X140.486 Y99.492 E8.54335
G1 X141.388 Y99.752 E8.57457
G1 X142.294 Y100.037 E8.60616
G1 X143.504 Y100.461 E8.6488
G1 X144.42 Y100.814 E8.68145
G1 X145.635 Y101.327 E8.72532
G1 X146.689 Y101.811 E8.7639
G1 X147.456 Y102.191 E8.79237
G1 X148.366 Y102.672 E8.8266
G1 X149.481 Y103.304 E8.86923
G1 X150.23 Y103.76 E8.89839
G1 X151.256 Y104.426 E8.93908
G1 X152.307 Y105.161 E8.98173
G1 X153.17 Y105.805 E9.01755
G1 X153.652 Y106.183 E9.03792
G1 X154.676 Y107.031 E9.08214
G1 X155.505 Y107.766 E9.11899
G1 X156.419 Y108.627 E9.16076
G1 X157.192 Y109.408 E9.1973
G1 X158.072 Y110.331 E9.23972
G1 X158.689 Y111.039 E9.27095
G1 X159.239 Y111.799 E9.30216
G1 X159.72 Y112.604 E9.33335
G1 X160.129 Y113.45 E9.3646
G1 X160.461 Y114.327 E9.39579
G1 X160.714 Y115.228 E9.42692
G1 X160.857 Y115.963 E9.45182
G1 X161.018 Y116.975 E9.4859
G1 X161.476 Y119.607 E9.57476
G1 X161.977 Y122.076 E9.65855
G1 X162.551 Y124.545 E9.74286
G1 X163.195 Y126.993 E9.82705
G1 X163.906 Y129.418 E9.9111
G1 X164.696 Y131.858 E9.99641
G1 X165.53 Y134.204 E10.07922
G1 X166.25 Y136.077 E10.14596
G1 X166.547 Y136.968 E10.1772
G1 X166.763 Y137.881 E10.2084
G1 X166.895 Y138.774 E10.23843
G1 X166.95 Y139.746 E10.27081
G1 X166.919 Y140.685 E10.30205
G1 X166.807 Y141.609 E10.33301
G1 X166.703 Y142.148 E10.35127
G1 X166.572 Y142.717 E10.37069
G1 X166.268 Y143.918 E10.4119
G1 X165.998 Y144.908 E10.44603
G1 X165.655 Y146.035 E10.48521
G1 X165.349 Y146.942 E10.51704
G1 X165.048 Y147.764 E10.54616
G1 X164.697 Y148.657 E10.57807
G1 X164.168 Y149.883 E10.62248
G1 X163.642 Y150.996 E10.66343
G1 X163.227 Y151.81 E10.69382
G1 X162.798 Y152.604 E10.72383
G1 X162 Y153.964 E10.77628
G1 X161.507 Y154.741 E10.80689
G1 X160.99 Y155.513 E10.83779
G1 X160.228 Y156.58 E10.8814
G1 X159.654 Y157.334 E10.91292
G1 X158.821 Y158.362 E10.95692
G1 X158.108 Y159.182 E10.99307
G1 X157.398 Y159.954 E11.02795
G1 X156.576 Y160.791 E11.06697
G1 X155.864 Y161.477 E11.09985
G1 X154.935 Y162.321 E11.1416
G1 X154.203 Y162.944 E11.17357
G1 X153.228 Y163.727 E11.21516
G1 X152.506 Y164.269 E11.24519
G1 X151.444 Y165.021 E11.28847
G1 X150.898 Y165.387 E11.31033
G1 X149.696 Y166.142 E11.35754
G1 X148.844 Y166.64 E11.39037
G1 X148.035 Y167.084 E11.42106
G1 X147.099 Y167.565 E11.45606
G1 X146.038 Y168.07 E11.49514
G1 X144.925 Y168.555 E11.53552
G1 X143.707 Y169.04 E11.57913
G1 X143.115 Y169.256 E11.60009
G1 X142.023 Y169.622 E11.63839
G1 X140.974 Y169.944 E11.67489
G1 X140.576 Y170.056 E11.68864
G1 X139.252 Y170.4 E11.73414
G1 X138.331 Y170.619 E11.76563
G1 X137.408 Y170.792 E11.79686
G1 X136.475 Y170.883 E11.82804
G1 X135.537 Y170.891 E11.85924
G1 X134.636 Y170.82 E11.8893
G1 X133.676 Y170.658 E11.92168
G1 X132.802 Y170.429 E11.95173
G1 X132.146 Y170.204 E11.9748
G1 X130.745 Y169.671 E12.02465
G1 X128.295 Y168.783 E12.11133
G1 X125.897 Y167.991 E12.19532
G1 X123.436 Y167.254 E12.28077
G1 X121.037 Y166.609 E12.36339
G1 X118.57 Y166.022 E12.44774
G1 X116.074 Y165.5 E12.53255
G1 X113.589 Y165.054 E12.61652
G1 X112.032 Y164.81 E12.66894
G1 X111.113 Y164.623 E12.70013
G1 X110.213 Y164.355 E12.73137
G1 X109.341 Y164.009 E12.76257
G1 X108.534 Y163.605 E12.79259
G1 X107.706 Y163.092 E12.82498
G1 X106.959 Y162.533 E12.85601
G1 X106.517 Y162.151 E12.87544
G1 X106.07 Y161.734 E12.89578
G1 X105.182 Y160.869 E12.93701
G1 X104.437 Y160.116 E12.97224
G1 X103.705 Y159.334 E13.00787
G1 X103.152 Y158.707 E13.03567
G1 X102.44 Y157.855 E13.0726
G1 X101.582 Y156.761 E13.11884
G1 X101.001 Y155.964 E13.15165
G1 X100.486 Y155.217 E13.18183
G1 X99.805 Y154.168 E13.22342
G1 X99.288 Y153.313 E13.25666
G1 X98.614 Y152.119 E13.30226
G1 X98.211 Y151.343 E13.33134
G1 X97.791 Y150.486 E13.36308
G1 X97.261 Y149.317 E13.40577
G1 X96.814 Y148.242 E13.4445
G1 X96.459 Y147.308 E13.47773
G1 X96.04 Y146.102 E13.52019
G1 X95.779 Y145.262 E13.54945
G1 X95.426 Y143.996 E13.59316
G1 X95.217 Y143.145 E13.62231
G1 X94.93 Y141.808 E13.66779
G1 X94.768 Y140.923 E13.69771
G1 X94.642 Y140.126 E13.72455
G1 X94.508 Y139.123 E13.75821
G1 X94.39 Y137.983 E13.79633
G1 X94.315 Y136.976 E13.82991
G1 X94.254 Y135.388 E13.88277
G1 X94.251 Y134.398 E13.9157
G1 X94.277 Y133.361 E13.9502
G1 X94.331 Y132.353 E13.98377
G1 X94.454 Y130.929 E14.03131
G1 X94.582 Y129.864 E14.06699
G1 X94.694 Y129.105 E14.09251
G1 X94.892 Y127.963 E14.13106
G1 X95.098 Y126.955 E14.16528
G1 X95.38 Y125.765 E14.20595
G1 X95.678 Y124.665 E14.24386
G1 X96.038 Y123.438 E14.28639
G1 X96.33 Y122.583 E14.31644
G1 X96.726 Y121.693 E14.34884
G1 X97.183 Y120.873 E14.38006
G1 X97.71 Y120.096 E14.41129
G1 X98.304 Y119.37 E14.44249
G1 X98.934 Y118.723 E14.47252
G1 X99.509 Y118.219 E14.49795
G1 X100.435 Y117.464 E14.53769
G1 X102.498 Y115.739 E14.62713
G1 X104.379 Y114.07 E14.71077
G1 X106.209 Y112.353 E14.79423
G1 X108.009 Y110.567 E14.87857
G1 X109.761 Y108.727 E14.96308
G1 X111.449 Y106.848 E15.04709
G1 X113.114 Y104.887 E15.13265
G1 X114.239 Y103.498 E15.1921
G1 X114.874 Y102.783 E15.2239
G0 F9000 X115.149 Y103.074
G1 F3000 X115.805 Y102.454 E15.25393
G1 X116.514 Y101.894 E15.28398
G1 X117.269 Y101.399 E15.314
G1 X118.066 Y100.973 E15.34406
G1 X118.897 Y100.619 E15.3741
G1 X119.489 Y100.418 E15.3949
G1 X120.765 Y100.032 E15.43924
G1 X122.075 Y99.678 E15.48437
G1 X123.118 Y99.433 E15.52
G1 X124.068 Y99.239 E15.55225
G1 X125.437 Y99.006 E15.59844
G1 X126.211 Y98.896 E15.62444
G1 X127.292 Y98.773 E15.66063
G1 X128.003 Y98.709 E15.68437
G1 X129.41 Y98.628 E15.73125
G1 X130.67 Y98.599 E15.77317
G1 X131.577 Y98.606 E15.80333
G1 X132.445 Y98.634 E15.83222
G1 X133.656 Y98.709 E15.87257
G1 X134.643 Y98.799 E15.90554
G1 X135.949 Y98.962 E15.94931
G1 X137.173 Y99.157 E15.99054
G1 X138.296 Y99.374 E16.02858
G1 X139.191 Y99.574 E16.05908
G1 X140.375 Y99.876 E16.09972
G1 X141.268 Y100.133 E16.13063
G1 X142.162 Y100.415 E16.16181
G1 X143.36 Y100.834 E16.20402
G1 X144.265 Y101.183 E16.23628
G1 X145.468 Y101.69 E16.2797
G1 X146.511 Y102.169 E16.31787
G1 X147.269 Y102.545 E16.34602
G1 X148.169 Y103.02 E16.37986
G1 X149.273 Y103.646 E16.42208
G1 X150.012 Y104.096 E16.45085
G1 X151.027 Y104.754 E16.49109
G1 X152.068 Y105.482 E16.53334
G1 X152.923 Y106.12 E16.56882
G1 X153.397 Y106.491 E16.58884
G1 X154.411 Y107.33 E16.63261
G1 X155.231 Y108.057 E16.66906
G1 X156.135 Y108.909 E16.71038
G1 X156.903 Y109.684 E16.74667
G1 X157.771 Y110.594 E16.78849
G1 X158.365 Y111.274 E16.81853
G1 X158.896 Y112.005 E16.84858
G1 X159.36 Y112.779 E16.87859
G1 X159.755 Y113.592 E16.90865
G1 X160.076 Y114.436 E16.93869
G1 X160.321 Y115.305 E16.96872
G1 X160.462 Y116.026 E16.99315
G1 X160.624 Y117.044 E17.02744
G1 X161.084 Y119.686 E17.11663
G1 X161.587 Y122.167 E17.20083
G1 X162.164 Y124.647 E17.28552
G1 X162.811 Y127.106 E17.37009
G1 X163.525 Y129.541 E17.45449
G1 X164.319 Y131.992 E17.54018
G1 X165.157 Y134.348 E17.62335
G1 X165.871 Y136.204 E17.68949
G1 X166.158 Y137.061 E17.71955
G1 X166.367 Y137.939 E17.74957
G1 X166.499 Y138.832 E17.77959
G1 X166.55 Y139.734 E17.80964
G1 X166.522 Y140.637 E17.83969
G1 X166.414 Y141.533 E17.8697
G1 X166.313 Y142.058 E17.88749
G1 X166.184 Y142.619 E17.90663
G1 X165.882 Y143.813 E17.9476
G1 X165.615 Y144.792 E17.98135
G1 X165.276 Y145.907 E18.02011
G1 X164.973 Y146.805 E18.05163
G1 X164.676 Y147.618 E18.08042
G1 X164.33 Y148.498 E18.11187
G1 X163.806 Y149.712 E18.15585
G1 X163.286 Y150.814 E18.19637
G1 X162.875 Y151.62 E18.22647
G1 X162.453 Y152.402 E18.25602
G1 X161.662 Y153.75 E18.30801
G1 X161.175 Y154.518 E18.33825
G1 X160.664 Y155.281 E18.36879
G1 X159.91 Y156.338 E18.41198
G1 X159.343 Y157.082 E18.44309
G1 X158.519 Y158.1 E18.48665
G1 X157.814 Y158.911 E18.52239
G1 X157.112 Y159.674 E18.55688
G1 X156.299 Y160.503 E18.5955
G1 X155.595 Y161.181 E18.628
G1 X154.676 Y162.016 E18.6693
G1 X153.952 Y162.632 E18.70092
G1 X152.988 Y163.407 E18.74206
G1 X152.275 Y163.943 E18.77173
G1 X151.221 Y164.689 E18.81468
G1 X150.685 Y165.048 E18.83613
G1 X149.494 Y165.797 E18.88293
G1 X148.651 Y166.289 E18.91539
G1 X147.852 Y166.728 E18.94571
G1 X146.927 Y167.204 E18.98031
G1 X145.878 Y167.703 E19.01895
G1 X144.777 Y168.183 E19.0589
G1 X143.57 Y168.664 E19.10211
G1 X142.988 Y168.877 E19.12273
G1 X141.906 Y169.24 E19.16069
G1 X140.865 Y169.559 E19.1969
G1 X140.475 Y169.669 E19.21038
G1 X139.159 Y170.011 E19.2556
G1 X138.257 Y170.226 E19.28644
G1 X137.369 Y170.394 E19.3165
G1 X136.471 Y170.483 E19.34651
G1 X135.568 Y170.492 E19.37655
G1 X134.667 Y170.421 E19.40661
G1 X133.777 Y170.271 E19.43663
G1 X132.903 Y170.042 E19.46668
G1 X132.288 Y169.83 E19.48832
G1 X130.887 Y169.297 E19.53817
G1 X128.42 Y168.403 E19.62545
G1 X126.022 Y167.611 E19.70944
G1 X123.551 Y166.871 E19.79523
G1 X121.13 Y166.22 E19.87862
G1 X118.652 Y165.63 E19.96334
G1 X116.156 Y165.108 E20.04815
G1 X113.66 Y164.66 E20.1325
G1 X112.111 Y164.418 E20.18464
G1 X111.226 Y164.239 E20.21467
G1 X110.36 Y163.983 E20.24471
G1 X109.52 Y163.651 E20.27475
G1 X108.713 Y163.247 E20.30477
